( Generated by Carbide Copper )
( Material Size )
( X= 40.000, Y= 40.000, Z= 1.580 )
()
G17
G21
G54
G90
M05
(  )
T501 M06
( Contour )
M03 S10000
G0  X22.769 Y26.010
G0  Z3.000
G01 F400 Z0
G01 F400 Z-0.100
G01F400X22.590 Y25.972
X22.423 Y25.898
X22.275 Y25.790
X22.152 Y25.654
X22.061 Y25.496
X22.004 Y25.322
X21.986 Y25.146
X21.986 Y24.634
X22.004 Y24.458
X22.061 Y24.284
X22.152 Y24.126
X22.275 Y23.990
X22.423 Y23.882
X22.590 Y23.808
X22.769 Y23.770
X22.951 Y23.770
X23.130 Y23.808
X23.297 Y23.882
X23.445 Y23.990
X23.568 Y24.126
X23.659 Y24.284
X23.716 Y24.458
X23.734 Y24.634
X23.734 Y25.146
X23.716 Y25.322
X23.659 Y25.496
X23.568 Y25.654
X23.445 Y25.790
X23.297 Y25.898
X23.130 Y25.972
X22.951 Y26.010
X22.769 Y26.010
G0 Z3.000
G0  X15.149 Y26.010
G0  Z3.000
G01 F400 Z0
G01 F400 Z-0.100
G01F400X14.970 Y25.972
X14.803 Y25.898
X14.655 Y25.790
X14.532 Y25.654
X14.441 Y25.496
X14.384 Y25.322
X14.366 Y25.146
X14.366 Y24.634
X14.384 Y24.458
X14.441 Y24.284
X14.532 Y24.126
X14.655 Y23.990
X14.716 Y23.945
X14.716 Y15.236
X12.924 Y13.444
X12.534 Y13.444
X12.358 Y13.426
X12.184 Y13.369
X12.026 Y13.278
X11.890 Y13.155
X11.782 Y13.007
X11.708 Y12.840
X11.670 Y12.661
X11.670 Y12.479
X11.708 Y12.300
X11.782 Y12.133
X11.890 Y11.985
X12.026 Y11.862
X12.184 Y11.771
X12.358 Y11.714
X12.534 Y11.696
X13.046 Y11.696
X13.222 Y11.714
X13.396 Y11.771
X13.554 Y11.862
X13.690 Y11.985
X13.798 Y12.133
X13.872 Y12.300
X13.910 Y12.479
X13.910 Y12.661
X13.872 Y12.840
X13.850 Y12.890
X15.598 Y14.637
X15.665 Y14.712
X15.719 Y14.807
X15.753 Y14.911
X15.764 Y15.014
X15.764 Y23.945
X15.825 Y23.990
X15.948 Y24.126
X16.039 Y24.284
X16.096 Y24.458
X16.114 Y24.634
X16.114 Y25.146
X16.096 Y25.322
X16.039 Y25.496
X15.948 Y25.654
X15.825 Y25.790
X15.677 Y25.898
X15.510 Y25.972
X15.331 Y26.010
X15.149 Y26.010
G0 Z3.000
G0  X20.474 Y21.064
G0  Z3.000
G01 F400 Z0
G01 F400 Z-0.100
G01F400X20.298 Y21.046
X20.124 Y20.989
X19.966 Y20.898
X19.830 Y20.775
X19.722 Y20.627
X19.648 Y20.460
X19.610 Y20.281
X19.610 Y20.099
X19.648 Y19.920
X19.722 Y19.753
X19.830 Y19.605
X19.966 Y19.482
X20.124 Y19.391
X20.298 Y19.334
X20.474 Y19.316
X20.986 Y19.316
X21.162 Y19.334
X21.336 Y19.391
X21.494 Y19.482
X21.630 Y19.605
X21.738 Y19.753
X21.812 Y19.920
X21.850 Y20.099
X21.850 Y20.281
X21.812 Y20.460
X21.738 Y20.627
X21.630 Y20.775
X21.494 Y20.898
X21.336 Y20.989
X21.162 Y21.046
X20.986 Y21.064
X20.474 Y21.064
G0 Z3.000
G0  X11.666 Y21.064
G0  Z3.000
G01 F400 Z0
G01 F400 Z-0.100
G01F400X11.666 Y19.316
X13.914 Y19.316
X13.914 Y21.064
X11.666 Y21.064
G0 Z3.000
G0  X24.634 Y21.064
G0  Z3.000
G01 F400 Z0
G01 F400 Z-0.100
G01F400X24.458 Y21.046
X24.284 Y20.989
X24.126 Y20.898
X23.990 Y20.775
X23.882 Y20.627
X23.808 Y20.460
X23.770 Y20.281
X23.770 Y20.099
X23.808 Y19.920
X23.882 Y19.753
X23.990 Y19.605
X24.126 Y19.482
X24.284 Y19.391
X24.458 Y19.334
X24.634 Y19.316
X25.146 Y19.316
X25.322 Y19.334
X25.496 Y19.391
X25.654 Y19.482
X25.790 Y19.605
X25.898 Y19.753
X25.972 Y19.920
X26.010 Y20.099
X26.010 Y20.281
X25.972 Y20.460
X25.898 Y20.627
X25.790 Y20.775
X25.654 Y20.898
X25.496 Y20.989
X25.322 Y21.046
X25.146 Y21.064
X24.634 Y21.064
G0 Z3.000
G0  X20.474 Y18.524
G0  Z3.000
G01 F400 Z0
G01 F400 Z-0.100
G01F400X20.298 Y18.506
X20.124 Y18.449
X19.966 Y18.358
X19.830 Y18.235
X19.722 Y18.087
X19.648 Y17.920
X19.610 Y17.741
X19.610 Y17.559
X19.648 Y17.380
X19.722 Y17.213
X19.830 Y17.065
X19.966 Y16.942
X20.124 Y16.851
X20.298 Y16.794
X20.474 Y16.776
X20.986 Y16.776
X21.162 Y16.794
X21.336 Y16.851
X21.494 Y16.942
X21.630 Y17.065
X21.738 Y17.213
X21.812 Y17.380
X21.850 Y17.559
X21.850 Y17.741
X21.812 Y17.920
X21.738 Y18.087
X21.630 Y18.235
X21.494 Y18.358
X21.336 Y18.449
X21.162 Y18.506
X20.986 Y18.524
X20.474 Y18.524
G0 Z3.000
G0  X12.534 Y18.524
G0  Z3.000
G01 F400 Z0
G01 F400 Z-0.100
G01F400X12.358 Y18.506
X12.184 Y18.449
X12.026 Y18.358
X11.890 Y18.235
X11.782 Y18.087
X11.708 Y17.920
X11.670 Y17.741
X11.670 Y17.559
X11.708 Y17.380
X11.782 Y17.213
X11.890 Y17.065
X12.026 Y16.942
X12.184 Y16.851
X12.358 Y16.794
X12.534 Y16.776
X13.046 Y16.776
X13.222 Y16.794
X13.396 Y16.851
X13.554 Y16.942
X13.690 Y17.065
X13.798 Y17.213
X13.872 Y17.380
X13.910 Y17.559
X13.910 Y17.741
X13.872 Y17.920
X13.798 Y18.087
X13.690 Y18.235
X13.554 Y18.358
X13.396 Y18.449
X13.222 Y18.506
X13.046 Y18.524
X12.534 Y18.524
G0 Z3.000
G0  X2.794 Y18.404
G0  Z3.000
G01 F400 Z0
G01 F400 Z-0.100
G01F400X2.618 Y18.386
X2.444 Y18.329
X2.286 Y18.238
X2.150 Y18.115
X2.104 Y18.052
X1.345 Y18.052
X1.238 Y18.029
X1.138 Y17.985
X1.052 Y17.922
X0.422 Y17.293
X0.355 Y17.219
X0.301 Y17.123
X0.267 Y17.019
X0.256 Y16.916
X0.256 Y5.054
X0.267 Y4.951
X0.301 Y4.847
X0.355 Y4.752
X0.422 Y4.677
X3.592 Y1.508
X3.678 Y1.446
X3.778 Y1.401
X3.885 Y1.378
X8.465 Y1.378
X8.572 Y1.401
X8.672 Y1.446
X8.759 Y1.508
X10.502 Y3.259
X10.550 Y3.238
X10.729 Y3.200
X10.911 Y3.200
X11.090 Y3.238
X11.257 Y3.312
X11.405 Y3.420
X11.528 Y3.556
X11.619 Y3.714
X11.676 Y3.888
X11.694 Y4.064
X11.694 Y4.577
X11.676 Y4.752
X11.619 Y4.926
X11.528 Y5.084
X11.405 Y5.220
X11.257 Y5.328
X11.090 Y5.402
X10.911 Y5.440
X10.729 Y5.440
X10.550 Y5.402
X10.383 Y5.328
X10.235 Y5.220
X10.112 Y5.084
X10.021 Y4.926
X9.964 Y4.752
X9.946 Y4.577
X9.946 Y4.184
X8.191 Y2.422
X4.159 Y2.422
X1.304 Y5.276
X1.304 Y16.694
X1.619 Y17.008
X2.104 Y17.008
X2.150 Y16.945
X2.286 Y16.822
X2.444 Y16.731
X2.618 Y16.674
X2.794 Y16.656
X3.307 Y16.656
X3.482 Y16.674
X3.656 Y16.731
X3.814 Y16.822
X3.950 Y16.945
X4.058 Y17.093
X4.132 Y17.260
X4.170 Y17.439
X4.170 Y17.621
X4.132 Y17.800
X4.058 Y17.967
X3.950 Y18.115
X3.814 Y18.238
X3.656 Y18.329
X3.482 Y18.386
X3.307 Y18.404
X2.794 Y18.404
G0 Z3.000
G0  X7.494 Y17.764
G0  Z3.000
G01 F400 Z0
G01 F400 Z-0.100
G01F400X7.318 Y17.746
X7.144 Y17.689
X6.986 Y17.598
X6.850 Y17.475
X6.742 Y17.327
X6.668 Y17.160
X6.630 Y16.981
X6.630 Y16.799
X6.668 Y16.620
X6.742 Y16.453
X6.850 Y16.305
X6.986 Y16.182
X7.144 Y16.091
X7.318 Y16.034
X7.494 Y16.016
X8.007 Y16.016
X8.182 Y16.034
X8.356 Y16.091
X8.514 Y16.182
X8.650 Y16.305
X8.758 Y16.453
X8.832 Y16.620
X8.870 Y16.799
X8.870 Y16.981
X8.832 Y17.160
X8.758 Y17.327
X8.650 Y17.475
X8.514 Y17.598
X8.356 Y17.689
X8.182 Y17.746
X8.007 Y17.764
X7.494 Y17.764
G0 Z3.000
G0  X12.534 Y15.984
G0  Z3.000
G01 F400 Z0
G01 F400 Z-0.100
G01F400X12.358 Y15.966
X12.184 Y15.909
X12.026 Y15.818
X11.890 Y15.695
X11.782 Y15.547
X11.708 Y15.380
X11.670 Y15.201
X11.670 Y15.019
X11.708 Y14.840
X11.782 Y14.673
X11.890 Y14.525
X12.026 Y14.402
X12.184 Y14.311
X12.358 Y14.254
X12.534 Y14.236
X13.046 Y14.236
X13.222 Y14.254
X13.396 Y14.311
X13.554 Y14.402
X13.690 Y14.525
X13.798 Y14.673
X13.872 Y14.840
X13.910 Y15.019
X13.910 Y15.201
X13.872 Y15.380
X13.798 Y15.547
X13.690 Y15.695
X13.554 Y15.818
X13.396 Y15.909
X13.222 Y15.966
X13.046 Y15.984
X12.534 Y15.984
G0 Z3.000
G0  X20.474 Y15.984
G0  Z3.000
G01 F400 Z0
G01 F400 Z-0.100
G01F400X20.298 Y15.966
X20.124 Y15.909
X19.966 Y15.818
X19.830 Y15.695
X19.722 Y15.547
X19.648 Y15.380
X19.610 Y15.201
X19.610 Y15.019
X19.648 Y14.840
X19.722 Y14.673
X19.830 Y14.525
X19.966 Y14.402
X20.124 Y14.311
X20.298 Y14.254
X20.474 Y14.236
X20.986 Y14.236
X21.162 Y14.254
X21.336 Y14.311
X21.494 Y14.402
X21.630 Y14.525
X21.738 Y14.673
X21.812 Y14.840
X21.850 Y15.019
X21.850 Y15.201
X21.812 Y15.380
X21.738 Y15.547
X21.630 Y15.695
X21.494 Y15.818
X21.336 Y15.909
X21.162 Y15.966
X20.986 Y15.984
X20.474 Y15.984
G0 Z3.000
G0  X1.926 Y15.864
G0  Z3.000
G01 F400 Z0
G01 F400 Z-0.100
G01F400X1.926 Y14.116
X4.174 Y14.116
X4.174 Y15.864
X1.926 Y15.864
G0 Z3.000
G0  X20.474 Y13.444
G0  Z3.000
G01 F400 Z0
G01 F400 Z-0.100
G01F400X20.298 Y13.426
X20.124 Y13.369
X19.966 Y13.278
X19.830 Y13.155
X19.722 Y13.007
X19.648 Y12.840
X19.610 Y12.661
X19.610 Y12.479
X19.648 Y12.300
X19.722 Y12.133
X19.830 Y11.985
X19.966 Y11.862
X20.124 Y11.771
X20.298 Y11.714
X20.474 Y11.696
X20.986 Y11.696
X21.162 Y11.714
X21.336 Y11.771
X21.494 Y11.862
X21.630 Y11.985
X21.738 Y12.133
X21.812 Y12.300
X21.850 Y12.479
X21.850 Y12.661
X21.812 Y12.840
X21.738 Y13.007
X21.630 Y13.155
X21.494 Y13.278
X21.336 Y13.369
X21.162 Y13.426
X20.986 Y13.444
X20.474 Y13.444
G0 Z3.000
G0  X24.634 Y13.444
G0  Z3.000
G01 F400 Z0
G01 F400 Z-0.100
G01F400X24.458 Y13.426
X24.284 Y13.369
X24.126 Y13.278
X23.990 Y13.155
X23.882 Y13.007
X23.808 Y12.840
X23.770 Y12.661
X23.770 Y12.479
X23.808 Y12.300
X23.882 Y12.133
X23.990 Y11.985
X24.126 Y11.862
X24.284 Y11.771
X24.458 Y11.714
X24.634 Y11.696
X25.146 Y11.696
X25.322 Y11.714
X25.496 Y11.771
X25.654 Y11.862
X25.790 Y11.985
X25.898 Y12.133
X25.972 Y12.300
X26.010 Y12.479
X26.010 Y12.661
X25.972 Y12.840
X25.898 Y13.007
X25.790 Y13.155
X25.654 Y13.278
X25.496 Y13.369
X25.322 Y13.426
X25.146 Y13.444
X24.634 Y13.444
G0 Z3.000
G0  X7.494 Y10.144
G0  Z3.000
G01 F400 Z0
G01 F400 Z-0.100
G01F400X7.318 Y10.126
X7.144 Y10.069
X6.986 Y9.978
X6.850 Y9.855
X6.742 Y9.707
X6.668 Y9.540
X6.630 Y9.361
X6.630 Y9.179
X6.668 Y9.000
X6.742 Y8.833
X6.850 Y8.685
X6.986 Y8.562
X7.144 Y8.471
X7.318 Y8.414
X7.494 Y8.396
X8.007 Y8.396
X8.182 Y8.414
X8.356 Y8.471
X8.514 Y8.562
X8.650 Y8.685
X8.758 Y8.833
X8.832 Y9.000
X8.870 Y9.179
X8.870 Y9.361
X8.832 Y9.540
X8.758 Y9.707
X8.650 Y9.855
X8.514 Y9.978
X8.356 Y10.069
X8.182 Y10.126
X8.007 Y10.144
X7.494 Y10.144
G0 Z3.000
G0  X16.123 Y8.264
G0  Z3.000
G01 F400 Z0
G01 F400 Z-0.100
G01F400X15.948 Y8.246
X15.774 Y8.189
X15.616 Y8.098
X15.480 Y7.975
X15.372 Y7.827
X15.298 Y7.660
X15.260 Y7.481
X15.260 Y7.299
X15.298 Y7.120
X15.372 Y6.953
X15.480 Y6.805
X15.616 Y6.682
X15.774 Y6.591
X15.948 Y6.534
X16.123 Y6.516
X16.637 Y6.516
X16.812 Y6.534
X16.986 Y6.591
X17.144 Y6.682
X17.280 Y6.805
X17.388 Y6.953
X17.462 Y7.120
X17.500 Y7.299
X17.500 Y7.481
X17.462 Y7.660
X17.388 Y7.827
X17.280 Y7.975
X17.144 Y8.098
X16.986 Y8.189
X16.812 Y8.246
X16.637 Y8.264
X16.123 Y8.264
G0 Z3.000
G0  X21.369 Y7.980
G0  Z3.000
G01 F400 Z0
G01 F400 Z-0.100
G01F400X21.190 Y7.942
X21.023 Y7.868
X20.875 Y7.760
X20.752 Y7.624
X20.661 Y7.466
X20.604 Y7.292
X20.586 Y7.117
X20.586 Y6.604
X20.604 Y6.428
X20.661 Y6.254
X20.752 Y6.096
X20.875 Y5.960
X21.023 Y5.852
X21.190 Y5.778
X21.369 Y5.740
X21.551 Y5.740
X21.730 Y5.778
X21.897 Y5.852
X22.045 Y5.960
X22.168 Y6.096
X22.259 Y6.254
X22.316 Y6.428
X22.334 Y6.604
X22.334 Y7.117
X22.316 Y7.292
X22.259 Y7.466
X22.168 Y7.624
X22.045 Y7.760
X21.897 Y7.868
X21.730 Y7.942
X21.551 Y7.980
X21.369 Y7.980
G0 Z3.000
G0  X7.629 Y5.440
G0  Z3.000
G01 F400 Z0
G01 F400 Z-0.100
G01F400X7.450 Y5.402
X7.283 Y5.328
X7.135 Y5.220
X7.012 Y5.084
X6.921 Y4.926
X6.864 Y4.752
X6.846 Y4.577
X6.846 Y4.064
X6.864 Y3.888
X6.921 Y3.714
X7.012 Y3.556
X7.135 Y3.420
X7.283 Y3.312
X7.450 Y3.238
X7.629 Y3.200
X7.811 Y3.200
X7.990 Y3.238
X8.157 Y3.312
X8.305 Y3.420
X8.428 Y3.556
X8.519 Y3.714
X8.576 Y3.888
X8.594 Y4.064
X8.594 Y4.577
X8.576 Y4.752
X8.519 Y4.926
X8.428 Y5.084
X8.305 Y5.220
X8.157 Y5.328
X7.990 Y5.402
X7.811 Y5.440
X7.629 Y5.440
G0 Z3.000
G0  X21.369 Y5.440
G0  Z3.000
G01 F400 Z0
G01 F400 Z-0.100
G01F400X21.190 Y5.402
X21.023 Y5.328
X20.875 Y5.220
X20.752 Y5.084
X20.661 Y4.926
X20.604 Y4.752
X20.586 Y4.577
X20.586 Y4.064
X20.604 Y3.888
X20.661 Y3.714
X20.752 Y3.556
X20.875 Y3.420
X21.023 Y3.312
X21.190 Y3.238
X21.369 Y3.200
X21.551 Y3.200
X21.730 Y3.238
X21.897 Y3.312
X22.045 Y3.420
X22.168 Y3.556
X22.259 Y3.714
X22.316 Y3.888
X22.334 Y4.064
X22.334 Y4.577
X22.316 Y4.752
X22.259 Y4.926
X22.168 Y5.084
X22.045 Y5.220
X21.897 Y5.328
X21.730 Y5.402
X21.551 Y5.440
X21.369 Y5.440
G0 Z3.000
G0  X16.123 Y5.164
G0  Z3.000
G01 F400 Z0
G01 F400 Z-0.100
G01F400X15.948 Y5.146
X15.774 Y5.089
X15.616 Y4.998
X15.480 Y4.875
X15.372 Y4.727
X15.298 Y4.560
X15.260 Y4.381
X15.260 Y4.199
X15.298 Y4.020
X15.372 Y3.853
X15.480 Y3.705
X15.616 Y3.582
X15.774 Y3.491
X15.948 Y3.434
X16.123 Y3.416
X16.637 Y3.416
X16.812 Y3.434
X16.986 Y3.491
X17.144 Y3.582
X17.280 Y3.705
X17.388 Y3.853
X17.462 Y4.020
X17.500 Y4.199
X17.500 Y4.381
X17.462 Y4.560
X17.388 Y4.727
X17.280 Y4.875
X17.144 Y4.998
X16.986 Y5.089
X16.812 Y5.146
X16.637 Y5.164
X16.123 Y5.164
G0 Z3.000
G0  X15.125 Y26.233
G0  Z3.000
G01 F400 Z0
G01 F400 Z-0.100
G01F400X14.900 Y26.186
X14.690 Y26.092
X14.504 Y25.957
X14.351 Y25.786
X14.236 Y25.587
X14.165 Y25.369
X14.143 Y25.158
X14.143 Y24.622
X14.165 Y24.411
X14.236 Y24.193
X14.351 Y23.994
X14.493 Y23.836
X14.493 Y15.329
X14.127 Y14.963
X14.133 Y14.995
X14.133 Y15.225
X14.086 Y15.450
X13.992 Y15.660
X13.857 Y15.846
X13.686 Y15.999
X13.487 Y16.114
X13.269 Y16.185
X13.058 Y16.207
X12.522 Y16.207
X12.311 Y16.185
X12.093 Y16.114
X11.894 Y15.999
X11.723 Y15.846
X11.588 Y15.660
X11.494 Y15.450
X11.447 Y15.225
X11.447 Y14.995
X11.494 Y14.770
X11.588 Y14.560
X11.723 Y14.374
X11.894 Y14.221
X12.093 Y14.106
X12.311 Y14.035
X12.522 Y14.013
X13.058 Y14.013
X13.190 Y14.026
X12.831 Y13.668
X12.522 Y13.668
X12.311 Y13.645
X12.093 Y13.574
X11.894 Y13.459
X11.723 Y13.306
X11.588 Y13.120
X11.494 Y12.910
X11.447 Y12.685
X11.447 Y12.455
X11.494 Y12.230
X11.588 Y12.020
X11.723 Y11.834
X11.894 Y11.681
X12.093 Y11.566
X12.311 Y11.495
X12.522 Y11.473
X13.058 Y11.473
X13.269 Y11.495
X13.487 Y11.566
X13.686 Y11.681
X13.857 Y11.834
X13.992 Y12.020
X14.086 Y12.230
X14.133 Y12.455
X14.133 Y12.685
X14.103 Y12.827
X15.760 Y14.484
X15.846 Y14.580
X15.925 Y14.715
X15.973 Y14.864
X15.988 Y15.002
X15.988 Y23.836
X16.129 Y23.994
X16.244 Y24.193
X16.315 Y24.411
X16.338 Y24.622
X16.338 Y25.158
X16.315 Y25.369
X16.244 Y25.587
X16.129 Y25.786
X15.976 Y25.957
X15.790 Y26.092
X15.580 Y26.186
X15.355 Y26.233
X15.125 Y26.233
G0 Z3.000
G0  X22.745 Y26.233
G0  Z3.000
G01 F400 Z0
G01 F400 Z-0.100
G01F400X22.520 Y26.186
X22.310 Y26.092
X22.124 Y25.957
X21.971 Y25.786
X21.856 Y25.587
X21.785 Y25.369
X21.762 Y25.158
X21.762 Y24.622
X21.785 Y24.411
X21.856 Y24.193
X21.971 Y23.994
X22.124 Y23.823
X22.310 Y23.688
X22.520 Y23.594
X22.745 Y23.547
X22.975 Y23.547
X23.200 Y23.594
X23.410 Y23.688
X23.596 Y23.823
X23.749 Y23.994
X23.864 Y24.193
X23.935 Y24.411
X23.957 Y24.622
X23.957 Y25.158
X23.935 Y25.369
X23.864 Y25.587
X23.749 Y25.786
X23.596 Y25.957
X23.410 Y26.092
X23.200 Y26.186
X22.975 Y26.233
X22.745 Y26.233
G0 Z3.000
G0  X24.622 Y21.288
G0  Z3.000
G01 F400 Z0
G01 F400 Z-0.100
G01F400X24.411 Y21.265
X24.193 Y21.194
X23.994 Y21.079
X23.823 Y20.926
X23.688 Y20.740
X23.594 Y20.530
X23.547 Y20.305
X23.547 Y20.075
X23.594 Y19.850
X23.688 Y19.640
X23.823 Y19.454
X23.994 Y19.301
X24.193 Y19.186
X24.411 Y19.115
X24.622 Y19.093
X25.158 Y19.093
X25.369 Y19.115
X25.587 Y19.186
X25.786 Y19.301
X25.957 Y19.454
X26.092 Y19.640
X26.186 Y19.850
X26.233 Y20.075
X26.233 Y20.305
X26.186 Y20.530
X26.092 Y20.740
X25.957 Y20.926
X25.786 Y21.079
X25.587 Y21.194
X25.369 Y21.265
X25.158 Y21.288
X24.622 Y21.288
G0 Z3.000
G0  X11.443 Y21.288
G0  Z3.000
G01 F400 Z0
G01 F400 Z-0.100
G01F400X11.443 Y19.093
X14.138 Y19.093
X14.138 Y21.288
X11.443 Y21.288
G0 Z3.000
G0  X20.462 Y21.288
G0  Z3.000
G01 F400 Z0
G01 F400 Z-0.100
G01F400X20.251 Y21.265
X20.033 Y21.194
X19.834 Y21.079
X19.663 Y20.926
X19.528 Y20.740
X19.434 Y20.530
X19.387 Y20.305
X19.387 Y20.075
X19.434 Y19.850
X19.528 Y19.640
X19.663 Y19.454
X19.834 Y19.301
X20.033 Y19.186
X20.251 Y19.115
X20.462 Y19.093
X20.998 Y19.093
X21.209 Y19.115
X21.427 Y19.186
X21.626 Y19.301
X21.797 Y19.454
X21.932 Y19.640
X22.026 Y19.850
X22.073 Y20.075
X22.073 Y20.305
X22.026 Y20.530
X21.932 Y20.740
X21.797 Y20.926
X21.626 Y21.079
X21.427 Y21.194
X21.209 Y21.265
X20.998 Y21.288
X20.462 Y21.288
G0 Z3.000
G0  X12.522 Y18.748
G0  Z3.000
G01 F400 Z0
G01 F400 Z-0.100
G01F400X12.311 Y18.725
X12.093 Y18.654
X11.894 Y18.539
X11.723 Y18.386
X11.588 Y18.200
X11.494 Y17.990
X11.447 Y17.765
X11.447 Y17.535
X11.494 Y17.310
X11.588 Y17.100
X11.723 Y16.914
X11.894 Y16.761
X12.093 Y16.646
X12.311 Y16.575
X12.522 Y16.553
X13.058 Y16.553
X13.269 Y16.575
X13.487 Y16.646
X13.686 Y16.761
X13.857 Y16.914
X13.992 Y17.100
X14.086 Y17.310
X14.133 Y17.535
X14.133 Y17.765
X14.086 Y17.990
X13.992 Y18.200
X13.857 Y18.386
X13.686 Y18.539
X13.487 Y18.654
X13.269 Y18.725
X13.058 Y18.748
X12.522 Y18.748
G0 Z3.000
G0  X20.462 Y18.748
G0  Z3.000
G01 F400 Z0
G01 F400 Z-0.100
G01F400X20.251 Y18.725
X20.033 Y18.654
X19.834 Y18.539
X19.663 Y18.386
X19.528 Y18.200
X19.434 Y17.990
X19.387 Y17.765
X19.387 Y17.535
X19.434 Y17.310
X19.528 Y17.100
X19.663 Y16.914
X19.834 Y16.761
X20.033 Y16.646
X20.251 Y16.575
X20.462 Y16.553
X20.998 Y16.553
X21.209 Y16.575
X21.427 Y16.646
X21.626 Y16.761
X21.797 Y16.914
X21.932 Y17.100
X22.026 Y17.310
X22.073 Y17.535
X22.073 Y17.765
X22.026 Y17.990
X21.932 Y18.200
X21.797 Y18.386
X21.626 Y18.539
X21.427 Y18.654
X21.209 Y18.725
X20.998 Y18.748
X20.462 Y18.748
G0 Z3.000
G0  X2.782 Y18.628
G0  Z3.000
G01 F400 Z0
G01 F400 Z-0.100
G01F400X2.571 Y18.605
X2.353 Y18.534
X2.154 Y18.419
X1.994 Y18.275
X1.322 Y18.275
X1.168 Y18.243
X1.025 Y18.179
X0.906 Y18.092
X0.260 Y17.447
X0.174 Y17.351
X0.095 Y17.215
X0.047 Y17.066
X0.033 Y16.928
X0.033 Y5.042
X0.047 Y4.904
X0.095 Y4.755
X0.174 Y4.620
X0.260 Y4.523
X3.446 Y1.338
X3.565 Y1.251
X3.708 Y1.187
X3.862 Y1.155
X8.488 Y1.155
X8.642 Y1.187
X8.785 Y1.251
X8.904 Y1.338
X10.566 Y3.006
X10.705 Y2.977
X10.935 Y2.977
X11.160 Y3.024
X11.370 Y3.118
X11.556 Y3.253
X11.709 Y3.424
X11.824 Y3.623
X11.895 Y3.841
X11.918 Y4.052
X11.918 Y4.588
X11.895 Y4.799
X11.824 Y5.017
X11.709 Y5.216
X11.556 Y5.387
X11.370 Y5.522
X11.160 Y5.616
X10.935 Y5.663
X10.705 Y5.663
X10.480 Y5.616
X10.270 Y5.522
X10.084 Y5.387
X9.931 Y5.216
X9.816 Y5.017
X9.745 Y4.799
X9.723 Y4.588
X9.723 Y4.276
X8.098 Y2.645
X4.251 Y2.645
X1.528 Y5.369
X1.528 Y16.601
X1.711 Y16.785
X1.994 Y16.785
X2.154 Y16.641
X2.353 Y16.526
X2.571 Y16.455
X2.782 Y16.433
X3.318 Y16.433
X3.529 Y16.455
X3.747 Y16.526
X3.946 Y16.641
X4.117 Y16.794
X4.252 Y16.980
X4.346 Y17.190
X4.393 Y17.415
X4.393 Y17.645
X4.346 Y17.870
X4.252 Y18.080
X4.117 Y18.266
X3.946 Y18.419
X3.747 Y18.534
X3.529 Y18.605
X3.318 Y18.628
X2.782 Y18.628
G0 Z3.000
G0  X7.482 Y17.988
G0  Z3.000
G01 F400 Z0
G01 F400 Z-0.100
G01F400X7.271 Y17.965
X7.053 Y17.894
X6.854 Y17.779
X6.683 Y17.626
X6.548 Y17.440
X6.454 Y17.230
X6.407 Y17.005
X6.407 Y16.775
X6.454 Y16.550
X6.548 Y16.340
X6.683 Y16.154
X6.854 Y16.001
X7.053 Y15.886
X7.271 Y15.815
X7.482 Y15.793
X8.018 Y15.793
X8.229 Y15.815
X8.447 Y15.886
X8.646 Y16.001
X8.817 Y16.154
X8.952 Y16.340
X9.046 Y16.550
X9.093 Y16.775
X9.093 Y17.005
X9.046 Y17.230
X8.952 Y17.440
X8.817 Y17.626
X8.646 Y17.779
X8.447 Y17.894
X8.229 Y17.965
X8.018 Y17.988
X7.482 Y17.988
G0 Z3.000
G0  X20.462 Y16.207
G0  Z3.000
G01 F400 Z0
G01 F400 Z-0.100
G01F400X20.251 Y16.185
X20.033 Y16.114
X19.834 Y15.999
X19.663 Y15.846
X19.528 Y15.660
X19.434 Y15.450
X19.387 Y15.225
X19.387 Y14.995
X19.434 Y14.770
X19.528 Y14.560
X19.663 Y14.374
X19.834 Y14.221
X20.033 Y14.106
X20.251 Y14.035
X20.462 Y14.013
X20.998 Y14.013
X21.209 Y14.035
X21.427 Y14.106
X21.626 Y14.221
X21.797 Y14.374
X21.932 Y14.560
X22.026 Y14.770
X22.073 Y14.995
X22.073 Y15.225
X22.026 Y15.450
X21.932 Y15.660
X21.797 Y15.846
X21.626 Y15.999
X21.427 Y16.114
X21.209 Y16.185
X20.998 Y16.207
X20.462 Y16.207
G0 Z3.000
G0  X1.703 Y16.088
G0  Z3.000
G01 F400 Z0
G01 F400 Z-0.100
G01F400X1.703 Y13.893
X4.397 Y13.893
X4.397 Y16.088
X1.703 Y16.088
G0 Z3.000
G0  X24.622 Y13.668
G0  Z3.000
G01 F400 Z0
G01 F400 Z-0.100
G01F400X24.411 Y13.645
X24.193 Y13.574
X23.994 Y13.459
X23.823 Y13.306
X23.688 Y13.120
X23.594 Y12.910
X23.547 Y12.685
X23.547 Y12.455
X23.594 Y12.230
X23.688 Y12.020
X23.823 Y11.834
X23.994 Y11.681
X24.193 Y11.566
X24.411 Y11.495
X24.622 Y11.473
X25.158 Y11.473
X25.369 Y11.495
X25.587 Y11.566
X25.786 Y11.681
X25.957 Y11.834
X26.092 Y12.020
X26.186 Y12.230
X26.233 Y12.455
X26.233 Y12.685
X26.186 Y12.910
X26.092 Y13.120
X25.957 Y13.306
X25.786 Y13.459
X25.587 Y13.574
X25.369 Y13.645
X25.158 Y13.668
X24.622 Y13.668
G0 Z3.000
G0  X20.462 Y13.668
G0  Z3.000
G01 F400 Z0
G01 F400 Z-0.100
G01F400X20.251 Y13.645
X20.033 Y13.574
X19.834 Y13.459
X19.663 Y13.306
X19.528 Y13.120
X19.434 Y12.910
X19.387 Y12.685
X19.387 Y12.455
X19.434 Y12.230
X19.528 Y12.020
X19.663 Y11.834
X19.834 Y11.681
X20.033 Y11.566
X20.251 Y11.495
X20.462 Y11.473
X20.998 Y11.473
X21.209 Y11.495
X21.427 Y11.566
X21.626 Y11.681
X21.797 Y11.834
X21.932 Y12.020
X22.026 Y12.230
X22.073 Y12.455
X22.073 Y12.685
X22.026 Y12.910
X21.932 Y13.120
X21.797 Y13.306
X21.626 Y13.459
X21.427 Y13.574
X21.209 Y13.645
X20.998 Y13.668
X20.462 Y13.668
G0 Z3.000
G0  X7.482 Y10.367
G0  Z3.000
G01 F400 Z0
G01 F400 Z-0.100
G01F400X7.271 Y10.345
X7.053 Y10.274
X6.854 Y10.159
X6.683 Y10.006
X6.548 Y9.820
X6.454 Y9.610
X6.407 Y9.385
X6.407 Y9.155
X6.454 Y8.930
X6.548 Y8.720
X6.683 Y8.534
X6.854 Y8.381
X7.053 Y8.266
X7.271 Y8.195
X7.482 Y8.173
X8.018 Y8.173
X8.229 Y8.195
X8.447 Y8.266
X8.646 Y8.381
X8.817 Y8.534
X8.952 Y8.720
X9.046 Y8.930
X9.093 Y9.155
X9.093 Y9.385
X9.046 Y9.610
X8.952 Y9.820
X8.817 Y10.006
X8.646 Y10.159
X8.447 Y10.274
X8.229 Y10.345
X8.018 Y10.367
X7.482 Y10.367
G0 Z3.000
G0  X16.112 Y8.488
G0  Z3.000
G01 F400 Z0
G01 F400 Z-0.100
G01F400X15.901 Y8.465
X15.683 Y8.394
X15.484 Y8.279
X15.313 Y8.126
X15.178 Y7.940
X15.084 Y7.730
X15.037 Y7.505
X15.037 Y7.275
X15.084 Y7.050
X15.178 Y6.840
X15.313 Y6.654
X15.484 Y6.501
X15.683 Y6.386
X15.901 Y6.315
X16.112 Y6.293
X16.648 Y6.293
X16.859 Y6.315
X17.077 Y6.386
X17.276 Y6.501
X17.447 Y6.654
X17.582 Y6.840
X17.676 Y7.050
X17.723 Y7.275
X17.723 Y7.505
X17.676 Y7.730
X17.582 Y7.940
X17.447 Y8.126
X17.276 Y8.279
X17.077 Y8.394
X16.859 Y8.465
X16.648 Y8.488
X16.112 Y8.488
G0 Z3.000
G0  X21.345 Y8.203
G0  Z3.000
G01 F400 Z0
G01 F400 Z-0.100
G01F400X21.120 Y8.156
X20.910 Y8.062
X20.724 Y7.927
X20.571 Y7.756
X20.456 Y7.557
X20.385 Y7.339
X20.363 Y7.128
X20.363 Y6.592
X20.385 Y6.381
X20.456 Y6.163
X20.571 Y5.964
X20.724 Y5.793
X20.910 Y5.658
X21.063 Y5.590
X20.910 Y5.522
X20.724 Y5.387
X20.571 Y5.216
X20.456 Y5.017
X20.385 Y4.799
X20.363 Y4.588
X20.363 Y4.052
X20.385 Y3.841
X20.456 Y3.623
X20.571 Y3.424
X20.724 Y3.253
X20.910 Y3.118
X21.120 Y3.024
X21.345 Y2.977
X21.575 Y2.977
X21.800 Y3.024
X22.010 Y3.118
X22.196 Y3.253
X22.349 Y3.424
X22.464 Y3.623
X22.535 Y3.841
X22.558 Y4.052
X22.558 Y4.588
X22.535 Y4.799
X22.464 Y5.017
X22.349 Y5.216
X22.196 Y5.387
X22.010 Y5.522
X21.857 Y5.590
X22.010 Y5.658
X22.196 Y5.793
X22.349 Y5.964
X22.464 Y6.163
X22.535 Y6.381
X22.558 Y6.592
X22.558 Y7.128
X22.535 Y7.339
X22.464 Y7.557
X22.349 Y7.756
X22.196 Y7.927
X22.010 Y8.062
X21.800 Y8.156
X21.575 Y8.203
X21.345 Y8.203
G0 Z3.000
G0  X7.605 Y5.663
G0  Z3.000
G01 F400 Z0
G01 F400 Z-0.100
G01F400X7.380 Y5.616
X7.170 Y5.522
X6.984 Y5.387
X6.831 Y5.216
X6.716 Y5.017
X6.645 Y4.799
X6.623 Y4.588
X6.623 Y4.052
X6.645 Y3.841
X6.716 Y3.623
X6.831 Y3.424
X6.984 Y3.253
X7.170 Y3.118
X7.380 Y3.024
X7.605 Y2.977
X7.835 Y2.977
X8.060 Y3.024
X8.270 Y3.118
X8.456 Y3.253
X8.609 Y3.424
X8.724 Y3.623
X8.795 Y3.841
X8.818 Y4.052
X8.818 Y4.588
X8.795 Y4.799
X8.724 Y5.017
X8.609 Y5.216
X8.456 Y5.387
X8.270 Y5.522
X8.060 Y5.616
X7.835 Y5.663
X7.605 Y5.663
G0 Z3.000
G0  X16.112 Y5.388
G0  Z3.000
G01 F400 Z0
G01 F400 Z-0.100
G01F400X15.901 Y5.365
X15.683 Y5.294
X15.484 Y5.179
X15.313 Y5.026
X15.178 Y4.840
X15.084 Y4.630
X15.037 Y4.405
X15.037 Y4.175
X15.084 Y3.950
X15.178 Y3.740
X15.313 Y3.554
X15.484 Y3.401
X15.683 Y3.286
X15.901 Y3.215
X16.112 Y3.193
X16.648 Y3.193
X16.859 Y3.215
X17.077 Y3.286
X17.276 Y3.401
X17.447 Y3.554
X17.582 Y3.740
X17.676 Y3.950
X17.723 Y4.175
X17.723 Y4.405
X17.676 Y4.630
X17.582 Y4.840
X17.447 Y5.026
X17.276 Y5.179
X17.077 Y5.294
X16.859 Y5.365
X16.648 Y5.388
X16.112 Y5.388
G0 Z3.000
M05
(  )
T606 M06
( Drilling )
M03 S10000
G00 X0.248 Y0.125
G0  Z3.000
G01 F240.0 Z-1.780
G00 Z3.000
G00 X0.207 Y0.125
G0  Z3.000
G01 F240.0 Z-1.780
G00 Z3.000
G00 X0.207 Y0.151
G0  Z3.000
G01 F240.0 Z-1.780
G00 Z3.000
G00 X0.127 Y0.151
G0  Z3.000
G01 F240.0 Z-1.780
G00 Z3.000
G00 X0.127 Y0.125
G0  Z3.000
G01 F240.0 Z-1.780
G00 Z3.000
G00 X0.077 Y0.092
G0  Z3.000
G01 F240.0 Z-1.780
G00 Z3.000
G00 X0.077 Y0.043
G0  Z3.000
G01 F240.0 Z-1.780
G00 Z3.000
G00 X0.108 Y0.043
G0  Z3.000
G01 F240.0 Z-1.780
G00 Z3.000
G00 X0.163 Y0.042
G0  Z3.000
G01 F240.0 Z-1.780
G00 Z3.000
G00 X0.163 Y0.073
G0  Z3.000
G01 F240.0 Z-1.780
G00 Z3.000
G00 X0.214 Y0.068
G0  Z3.000
G01 F240.0 Z-1.780
G00 Z3.000
G00 X0.214 Y0.043
G0  Z3.000
G01 F240.0 Z-1.780
G00 Z3.000
G00 X0.077 Y0.168
G0  Z3.000
G01 F240.0 Z-1.780
G00 Z3.000
G00 X0.030 Y0.149
G0  Z3.000
G01 F240.0 Z-1.780
G00 Z3.000
G00 X0.030 Y0.175
G0  Z3.000
G01 F240.0 Z-1.780
G00 Z3.000
G00 X0.127 Y0.176
G0  Z3.000
G01 F240.0 Z-1.780
G00 Z3.000
G00 X0.127 Y0.201
G0  Z3.000
G01 F240.0 Z-1.780
G00 Z3.000
G00 X0.152 Y0.248
G0  Z3.000
G01 F240.0 Z-1.780
G00 Z3.000
G00 X0.228 Y0.248
G0  Z3.000
G01 F240.0 Z-1.780
G00 Z3.000
G00 X0.207 Y0.201
G0  Z3.000
G01 F240.0 Z-1.780
G00 Z3.000
G00 X0.207 Y0.176
G0  Z3.000
G01 F240.0 Z-1.780
G00 Z3.000
G00 X0.248 Y0.201
G0  Z3.000
G01 F240.0 Z-1.780
G00 Z3.000
G00 Z3.000
M05
M30
%