%
(Generated by SketchUcam V1.4a-7e8d3)
(File: Diseño Encerramiento.skp)
(Bit diameter: 1,7mm)
(Feed rate: 100,0mm/min)
(Material Thickness: 3,0mm)
(Material length: 200,0mm X width: 200,0mm)
(Overhead Gantry: false)
(Multipass enabled, Depth = 0,5mm)
(Plunge Depth first)
(Optimization is ON)
(www.PhlatBoyz.com)
(Loaded profile conf1)
G90 G21 G49  G17
M3 S400
G00 Z3.200
(Pass: 1)
 X90.000 Y56.953
(plungebore  DEPTH=2.850  DIAM=1.700)
G00 Z0.500
G01 Z-0.500 F100 
G00 Z0.500
G01 Z-1.000
G00 Z0.500
G01 Z-1.500
G00 Z0.500
G01 Z-2.000
G00 Z0.500
G01 Z-2.500
G00 Z0.500
G01 Z-2.850
G00 Z0.500
G00 Y56.953 Z3.200
(plungebore end)
(Pass: 1)
G00 X130.000
(plungebore  DEPTH=2.850  DIAM=1.700)
G00 Z0.500
G01 Z-0.500 F100 
G00 Z0.500
G01 Z-1.000
G00 Z0.500
G01 Z-1.500
G00 Z0.500
G01 Z-2.000
G00 Z0.500
G01 Z-2.500
G00 Z0.500
G01 Z-2.850
G00 Z0.500
G00 Y56.953 Z3.200
(plungebore end)
(Pass: 1)
G00 X80.000 Y80.000
(plungebore  DEPTH=2.850  DIAM=1.700)
G00 Z0.500
G01 Z-0.500 F100 
G00 Z0.500
G01 Z-1.000
G00 Z0.500
G01 Z-1.500
G00 Z0.500
G01 Z-2.000
G00 Z0.500
G01 Z-2.500
G00 Z0.500
G01 Z-2.850
G00 Z0.500
G00 Y80.000 Z3.200
(plungebore end)
(Pass: 1)
G00 Y10.000
(plungebore  DEPTH=2.850  DIAM=1.700)
G00 Z0.500
G01 Z-0.500 F100 
G00 Z0.500
G01 Z-1.000
G00 Z0.500
G01 Z-1.500
G00 Z0.500
G01 Z-2.000
G00 Z0.500
G01 Z-2.500
G00 Z0.500
G01 Z-2.850
G00 Z0.500
G00 Y10.000 Z3.200
(plungebore end)
(Pass: 1)
G00 X10.000
(plungebore  DEPTH=2.850  DIAM=1.700)
G00 Z0.500
G01 Z-0.500 F100 
G00 Z0.500
G01 Z-1.000
G00 Z0.500
G01 Z-1.500
G00 Z0.500
G01 Z-2.000
G00 Z0.500
G01 Z-2.500
G00 Z0.500
G01 Z-2.850
G00 Z0.500
G00 Y10.000 Z3.200
(plungebore end)
(Pass: 1)
G00 Y80.000
(plungebore  DEPTH=2.850  DIAM=1.700)
G00 Z0.500
G01 Z-0.500 F100 
G00 Z0.500
G01 Z-1.000
G00 Z0.500
G01 Z-1.500
G00 Z0.500
G01 Z-2.000
G00 Z0.500
G01 Z-2.500
G00 Z0.500
G01 Z-2.850
G00 Z0.500
G00 Y80.000 Z3.200
(plungebore end)
(Pass: 1)
G00 X25.352 Y79.150
G00 Z0.500
G01 Z-0.500 F100 
 X10.850 Y64.648
 Y25.352
 X25.352 Y10.850
 X64.648
 X79.150 Y25.352
 Y64.648
 X64.648 Y79.150
 X25.352
(Pass: 2)
 Z-1.000
 X10.850 Y64.648
 Y25.352
 X25.352 Y10.850
 X64.648
 X79.150 Y25.352
 Y64.648
 X64.648 Y79.150
 X25.352
(Pass: 3)
 Z-1.500
 X10.850 Y64.648
 Y25.352
 X25.352 Y10.850
 X64.648
 X79.150 Y25.352
 Y64.648
 X64.648 Y79.150
 X25.352
(Pass: 4)
 Z-2.000
 X10.850 Y64.648
 Y25.352
 X25.352 Y10.850
 X64.648
 X79.150 Y25.352
 Y64.648
 X64.648 Y79.150
 X25.352
(Pass: 5)
 Z-2.500
 X10.850 Y64.648
 Y25.352
 X25.352 Y10.850
 X64.648
 X79.150 Y25.352
 Y64.648
 X64.648 Y79.150
 X25.352
(Pass: 6)
 Z-2.850
 X10.850 Y64.648
 Y25.352
 X25.352 Y10.850
 X64.648
 X79.150 Y25.352
 Y64.648
 X64.648 Y79.150
 X25.352
G00 Z3.200
(Pass: 1)
 X100.850 Y37.094
G00 Z0.500
G01 Z-0.500 F100 
 Y25.794
 X119.150
 Y37.094
 X100.850
(Pass: 2)
 Z-1.000
 Y25.794
 X119.150
 Y37.094
 X100.850
(Pass: 3)
 Z-1.500
 Y25.794
 X119.150
 Y37.094
 X100.850
(Pass: 4)
 Z-2.000
 Y25.794
 X119.150
 Y37.094
 X100.850
(Pass: 5)
 Z-2.500
 Y25.794
 X119.150
 Y37.094
 X100.850
(Pass: 6)
 Z-2.850
 Y25.794
 X119.150
 Y37.094
 X100.850
G00 Z3.200
(Pass: 1)
 X96.850 Y47.803
G00 Z0.500
G01 Z-0.500 F100 
 X123.150
 Y66.103
 X96.850
 Y47.803
(Pass: 2)
 Z-1.000
 X123.150
 Y66.103
 X96.850
 Y47.803
(Pass: 3)
 Z-1.500
 X123.150
 Y66.103
 X96.850
 Y47.803
(Pass: 4)
 Z-2.000
 X123.150
 Y66.103
 X96.850
 Y47.803
(Pass: 5)
 Z-2.500
 X123.150
 Y66.103
 X96.850
 Y47.803
(Pass: 6)
 Z-2.850
 X123.150
 Y66.103
 X96.850
 Y47.803
G00 Z3.200
G00 X0 Y0 (home)
M05
M30
%
