%
(Generated by SketchUcam V1.4a-7e8d3)
(Bit diameter: 3,2mm)
(Feed rate: 200,0mm/min)
(Plunge Feed rate: 100,0mm/min)
(Material Thickness: 5,0mm)
(Material length: 200,0mm X width: 200,0mm)
(Overhead Gantry: false)
(Plunge Depth first)
(Optimization is ON)
(www.PhlatBoyz.com)
G90 G21 G49  G17
M3 S15000
G00 Z3.200
 X18.761 Y11.641
G00 Z0.500
G01 Z-5.000 F100 
G03 X23.3344 Y7.5966 R23.4 F200 
 X28.7984 Y4.8734 R23.4
 X34.7811 Y3.6572 R23.4
 X40.8746 Y4.0309 R23.4
 X46.6639 Y5.969 R23.4
 X51.7542 Y9.3393 R23.4
 X55.7988 Y13.9124 R23.4
 X58.522 Y19.3764 R23.4
 X59.7382 Y25.3591 R23.4
 X59.3645 Y31.4526 R23.4
 X57.4265 Y37.2419 R23.4
 X54.0561 Y42.3322 R23.4
 X49.483 Y46.3768 R23.4
 X44.0190 Y49.1 R23.4
 X38.0363 Y50.3162 R23.4
 X31.9428 Y49.9425 R23.4
 X26.1535 Y48.0044 R23.4
 X21.0632 Y44.6341 R23.4
 X17.0186 Y40.0610 R23.4
 X14.2954 Y34.597 R23.4
 X13.0792 Y28.6143 R23.4
 X13.4529 Y22.5208 R23.4
 X15.391 Y16.7315 R23.4
 X18.7614 Y11.6412 R23.4
G00 Z3.200
G00 X0 Y0 (home)
M05
M30
%
