%
(Header)
(Generated by gcodetools from Inkscape.)
(Using default header. To add your own header create file "header" in the output dir.)
M3
(Header end.)
G21 (All units in mm)

(Start cutting path id: path4558-1-6)
(Change tool to Cylindrical cutter)

G00 Z3.000000
G00 X34.231129 Y76.177714

G01 Z-1.000000 F100.0(Penetrate)
G02 X31.940624 Y79.173248 Z-1.000000 I7.153538 J7.843352 F100.000000
G02 X30.925051 Y82.618336 Z-1.000000 I8.567345 J4.397792
G03 X30.670976 Y84.390656 Z-1.000000 I-20.580880 J-2.046042
G03 X30.577590 Y84.468133 Z-1.000000 I-0.093386 J-0.017542
G03 X30.420751 Y84.436821 Z-1.000000 I-0.000000 J-0.408446
G03 X28.360734 Y83.546198 Z-1.000000 I30.873206 J-74.237660
G02 X26.266651 Y82.774671 Z-1.000000 I-6.626383 J14.757718
G02 X24.552315 Y82.434666 Z-1.000000 I-2.780105 J9.525613
G01 X22.797186 Y82.245069 Z-1.000000
G01 X22.766139 Y83.280232 Z-1.000000
G02 X23.448960 Y88.157391 Z-1.000000 I14.625282 J0.438780
G02 X25.460312 Y91.743579 Z-1.000000 I9.719155 J-3.093951
G02 X28.115206 Y94.028530 Z-1.000000 I9.094022 J-7.881543
G02 X31.336494 Y95.465360 Z-1.000000 I6.529207 J-10.308717
G03 X31.894925 Y96.193302 Z-1.000000 I-0.207706 J0.737507
G03 X31.355120 Y96.957912 Z-1.000000 I-0.797321 J0.009954
G03 X27.088720 Y97.771442 Z-1.000000 I-5.010665 J-14.683523
G03 X26.480785 Y97.192004 Z-1.000000 I-0.027828 J-0.579439
G02 X26.397720 Y96.803915 Z-1.000000 I-0.948132 J-0.000000
G02 X25.467223 Y94.932707 Z-1.000000 I-23.987679 J10.761416
G02 X22.298794 Y91.313581 Z-1.000000 I-9.758017 J5.346340
G02 X17.474653 Y89.058195 Z-1.000000 I-8.076871 J10.988991
G02 X16.062553 Y88.916133 Z-1.000000 I-1.208052 J4.918870
G02 X15.525615 Y89.136766 Z-1.000000 I0.034140 J0.846754
G02 X15.286261 Y89.643724 Z-1.000000 I0.496468 J0.544384
G02 X15.435114 Y90.916101 Z-1.000000 I3.842064 J0.195419
G02 X18.437892 Y95.727935 Z-1.000000 I10.055214 J-2.932014
G02 X24.576148 Y99.240991 Z-1.000000 I10.965467 J-12.040506
G03 X24.909403 Y99.599852 Z-1.000000 I-0.145705 J0.469477
G03 X24.955227 Y100.882395 Z-1.000000 I-3.289071 J0.759604
G03 X24.624254 Y102.304138 Z-1.000000 I-9.862652 J-1.546566
G03 X24.041278 Y103.817210 Z-1.000000 I-11.760509 J-3.662400
G01 X23.355184 Y105.298992 Z-1.000000
G01 X22.689349 Y103.664499 Z-1.000000
G02 X20.298834 Y99.804082 Z-1.000000 I-12.603164 J5.133995
G02 X16.936872 Y97.132895 Z-1.000000 I-9.133050 J8.043595
G02 X11.307788 Y95.218047 Z-1.000000 I-8.523299 J15.824626
G02 X8.428739 Y95.744785 Z-1.000000 I-0.701291 J4.298414
G02 X7.957928 Y96.831796 Z-1.000000 I0.496976 J0.860718
G02 X9.687007 Y101.126020 Z-1.000000 I14.779832 J-3.455912
G01 X10.647579 Y102.743546 Z-1.000000
G01 X8.658397 Y102.954118 Z-1.000000
G02 X4.372581 Y104.083952 Z-1.000000 I1.537691 J14.526577
G02 X1.101206 Y106.239196 Z-1.000000 I4.549476 J10.465886
G01 X0.000000 Y107.275496 Z-1.000000
G01 X1.543846 Y108.573413 Z-1.000000
G02 X4.851919 Y110.583788 Z-1.000000 I8.172674 J-9.721237
G02 X8.707752 Y111.543980 Z-1.000000 I5.125747 J-12.361397
G01 X10.636871 Y111.727885 Z-1.000000
G01 X9.512309 Y113.750981 Z-1.000000
G02 X8.590213 Y115.832179 Z-1.000000 I11.035829 J6.134402
G02 X8.308944 Y117.301198 Z-1.000000 I5.162701 J1.749926
G01 X8.230148 Y118.828319 Z-1.000000
G01 X10.952509 Y118.797975 Z-1.000000
G02 X13.624136 Y118.526432 Z-1.000000 I-0.166282 J-14.914472
G02 X15.809138 Y117.856716 Z-1.000000 I-2.055270 J-10.604697
G02 X19.702320 Y115.131427 Z-1.000000 I-4.530995 J-10.616133
G02 X23.052543 Y110.123736 Z-1.000000 I-13.540767 J-12.683505
G03 X23.407186 Y109.996297 Z-1.000000 I0.239294 J0.108741
G03 X23.990608 Y110.581876 Z-1.000000 I-0.554992 J1.136373
G03 X24.448073 Y111.840363 Z-1.000000 I-5.921060 J2.864720
G03 X24.731461 Y113.523879 Z-1.000000 I-10.368097 J2.610883
G01 X24.881237 Y115.244190 Z-1.000000
G01 X23.253167 Y115.739363 Z-1.000000
G02 X19.862105 Y117.395781 Z-1.000000 I3.465457 J11.393919
G02 X17.197852 Y120.003123 Z-1.000000 I6.689707 J9.500599
G02 X15.189403 Y123.697034 Z-1.000000 I12.384459 J9.126635
G02 X15.218340 Y125.247396 Z-1.000000 I1.957600 J0.738913
G02 X17.259156 Y126.130420 Z-1.000000 I1.481068 J-0.623151
G02 X23.419483 Y122.199557 Z-1.000000 I-6.045150 J-16.266340
G02 X25.971928 Y118.983966 Z-1.000000 I-12.084859 J-12.213444
G02 X26.477522 Y117.224843 Z-1.000000 I-2.909242 J-1.788371
G03 X27.031178 Y116.705582 Z-1.000000 I0.524517 J0.004465
G03 X30.989044 Y117.475857 Z-1.000000 I-0.822233 J14.778231
G03 X32.477686 Y118.339244 Z-1.000000 I-1.421771 J4.166442
G03 X32.350640 Y118.675603 Z-1.000000 I-0.127046 J0.144186
G02 X30.270512 Y119.151633 Z-1.000000 I0.000000 J4.782822
G02 X26.791272 Y121.360722 Z-1.000000 I7.758925 J16.064436
G02 X23.118928 Y126.232645 Z-1.000000 I7.973097 J9.829964
G02 X22.627339 Y131.140989 Z-1.000000 I7.613086 J3.241268
G01 X22.843984 Y132.194288 Z-1.000000
G01 X24.575722 Y132.007225 Z-1.000000
G02 X26.266972 Y131.670881 Z-1.000000 I-1.045185 J-9.675805
G02 X28.360734 Y130.898227 Z-1.000000 I-4.583797 J-15.644515
G03 X30.420906 Y130.008320 Z-1.000000 I32.196796 J71.707308
G03 X30.581628 Y129.976286 Z-1.000000 I0.160723 J0.387170
G03 X30.672507 Y130.054709 Z-1.000000 I-0.000000 J0.091868
G03 X30.778509 Y131.307105 Z-1.000000 I-9.962597 J1.473915
G02 X31.464245 Y134.304305 Z-1.000000 I7.626681 J-0.167879
G02 X33.722245 Y137.762639 Z-1.000000 I12.524782 J-5.711316
G02 X35.251778 Y139.383106 Z-1.000000 I30.198751 J-26.972033
G02 X35.399546 Y139.444430 Z-1.000000 I0.147767 J-0.147372
G02 X35.551710 Y139.387842 Z-1.000000 I0.000000 J-0.232878
G02 X36.903418 Y138.146380 Z-1.000000 I-19.449137 J-22.532878
G02 X39.172880 Y135.059044 Z-1.000000 I-8.242529 J-8.436777
G02 X40.119760 Y131.826089 Z-1.000000 I-8.125437 J-4.134949
G03 X40.373823 Y130.053775 Z-1.000000 I20.587376 J2.046848
G03 X40.467221 Y129.976286 Z-1.000000 I0.093398 J0.017543
G03 X40.624060 Y130.007599 Z-1.000000 I-0.000000 J0.408440
G03 X42.684060 Y130.898227 Z-1.000000 I-30.879134 J74.250319
G02 X44.778151 Y131.669750 Z-1.000000 I6.626864 J-14.759147
G02 X46.492493 Y132.009754 Z-1.000000 I2.779983 J-9.525074
G01 X48.247625 Y132.199342 Z-1.000000
G01 X48.247625 Y129.869394 Z-1.000000
G02 X46.064308 Y123.413722 Z-1.000000 I-10.635784 J-0.000000
G02 X40.043207 Y119.127277 Z-1.000000 I-9.942073 J7.593377
G03 X38.393120 Y118.529381 Z-1.000000 I9.541029 J-28.907461
G03 X38.089253 Y118.354863 Z-1.000000 I0.446187 J-1.128696
G03 X38.222186 Y117.659750 Z-1.000000 I0.246199 J-0.313185
G03 X42.640112 Y117.005231 Z-1.000000 I4.510902 J15.210561
G01 X44.253963 Y116.995777 Z-1.000000
G01 X45.018153 Y118.699897 Z-1.000000
G02 X46.933489 Y121.648253 Z-1.000000 I10.419478 J-4.672482
G02 X49.671224 Y123.892272 Z-1.000000 I8.620576 J-7.725179
G02 X53.852482 Y125.715407 Z-1.000000 I9.529419 J-16.148881
G02 X55.264090 Y125.556607 Z-1.000000 I0.518665 J-1.742926
G02 X55.940139 Y123.590221 Z-1.000000 I-0.768680 J-1.363681
G02 X52.266125 Y118.370182 Z-1.000000 I-13.615564 J5.680070
G02 X48.694084 Y115.897808 Z-1.000000 I-10.956173 J12.012684
G02 X46.275256 Y115.316188 Z-1.000000 I-2.421567 J4.750258
G03 X45.668262 Y114.623400 Z-1.000000 I0.000121 J-0.612412
G03 X46.909149 Y110.528446 Z-1.000000 I13.100747 J1.734410
G01 X47.633492 Y109.054755 Z-1.000000
G01 X48.359151 Y110.734584 Z-1.000000
G02 X50.029756 Y113.665785 Z-1.000000 I14.074450 J-6.079905
G02 X52.083163 Y115.860710 Z-1.000000 I9.844488 J-7.151793
G02 X57.031916 Y118.536780 Z-1.000000 I9.103754 J-10.921420
G02 X61.842563 Y118.842904 Z-1.000000 I3.050281 J-9.982226
G01 X63.051640 Y118.636030 Z-1.000000
G01 X62.839403 Y117.205056 Z-1.000000
G02 X62.477337 Y115.824467 Z-1.000000 I-6.476174 J0.960636
G02 X61.515160 Y113.746756 Z-1.000000 I-15.736522 J6.025855
G01 X60.403173 Y111.719432 Z-1.000000
G01 X62.347199 Y111.518837 Z-1.000000
G02 X66.625621 Y110.393285 Z-1.000000 I-1.476169 J-14.305477
G02 X69.949766 Y108.199424 Z-1.000000 I-4.664135 J-10.682420
G01 X71.057141 Y107.157315 Z-1.000000
G01 X69.347546 Y105.755419 Z-1.000000
G02 X66.105343 Y103.842586 Z-1.000000 I-7.790286 J9.500196
G02 X62.141529 Y102.883822 Z-1.000000 I-5.337733 J13.394591
G01 X60.463758 Y102.723229 Z-1.000000
G01 X61.557225 Y100.696786 Z-1.000000
G02 X62.454872 Y98.615246 Z-1.000000 I-11.389485 J-6.145941
G02 X62.732695 Y97.143224 Z-1.000000 I-5.365937 J-1.774972
G01 X62.814655 Y95.616106 Z-1.000000
G01 X60.092311 Y95.646433 Z-1.000000
G02 X57.421609 Y95.922442 Z-1.000000 I0.163120 J14.637441
G02 X55.161355 Y96.619409 Z-1.000000 I2.199306 J11.145792
G02 X51.235976 Y99.379412 Z-1.000000 I4.530333 J10.614619
G02 X48.009362 Y104.318724 Z-1.000000 I12.782215 J11.873556
G01 X47.679461 Y105.080349 Z-1.000000
G01 X47.157561 Y104.159856 Z-1.000000
G03 X45.764256 Y100.484180 Z-1.000000 I11.185157 J-6.341769
G03 X46.153804 Y99.424060 Z-1.000000 I1.038345 J-0.220084
G03 X46.426878 Y99.268850 Z-1.000000 I0.684069 J0.885719
G03 X48.017058 Y98.688380 Z-1.000000 I11.937938 J30.235221
G02 X52.795853 Y95.761213 Z-1.000000 I-3.987184 J-11.873782
G02 X55.446411 Y91.409027 Z-1.000000 I-7.248036 J-7.397392
G02 X55.740325 Y89.655919 Z-1.000000 I-6.437734 J-1.980497
G02 X55.523037 Y89.140266 Z-1.000000 I-0.667031 J-0.022532
G02 X53.458986 Y88.731339 Z-1.000000 I-1.370159 J1.502262
G02 X48.055849 Y91.851368 Z-1.000000 I6.100921 J16.803799
G02 X45.193174 Y95.080015 Z-1.000000 I9.521704 J11.325825
G02 X44.564012 Y97.192006 Z-1.000000 I3.230225 J2.111992
G03 X44.172209 Y97.592126 Z-1.000000 I-0.400208 J0.000000
G03 X41.571485 Y97.419664 Z-1.000000 I-0.314189 J-14.957750
G03 X38.912038 Y96.798936 Z-1.000000 I2.753371 J-17.803965
G03 X38.312118 Y96.225147 Z-1.000000 I0.282063 J-0.895422
G03 X38.391547 Y96.015916 Z-1.000000 I0.160809 J-0.058645
G03 X39.623955 Y95.516185 Z-1.000000 I2.873731 J5.317517
G02 X45.910243 Y91.313923 Z-1.000000 I-3.321126 J-11.771223
G02 X48.247625 Y84.570044 Z-1.000000 I-8.560123 J-6.743880
G01 X48.247625 Y82.251475 Z-1.000000
G01 X46.592736 Y82.451684 Z-1.000000
G02 X43.749250 Y83.104060 Z-1.000000 I1.670026 J13.802160
G02 X41.489929 Y84.203183 Z-1.000000 I3.347463 J9.752585
G03 X40.770351 Y84.127581 Z-1.000000 I-0.313006 J-0.483089
G03 X40.238172 Y82.954237 Z-1.000000 I1.289176 J-1.292073
G02 X39.468985 Y79.943206 Z-1.000000 I-8.429088 J0.549502
G02 X37.322551 Y76.681791 Z-1.000000 I-12.090000 J5.619765
G02 X35.796916 Y75.052649 Z-1.000000 I-35.290242 J31.519166
G02 X35.671450 Y75.000001 Z-1.000000 I-0.125466 J0.123176
G02 X35.540501 Y75.046723 Z-1.000000 I0.000000 J0.206867
G02 X34.231129 Y76.177714 Z-1.000000 I20.286942 J24.810059
G01 X34.231129 Y76.177714 Z-1.000000
G00 Z3.000000

(End cutting path id: path4558-1-6)


(Start cutting path id: path4558-1-6)
(Change tool to Cylindrical cutter)

G00 Z3.000000
G00 X19.950743 Y91.812983

G01 Z-1.000000 F100.0(Penetrate)
G03 X20.906173 Y92.435756 Z-1.000000 I-3.822984 J6.909322 F100.000000
G03 X22.014482 Y93.381631 Z-1.000000 I-7.799687 J10.261380
G03 X24.515621 Y96.419777 Z-1.000000 I-11.454077 J11.978110
G03 X24.421084 Y97.138347 Z-1.000000 I-0.473340 J0.303230
G03 X23.695665 Y97.248959 Z-1.000000 I-0.445648 J-0.488624
G03 X20.517090 Y95.315641 Z-1.000000 I7.191254 J-15.402778
G03 X17.980349 Y92.709455 Z-1.000000 I7.794694 J-10.124661
G03 X17.442324 Y91.090520 Z-1.000000 I2.273343 J-1.654375
G03 X17.711818 Y90.885040 Z-1.000000 I0.211071 J-0.002638
G03 X19.950743 Y91.812983 Z-1.000000 I-2.988032 J10.374465
G01 X19.950743 Y91.812983 Z-1.000000
G00 Z3.000000

(End cutting path id: path4558-1-6)


(Start cutting path id: path4558-1-6)
(Change tool to Cylindrical cutter)

G00 Z3.000000
G00 X53.605617 Y91.044899

G01 Z-1.000000 F100.0(Penetrate)
G03 X53.115982 Y92.602415 Z-1.000000 I-2.722028 J0.000000 F100.000000
G03 X50.771383 Y95.107228 Z-1.000000 I-9.858352 J-6.878064
G03 X47.394374 Y97.285943 Z-1.000000 I-12.304010 J-15.364678
G03 X46.679618 Y97.189331 Z-1.000000 I-0.287530 J-0.565056
G03 X46.584406 Y96.420516 Z-1.000000 I0.401316 J-0.440003
G03 X49.242574 Y93.319116 Z-1.000000 I13.803730 J9.141149
G03 X53.013850 Y90.686021 Z-1.000000 I12.033324 J13.217575
G03 X53.605617 Y91.044899 Z-1.000000 I0.187062 J0.358878
G01 X53.605617 Y91.044899 Z-1.000000
G00 Z3.000000

(End cutting path id: path4558-1-6)


(Start cutting path id: path4558-1-6)
(Change tool to Cylindrical cutter)

G00 Z3.000000
G00 X36.924635 Y97.642103

G01 Z-1.000000 F100.0(Penetrate)
G02 X39.821404 Y98.968778 Z-1.000000 I5.943619 J-9.151915 F100.000000
G02 X43.086909 Y99.433901 Z-1.000000 I3.265505 J-11.230580
G03 X43.882398 Y99.780640 Z-1.000000 I0.000000 J1.085874
G03 X44.229142 Y100.663227 Z-1.000000 I-0.949878 J0.882586
G02 X44.713878 Y103.412842 Z-1.000000 I8.040825 J0.000000
G02 X46.216917 Y106.125734 Z-1.000000 I9.323634 J-3.392815
G01 X46.920845 Y107.027369 Z-1.000000
G01 X45.702528 Y109.048907 Z-1.000000
G02 X44.717730 Y111.146554 Z-1.000000 I9.609699 J5.791532
G02 X44.310820 Y113.040480 Z-1.000000 I7.403556 J2.581329
G03 X43.823383 Y114.667609 Z-1.000000 I-4.190647 J-0.368810
G03 X43.249015 Y115.010521 Z-1.000000 I-0.574369 J-0.309570
G02 X40.087404 Y115.452815 Z-1.000000 I-0.000000 J11.521085
G02 X36.914032 Y116.818372 Z-1.000000 I3.702490 J12.974117
G01 X35.459230 Y117.680070 Z-1.000000
G01 X33.610519 Y116.664739 Z-1.000000
G02 X31.697257 Y115.839625 Z-1.000000 I-5.282772 J9.618841
G02 X29.288746 Y115.270409 Z-1.000000 I-4.753923 J14.735007
G03 X27.192228 Y114.568156 Z-1.000000 I0.983283 J-6.416125
G03 X26.815670 Y113.937414 Z-1.000000 I0.339973 J-0.630742
G02 X26.381774 Y111.393154 Z-1.000000 I-7.676415 J0.000000
G02 X24.904032 Y108.495718 Z-1.000000 I-11.501560 J4.040439
G03 X24.423820 Y107.269972 Z-1.000000 I2.353503 J-1.628974
G03 X24.617341 Y106.480964 Z-1.000000 I1.079129 J-0.153557
G02 X26.108266 Y103.773272 Z-1.000000 I-10.569909 J-7.584379
G02 X26.726727 Y101.264180 Z-1.000000 I-8.430441 J-3.408771
G01 X26.900842 Y99.512802 Z-1.000000
G01 X28.814946 Y99.330331 Z-1.000000
G02 X32.092259 Y98.638266 Z-1.000000 I-1.408621 J-14.776589
G02 X34.350339 Y97.488692 Z-1.000000 I-2.681454 J-8.059654
G03 X35.473882 Y97.164952 Z-1.000000 I1.019275 J1.425898
G03 X36.924635 Y97.642103 Z-1.000000 I-0.177880 J2.984881
G01 X36.924635 Y97.642103 Z-1.000000
G00 Z3.000000

(End cutting path id: path4558-1-6)


(Start cutting path id: path4558-1-6)
(Change tool to Cylindrical cutter)

G00 Z3.000000
G00 X33.365085 Y101.400637

G01 Z-1.000000 F100.0(Penetrate)
G02 X31.067799 Y102.595980 Z-1.000000 I2.685618 J7.966596 F100.000000
G02 X29.565538 Y104.196689 Z-1.000000 I3.580611 J4.865681
G02 X29.057781 Y105.459082 Z-1.000000 I3.053602 J1.961524
G02 X28.901054 Y107.581574 Z-1.000000 I8.712671 J1.710384
G02 X29.289327 Y109.657039 Z-1.000000 I7.638258 J-0.354895
G02 X30.020091 Y110.919741 Z-1.000000 I3.461122 J-1.160247
G02 X37.848381 Y113.155127 Z-1.000000 I5.670125 J-5.031725
G02 X42.219883 Y107.296688 Z-1.000000 I-1.739822 J-5.858438
G02 X39.495338 Y102.209247 Z-1.000000 I-6.112068 J0.000000
G02 X33.365087 Y101.400637 Z-1.000000 I-3.888819 J5.840296
G01 X33.365085 Y101.400637 Z-1.000000
G00 Z3.000000

(End cutting path id: path4558-1-6)


(Start cutting path id: path4558-1-6)
(Change tool to Cylindrical cutter)

G00 Z3.000000
G00 X51.348355 Y120.185506

G01 Z-1.000000 F100.0(Penetrate)
G03 X53.520559 Y123.078422 Z-1.000000 I-9.628767 J9.491930 F100.000000
G03 X53.236693 Y123.562391 Z-1.000000 I-0.283866 J0.158736
G03 X52.321871 Y123.354684 Z-1.000000 I0.000000 J-2.118469
G03 X49.862890 Y121.947103 Z-1.000000 I8.345105 J-17.430185
G03 X47.745344 Y119.976944 Z-1.000000 I5.200977 J-7.713116
G03 X46.718463 Y117.940008 Z-1.000000 I4.552306 J-3.572264
G01 X46.486821 Y117.098252 Z-1.000000
G01 X48.156727 Y117.870031 Z-1.000000
G03 X49.723440 Y118.788584 Z-1.000000 I-3.919817 J8.481157
G03 X51.348355 Y120.185506 Z-1.000000 I-7.637762 J10.527851
G01 X51.348355 Y120.185506 Z-1.000000
G00 Z3.000000

(End cutting path id: path4558-1-6)


(Start cutting path id: path4558-1-6)
(Change tool to Cylindrical cutter)

G00 Z3.000000
G00 X24.086366 Y118.370507

G01 Z-1.000000 F100.0(Penetrate)
G03 X22.524799 Y120.731380 Z-1.000000 I-6.077033 J-2.322695 F100.000000
G03 X19.319514 Y122.966292 Z-1.000000 I-8.605268 J-8.925626
G03 X17.992300 Y123.120419 Z-1.000000 I-0.884954 J-1.829004
G03 X17.731379 Y122.612121 Z-1.000000 I0.080870 J-0.362630
G03 X20.672881 Y118.641714 Z-1.000000 I9.771665 J4.164583
G03 X23.868095 Y117.459714 Z-1.000000 I3.246750 J3.867005
G03 X24.132195 Y117.665814 Z-1.000000 I0.002758 J0.268728
G03 X24.086366 Y118.370507 Z-1.000000 I-1.161372 J0.278307
G01 X24.086366 Y118.370507 Z-1.000000
G00 Z3.000000

(End cutting path id: path4558-1-6)


(Start cutting path id: path4558-1)
(Change tool to Cylindrical cutter)

G00 Z3.000000
G00 X109.231129 Y76.177714

G01 Z-1.000000 F100.0(Penetrate)
G02 X106.940624 Y79.173248 Z-1.000000 I7.153538 J7.843352 F100.000000
G02 X105.925051 Y82.618336 Z-1.000000 I8.567345 J4.397792
G03 X105.670976 Y84.390656 Z-1.000000 I-20.580880 J-2.046042
G03 X105.577590 Y84.468133 Z-1.000000 I-0.093386 J-0.017542
G03 X105.420751 Y84.436821 Z-1.000000 I-0.000000 J-0.408446
G03 X103.360734 Y83.546198 Z-1.000000 I30.873206 J-74.237660
G02 X101.266650 Y82.774671 Z-1.000000 I-6.626392 J14.757746
G02 X99.552315 Y82.434666 Z-1.000000 I-2.780104 J9.525611
G01 X97.797186 Y82.245069 Z-1.000000
G01 X97.766139 Y83.280232 Z-1.000000
G02 X98.448960 Y88.157391 Z-1.000000 I14.625284 J0.438781
G02 X100.460311 Y91.743579 Z-1.000000 I9.719156 J-3.093951
G02 X103.115206 Y94.028530 Z-1.000000 I9.094020 J-7.881541
G02 X106.336494 Y95.465360 Z-1.000000 I6.529209 J-10.308721
G03 X106.894925 Y96.193302 Z-1.000000 I-0.207706 J0.737507
G03 X106.355121 Y96.957912 Z-1.000000 I-0.797321 J0.009954
G03 X102.088719 Y97.771443 Z-1.000000 I-5.010665 J-14.683524
G03 X101.480784 Y97.192004 Z-1.000000 I-0.027828 J-0.579439
G02 X101.397720 Y96.803915 Z-1.000000 I-0.948132 J0.000000
G02 X100.467223 Y94.932707 Z-1.000000 I-23.987679 J10.761416
G02 X97.298794 Y91.313581 Z-1.000000 I-9.758014 J5.346336
G02 X92.474653 Y89.058195 Z-1.000000 I-8.076871 J10.988990
G02 X91.062553 Y88.916133 Z-1.000000 I-1.208052 J4.918870
G02 X90.525615 Y89.136766 Z-1.000000 I0.034140 J0.846754
G02 X90.286261 Y89.643724 Z-1.000000 I0.496468 J0.544384
G02 X90.435114 Y90.916101 Z-1.000000 I3.842061 J0.195419
G02 X93.437892 Y95.727935 Z-1.000000 I10.055214 J-2.932014
G02 X99.576148 Y99.240991 Z-1.000000 I10.965467 J-12.040506
G03 X99.909403 Y99.599852 Z-1.000000 I-0.145705 J0.469476
G03 X99.955226 Y100.882395 Z-1.000000 I-3.289074 J0.759604
G03 X99.624254 Y102.304138 Z-1.000000 I-9.862675 J-1.546570
G03 X99.041278 Y103.817210 Z-1.000000 I-11.760478 J-3.662386
G01 X98.355184 Y105.298992 Z-1.000000
G01 X97.689349 Y103.664499 Z-1.000000
G02 X95.298834 Y99.804082 Z-1.000000 I-12.603164 J5.133995
G02 X91.936873 Y97.132895 Z-1.000000 I-9.133050 J8.043595
G02 X86.307788 Y95.218047 Z-1.000000 I-8.523300 J15.824630
G02 X83.428739 Y95.744785 Z-1.000000 I-0.701291 J4.298414
G02 X82.957928 Y96.831796 Z-1.000000 I0.496976 J0.860718
G02 X84.687007 Y101.126020 Z-1.000000 I14.779832 J-3.455912
G01 X85.647578 Y102.743546 Z-1.000000
G01 X83.658397 Y102.954118 Z-1.000000
G02 X79.372581 Y104.083952 Z-1.000000 I1.537691 J14.526577
G02 X76.101206 Y106.239196 Z-1.000000 I4.549476 J10.465886
G01 X75.000000 Y107.275496 Z-1.000000
G01 X76.543846 Y108.573413 Z-1.000000
G02 X79.851919 Y110.583788 Z-1.000000 I8.172674 J-9.721237
G02 X83.707752 Y111.543980 Z-1.000000 I5.125747 J-12.361397
G01 X85.636871 Y111.727885 Z-1.000000
G01 X84.512309 Y113.750981 Z-1.000000
G02 X83.590213 Y115.832179 Z-1.000000 I11.035829 J6.134402
G02 X83.308944 Y117.301198 Z-1.000000 I5.162701 J1.749926
G01 X83.230148 Y118.828319 Z-1.000000
G01 X85.952508 Y118.797975 Z-1.000000
G02 X88.624136 Y118.526432 Z-1.000000 I-0.166282 J-14.914473
G02 X90.809138 Y117.856716 Z-1.000000 I-2.055271 J-10.604701
G02 X94.702320 Y115.131427 Z-1.000000 I-4.530995 J-10.616133
G02 X98.052543 Y110.123736 Z-1.000000 I-13.540767 J-12.683505
G03 X98.407186 Y109.996297 Z-1.000000 I0.239294 J0.108741
G03 X98.990608 Y110.581876 Z-1.000000 I-0.554992 J1.136373
G03 X99.448073 Y111.840363 Z-1.000000 I-5.921049 J2.864715
G03 X99.731461 Y113.523879 Z-1.000000 I-10.368121 J2.610885
G01 X99.881236 Y115.244190 Z-1.000000
G01 X98.253167 Y115.739363 Z-1.000000
G02 X94.862105 Y117.395781 Z-1.000000 I3.465457 J11.393919
G02 X92.197852 Y120.003123 Z-1.000000 I6.689707 J9.500599
G02 X90.189402 Y123.697034 Z-1.000000 I12.384463 J9.126638
G02 X90.218340 Y125.247396 Z-1.000000 I1.957600 J0.738913
G02 X92.259157 Y126.130420 Z-1.000000 I1.481069 J-0.623152
G02 X98.419483 Y122.199557 Z-1.000000 I-6.045150 J-16.266340
G02 X100.971928 Y118.983966 Z-1.000000 I-12.084872 J-12.213452
G02 X101.477522 Y117.224843 Z-1.000000 I-2.909242 J-1.788371
G03 X102.031178 Y116.705582 Z-1.000000 I0.524517 J0.004465
G03 X105.989044 Y117.475857 Z-1.000000 I-0.822233 J14.778233
G03 X107.477686 Y118.339244 Z-1.000000 I-1.421771 J4.166442
G03 X107.350640 Y118.675603 Z-1.000000 I-0.127046 J0.144186
G02 X105.270512 Y119.151633 Z-1.000000 I0.000000 J4.782821
G02 X101.791271 Y121.360722 Z-1.000000 I7.758933 J16.064452
G02 X98.118928 Y126.232645 Z-1.000000 I7.973099 J9.829964
G02 X97.627339 Y131.140989 Z-1.000000 I7.613087 J3.241268
G01 X97.843984 Y132.194288 Z-1.000000
G01 X99.575722 Y132.007225 Z-1.000000
G02 X101.266971 Y131.670881 Z-1.000000 I-1.045186 J-9.675803
G02 X103.360734 Y130.898227 Z-1.000000 I-4.583806 J-15.644544
G03 X105.420906 Y130.008320 Z-1.000000 I32.196796 J71.707308
G03 X105.581628 Y129.976286 Z-1.000000 I0.160723 J0.387170
G03 X105.672507 Y130.054709 Z-1.000000 I0.000000 J0.091868
G03 X105.778509 Y131.307105 Z-1.000000 I-9.962597 J1.473915
G02 X106.464245 Y134.304305 Z-1.000000 I7.626681 J-0.167879
G02 X108.722245 Y137.762639 Z-1.000000 I12.524782 J-5.711316
G02 X110.251778 Y139.383106 Z-1.000000 I30.198751 J-26.972033
G02 X110.399546 Y139.444430 Z-1.000000 I0.147767 J-0.147372
G02 X110.551710 Y139.387842 Z-1.000000 I0.000000 J-0.232878
G02 X111.903418 Y138.146380 Z-1.000000 I-19.449137 J-22.532878
G02 X114.172880 Y135.059044 Z-1.000000 I-8.242529 J-8.436777
G02 X115.119760 Y131.826089 Z-1.000000 I-8.125437 J-4.134949
G03 X115.373823 Y130.053775 Z-1.000000 I20.587376 J2.046848
G03 X115.467221 Y129.976286 Z-1.000000 I0.093398 J0.017543
G03 X115.624060 Y130.007599 Z-1.000000 I-0.000000 J0.408442
G03 X117.684062 Y130.898227 Z-1.000000 I-30.878104 J74.248032
G02 X119.778153 Y131.669750 Z-1.000000 I6.626864 J-14.759147
G02 X121.492496 Y132.009754 Z-1.000000 I2.779983 J-9.525074
G01 X123.247628 Y132.199342 Z-1.000000
G01 X123.247628 Y129.869394 Z-1.000000
G02 X121.064311 Y123.413723 Z-1.000000 I-10.635782 J0.000000
G02 X115.043207 Y119.127277 Z-1.000000 I-9.942075 J7.593380
G03 X113.393120 Y118.529381 Z-1.000000 I9.541029 J-28.907461
G03 X113.089253 Y118.354863 Z-1.000000 I0.446187 J-1.128696
G03 X113.222186 Y117.659750 Z-1.000000 I0.246199 J-0.313185
G03 X117.640115 Y117.005231 Z-1.000000 I4.510905 J15.210585
G01 X119.253966 Y116.995777 Z-1.000000
G01 X120.018156 Y118.699897 Z-1.000000
G02 X121.933492 Y121.648253 Z-1.000000 I10.419478 J-4.672482
G02 X124.671227 Y123.892272 Z-1.000000 I8.620576 J-7.725179
G02 X128.852485 Y125.715407 Z-1.000000 I9.529419 J-16.148881
G02 X130.264093 Y125.556607 Z-1.000000 I0.518665 J-1.742926
G02 X130.940142 Y123.590221 Z-1.000000 I-0.768680 J-1.363681
G02 X127.266128 Y118.370182 Z-1.000000 I-13.615564 J5.680070
G02 X123.694087 Y115.897808 Z-1.000000 I-10.956173 J12.012684
G02 X121.275258 Y115.316188 Z-1.000000 I-2.421567 J4.750258
G03 X120.668264 Y114.623400 Z-1.000000 I0.000121 J-0.612412
G03 X121.909152 Y110.528446 Z-1.000000 I13.100747 J1.734410
G01 X122.633495 Y109.054755 Z-1.000000
G01 X123.359153 Y110.734584 Z-1.000000
G02 X125.029759 Y113.665785 Z-1.000000 I14.074450 J-6.079905
G02 X127.083166 Y115.860710 Z-1.000000 I9.844488 J-7.151793
G02 X132.031918 Y118.536780 Z-1.000000 I9.103754 J-10.921420
G02 X136.842566 Y118.842904 Z-1.000000 I3.050281 J-9.982226
G01 X138.051642 Y118.636030 Z-1.000000
G01 X137.839406 Y117.205056 Z-1.000000
G02 X137.477340 Y115.824467 Z-1.000000 I-6.476174 J0.960636
G02 X136.515163 Y113.746756 Z-1.000000 I-15.736522 J6.025855
G01 X135.403176 Y111.719432 Z-1.000000
G01 X137.347202 Y111.518837 Z-1.000000
G02 X141.625624 Y110.393285 Z-1.000000 I-1.476169 J-14.305477
G02 X144.949769 Y108.199424 Z-1.000000 I-4.664135 J-10.682420
G01 X146.057144 Y107.157315 Z-1.000000
G01 X144.347549 Y105.755419 Z-1.000000
G02 X141.105346 Y103.842586 Z-1.000000 I-7.790286 J9.500196
G02 X137.141532 Y102.883822 Z-1.000000 I-5.337733 J13.394591
G01 X135.463761 Y102.723229 Z-1.000000
G01 X136.557228 Y100.696786 Z-1.000000
G02 X137.454874 Y98.615246 Z-1.000000 I-11.389485 J-6.145941
G02 X137.732697 Y97.143224 Z-1.000000 I-5.365937 J-1.774972
G01 X137.814658 Y95.616106 Z-1.000000
G01 X135.092314 Y95.646433 Z-1.000000
G02 X132.421612 Y95.922442 Z-1.000000 I0.163120 J14.637441
G02 X130.161358 Y96.619409 Z-1.000000 I2.199306 J11.145792
G02 X126.235979 Y99.379412 Z-1.000000 I4.530333 J10.614619
G02 X123.009364 Y104.318724 Z-1.000000 I12.782215 J11.873556
G01 X122.679464 Y105.080349 Z-1.000000
G01 X122.157564 Y104.159856 Z-1.000000
G03 X120.764259 Y100.484180 Z-1.000000 I11.185157 J-6.341769
G03 X121.153807 Y99.424060 Z-1.000000 I1.038345 J-0.220084
G03 X121.426881 Y99.268850 Z-1.000000 I0.684069 J0.885719
G03 X123.017061 Y98.688380 Z-1.000000 I11.937938 J30.235221
G02 X127.795856 Y95.761213 Z-1.000000 I-3.987184 J-11.873782
G02 X130.446414 Y91.409027 Z-1.000000 I-7.248036 J-7.397392
G02 X130.740328 Y89.655919 Z-1.000000 I-6.437734 J-1.980497
G02 X130.523040 Y89.140266 Z-1.000000 I-0.667031 J-0.022532
G02 X128.458989 Y88.731339 Z-1.000000 I-1.370159 J1.502262
G02 X123.055852 Y91.851368 Z-1.000000 I6.100921 J16.803799
G02 X120.193177 Y95.080015 Z-1.000000 I9.521704 J11.325825
G02 X119.564015 Y97.192006 Z-1.000000 I3.230225 J2.111992
G03 X119.172212 Y97.592126 Z-1.000000 I-0.400208 J0.000000
G03 X116.571487 Y97.419664 Z-1.000000 I-0.314189 J-14.957765
G03 X113.912038 Y96.798936 Z-1.000000 I2.753372 J-17.803981
G03 X113.312118 Y96.225147 Z-1.000000 I0.282063 J-0.895422
G03 X113.391547 Y96.015916 Z-1.000000 I0.160809 J-0.058645
G03 X114.623955 Y95.516185 Z-1.000000 I2.873731 J5.317517
G02 X120.910246 Y91.313922 Z-1.000000 I-3.321125 J-11.771226
G02 X123.247628 Y84.570044 Z-1.000000 I-8.560121 J-6.743879
G01 X123.247628 Y82.251475 Z-1.000000
G01 X121.592739 Y82.451684 Z-1.000000
G02 X118.749253 Y83.104060 Z-1.000000 I1.670026 J13.802160
G02 X116.489932 Y84.203183 Z-1.000000 I3.347463 J9.752585
G03 X115.770351 Y84.127581 Z-1.000000 I-0.313006 J-0.483091
G03 X115.238172 Y82.954237 Z-1.000000 I1.289173 J-1.292073
G02 X114.468985 Y79.943206 Z-1.000000 I-8.429088 J0.549502
G02 X112.322551 Y76.681791 Z-1.000000 I-12.090000 J5.619765
G02 X110.796916 Y75.052649 Z-1.000000 I-35.290242 J31.519166
G02 X110.671450 Y75.000001 Z-1.000000 I-0.125466 J0.123176
G02 X110.540501 Y75.046723 Z-1.000000 I-0.000000 J0.206867
G02 X109.231129 Y76.177714 Z-1.000000 I20.286942 J24.810059
G01 X109.231129 Y76.177714 Z-1.000000
G00 Z3.000000

(End cutting path id: path4558-1)


(Start cutting path id: path4558-1)
(Change tool to Cylindrical cutter)

G00 Z3.000000
G00 X94.950743 Y91.812983

G01 Z-1.000000 F100.0(Penetrate)
G03 X95.906173 Y92.435756 Z-1.000000 I-3.822984 J6.909322 F100.000000
G03 X97.014482 Y93.381631 Z-1.000000 I-7.799687 J10.261380
G03 X99.515620 Y96.419778 Z-1.000000 I-11.454065 J11.978097
G03 X99.421084 Y97.138347 Z-1.000000 I-0.473340 J0.303230
G03 X98.695665 Y97.248959 Z-1.000000 I-0.445648 J-0.488624
G03 X95.517090 Y95.315641 Z-1.000000 I7.191254 J-15.402778
G03 X92.980349 Y92.709455 Z-1.000000 I7.794694 J-10.124661
G03 X92.442324 Y91.090520 Z-1.000000 I2.273343 J-1.654375
G03 X92.711818 Y90.885040 Z-1.000000 I0.211071 J-0.002638
G03 X94.950743 Y91.812983 Z-1.000000 I-2.988032 J10.374465
G01 X94.950743 Y91.812983 Z-1.000000
G00 Z3.000000

(End cutting path id: path4558-1)


(Start cutting path id: path4558-1)
(Change tool to Cylindrical cutter)

G00 Z3.000000
G00 X128.605619 Y91.044899

G01 Z-1.000000 F100.0(Penetrate)
G03 X128.115985 Y92.602415 Z-1.000000 I-2.722028 J0.000000 F100.000000
G03 X125.771386 Y95.107228 Z-1.000000 I-9.858352 J-6.878064
G03 X122.394377 Y97.285943 Z-1.000000 I-12.304010 J-15.364678
G03 X121.679621 Y97.189331 Z-1.000000 I-0.287530 J-0.565056
G03 X121.584409 Y96.420516 Z-1.000000 I0.401316 J-0.440003
G03 X124.242577 Y93.319116 Z-1.000000 I13.803730 J9.141149
G03 X128.013853 Y90.686021 Z-1.000000 I12.033324 J13.217575
G03 X128.605619 Y91.044899 Z-1.000000 I0.187062 J0.358878
G01 X128.605619 Y91.044899 Z-1.000000
G00 Z3.000000

(End cutting path id: path4558-1)


(Start cutting path id: path4558-1)
(Change tool to Cylindrical cutter)

G00 Z3.000000
G00 X111.924635 Y97.642103

G01 Z-1.000000 F100.0(Penetrate)
G02 X114.821405 Y98.968779 Z-1.000000 I5.943617 J-9.151911 F100.000000
G02 X118.086912 Y99.433901 Z-1.000000 I3.265507 J-11.230595
G03 X118.882401 Y99.780640 Z-1.000000 I0.000000 J1.085874
G03 X119.229144 Y100.663227 Z-1.000000 I-0.949878 J0.882586
G02 X119.713880 Y103.412842 Z-1.000000 I8.040825 J0.000000
G02 X121.216920 Y106.125734 Z-1.000000 I9.323634 J-3.392815
G01 X121.920847 Y107.027369 Z-1.000000
G01 X120.702531 Y109.048907 Z-1.000000
G02 X119.717732 Y111.146554 Z-1.000000 I9.609699 J5.791532
G02 X119.310822 Y113.040480 Z-1.000000 I7.403556 J2.581329
G03 X118.823386 Y114.667609 Z-1.000000 I-4.190647 J-0.368810
G03 X118.249018 Y115.010521 Z-1.000000 I-0.574369 J-0.309570
G02 X115.087405 Y115.452815 Z-1.000000 I-0.000000 J11.521099
G02 X111.914032 Y116.818372 Z-1.000000 I3.702485 J12.974112
G01 X110.459230 Y117.680070 Z-1.000000
G01 X108.610519 Y116.664739 Z-1.000000
G02 X106.697257 Y115.839625 Z-1.000000 I-5.282772 J9.618841
G02 X104.288746 Y115.270409 Z-1.000000 I-4.753923 J14.735007
G03 X102.192228 Y114.568156 Z-1.000000 I0.983283 J-6.416128
G03 X101.815669 Y113.937414 Z-1.000000 I0.339972 J-0.630742
G02 X101.381774 Y111.393154 Z-1.000000 I-7.676415 J-0.000000
G02 X99.904031 Y108.495718 Z-1.000000 I-11.501560 J4.040439
G03 X99.423820 Y107.269972 Z-1.000000 I2.353504 J-1.628973
G03 X99.617341 Y106.480964 Z-1.000000 I1.079129 J-0.153556
G02 X101.108265 Y103.773273 Z-1.000000 I-10.569918 J-7.584382
G02 X101.726727 Y101.264180 Z-1.000000 I-8.430442 J-3.408772
G01 X101.900841 Y99.512802 Z-1.000000
G01 X103.814946 Y99.330331 Z-1.000000
G02 X107.092259 Y98.638266 Z-1.000000 I-1.408621 J-14.776589
G02 X109.350339 Y97.488692 Z-1.000000 I-2.681454 J-8.059654
G03 X110.473882 Y97.164952 Z-1.000000 I1.019275 J1.425898
G03 X111.924635 Y97.642103 Z-1.000000 I-0.177880 J2.984881
G01 X111.924635 Y97.642103 Z-1.000000
G00 Z3.000000

(End cutting path id: path4558-1)


(Start cutting path id: path4558-1)
(Change tool to Cylindrical cutter)

G00 Z3.000000
G00 X108.365085 Y101.400637

G01 Z-1.000000 F100.0(Penetrate)
G02 X106.067799 Y102.595980 Z-1.000000 I2.685618 J7.966596 F100.000000
G02 X104.565538 Y104.196689 Z-1.000000 I3.580611 J4.865681
G02 X104.057781 Y105.459082 Z-1.000000 I3.053602 J1.961524
G02 X103.901054 Y107.581574 Z-1.000000 I8.712671 J1.710384
G02 X104.289327 Y109.657039 Z-1.000000 I7.638258 J-0.354895
G02 X105.020091 Y110.919741 Z-1.000000 I3.461122 J-1.160247
G02 X112.848383 Y113.155127 Z-1.000000 I5.670127 J-5.031727
G02 X117.219886 Y107.296688 Z-1.000000 I-1.739822 J-5.858439
G02 X114.495340 Y102.209246 Z-1.000000 I-6.112067 J0.000000
G02 X108.365087 Y101.400637 Z-1.000000 I-3.888820 J5.840300
G01 X108.365085 Y101.400637 Z-1.000000
G00 Z3.000000

(End cutting path id: path4558-1)


(Start cutting path id: path4558-1)
(Change tool to Cylindrical cutter)

G00 Z3.000000
G00 X126.348358 Y120.185506

G01 Z-1.000000 F100.0(Penetrate)
G03 X128.520561 Y123.078422 Z-1.000000 I-9.628767 J9.491930 F100.000000
G03 X128.236696 Y123.562391 Z-1.000000 I-0.283866 J0.158736
G03 X127.321874 Y123.354684 Z-1.000000 I-0.000000 J-2.118469
G03 X124.862893 Y121.947103 Z-1.000000 I8.345105 J-17.430185
G03 X122.745347 Y119.976944 Z-1.000000 I5.200977 J-7.713116
G03 X121.718466 Y117.940008 Z-1.000000 I4.552306 J-3.572264
G01 X121.486823 Y117.098252 Z-1.000000
G01 X123.156730 Y117.870031 Z-1.000000
G03 X124.723442 Y118.788584 Z-1.000000 I-3.919817 J8.481157
G03 X126.348358 Y120.185506 Z-1.000000 I-7.637762 J10.527851
G01 X126.348358 Y120.185506 Z-1.000000
G00 Z3.000000

(End cutting path id: path4558-1)


(Start cutting path id: path4558-1)
(Change tool to Cylindrical cutter)

G00 Z3.000000
G00 X99.086366 Y118.370507

G01 Z-1.000000 F100.0(Penetrate)
G03 X97.524799 Y120.731380 Z-1.000000 I-6.077033 J-2.322695 F100.000000
G03 X94.319514 Y122.966292 Z-1.000000 I-8.605268 J-8.925626
G03 X92.992300 Y123.120419 Z-1.000000 I-0.884954 J-1.829004
G03 X92.731379 Y122.612121 Z-1.000000 I0.080870 J-0.362630
G03 X95.672881 Y118.641714 Z-1.000000 I9.771665 J4.164583
G03 X98.868095 Y117.459714 Z-1.000000 I3.246750 J3.867005
G03 X99.132195 Y117.665814 Z-1.000000 I0.002758 J0.268728
G03 X99.086366 Y118.370507 Z-1.000000 I-1.161372 J0.278307
G01 X99.086366 Y118.370507 Z-1.000000
G00 Z3.000000

(End cutting path id: path4558-1)


(Start cutting path id: path4558-5)
(Change tool to Cylindrical cutter)

G00 Z3.000000
G00 X109.231061 Y1.177714

G01 Z-1.000000 F100.0(Penetrate)
G02 X106.940561 Y4.173248 Z-1.000000 I7.153535 J7.843337 F100.000000
G02 X105.924991 Y7.618336 Z-1.000000 I8.567342 J4.397780
G03 X105.670917 Y9.390656 Z-1.000000 I-20.580880 J-2.046042
G03 X105.577531 Y9.468133 Z-1.000000 I-0.093386 J-0.017542
G03 X105.420692 Y9.436821 Z-1.000000 I0.000000 J-0.408445
G03 X103.360678 Y8.546198 Z-1.000000 I30.874235 J-74.239946
G02 X101.266598 Y7.774671 Z-1.000000 I-6.626372 J14.757665
G02 X99.552267 Y7.434666 Z-1.000000 I-2.780099 J9.525577
G01 X97.797141 Y7.245069 Z-1.000000
G01 X97.766096 Y8.280232 Z-1.000000
G02 X98.448915 Y13.157392 Z-1.000000 I14.625268 J0.438791
G02 X100.460263 Y16.743577 Z-1.000000 I9.719141 J-3.093942
G02 X103.115153 Y19.028528 Z-1.000000 I9.094023 J-7.881527
G02 X106.336432 Y20.465357 Z-1.000000 I6.529195 J-10.308675
G03 X106.894863 Y21.193299 Z-1.000000 I-0.207706 J0.737507
G03 X106.355058 Y21.957909 Z-1.000000 I-0.797321 J0.009954
G03 X102.088668 Y22.771440 Z-1.000000 I-5.010652 J-14.683446
G03 X101.480733 Y22.192001 Z-1.000000 I-0.027828 J-0.579439
G02 X101.397669 Y21.803912 Z-1.000000 I-0.948132 J-0.000000
G02 X100.467172 Y19.932705 Z-1.000000 I-23.987679 J10.761416
G02 X97.298749 Y16.313575 Z-1.000000 I-9.758012 J5.346316
G02 X92.474616 Y14.058195 Z-1.000000 I-8.076807 J10.988875
G02 X91.062524 Y13.916134 Z-1.000000 I-1.208045 J4.918831
G02 X90.525586 Y14.136766 Z-1.000000 I0.034140 J0.846752
G02 X90.286230 Y14.643727 Z-1.000000 I0.496467 J0.544387
G02 X90.435086 Y15.916098 Z-1.000000 I3.841988 J0.195414
G02 X93.437857 Y20.727933 Z-1.000000 I10.055207 J-2.931998
G02 X99.576100 Y24.240988 Z-1.000000 I10.965448 J-12.040462
G03 X99.909354 Y24.599848 Z-1.000000 I-0.145705 J0.469475
G03 X99.955176 Y25.882392 Z-1.000000 I-3.289057 J0.759600
G03 X99.624205 Y27.304135 Z-1.000000 I-9.862805 J-1.546590
G03 X99.041233 Y28.817207 Z-1.000000 I-11.760554 J-3.662385
G01 X98.355139 Y30.298989 Z-1.000000
G01 X97.689307 Y28.664496 Z-1.000000
G02 X95.298794 Y24.804078 Z-1.000000 I-12.603209 J5.134013
G02 X91.936841 Y22.132892 Z-1.000000 I-9.133035 J8.043562
G02 X86.307763 Y20.218044 Z-1.000000 I-8.523295 J15.824602
G02 X83.428725 Y20.744782 Z-1.000000 I-0.701287 J4.298384
G02 X82.957914 Y21.831794 Z-1.000000 I0.496976 J0.860718
G02 X84.686990 Y26.126018 Z-1.000000 I14.779873 J-3.455921
G01 X85.647559 Y27.743543 Z-1.000000
G01 X83.658380 Y27.954115 Z-1.000000
G02 X79.372574 Y29.083949 Z-1.000000 I1.537689 J14.526529
G02 X76.101203 Y31.239193 Z-1.000000 I4.549474 J10.465866
G01 X75.000000 Y32.275493 Z-1.000000
G01 X76.543846 Y33.573411 Z-1.000000
G02 X79.851910 Y35.583785 Z-1.000000 I8.172653 J-9.721182
G02 X83.707738 Y36.543977 Z-1.000000 I5.125739 J-12.361352
G01 X85.636851 Y36.727882 Z-1.000000
G01 X84.512289 Y38.750978 Z-1.000000
G02 X83.590197 Y40.832176 Z-1.000000 I11.035884 J6.134410
G02 X83.308930 Y42.301195 Z-1.000000 I5.162664 J1.749909
G01 X83.230131 Y43.828316 Z-1.000000
G01 X85.952489 Y43.797972 Z-1.000000
G02 X88.624110 Y43.526430 Z-1.000000 I-0.166282 J-14.914421
G02 X90.809110 Y42.856713 Z-1.000000 I-2.055268 J-10.604673
G02 X94.702279 Y40.131427 Z-1.000000 I-4.530998 J-10.616105
G02 X98.052498 Y35.123733 Z-1.000000 I-13.540800 J-12.683509
G03 X98.407141 Y34.996294 Z-1.000000 I0.239294 J0.108741
G03 X98.990563 Y35.581873 Z-1.000000 I-0.554992 J1.136373
G03 X99.448025 Y36.840359 Z-1.000000 I-5.921146 J2.864737
G03 X99.731413 Y38.523876 Z-1.000000 I-10.368136 J2.610887
G01 X99.881188 Y40.244187 Z-1.000000
G01 X98.253122 Y40.739360 Z-1.000000
G02 X94.862067 Y42.395777 Z-1.000000 I3.465459 J11.393897
G02 X92.197821 Y45.003120 Z-1.000000 I6.689679 J9.500545
G02 X90.189374 Y48.697032 Z-1.000000 I12.384518 J9.126659
G02 X90.218309 Y50.247393 Z-1.000000 I1.957607 J0.738915
G02 X92.259126 Y51.130414 Z-1.000000 I1.481068 J-0.623155
G02 X98.419438 Y47.199554 Z-1.000000 I-6.045158 J-16.266315
G02 X100.971878 Y43.983964 Z-1.000000 I-12.084895 J-12.213450
G02 X101.477468 Y42.224840 Z-1.000000 I-2.909228 J-1.788360
G03 X102.031124 Y41.705579 Z-1.000000 I0.524517 J0.004465
G03 X105.988985 Y42.475854 Z-1.000000 I-0.822232 J14.778194
G03 X107.477624 Y43.339241 Z-1.000000 I-1.421774 J4.166438
G03 X107.350578 Y43.675600 Z-1.000000 I-0.127047 J0.144186
G02 X105.270453 Y44.151631 Z-1.000000 I-0.000000 J4.782805
G02 X101.791220 Y46.360719 Z-1.000000 I7.758942 J16.064425
G02 X98.118884 Y51.232640 Z-1.000000 I7.973109 J9.829956
G02 X97.627297 Y56.140986 Z-1.000000 I7.613098 J3.241268
G01 X97.843936 Y57.194285 Z-1.000000
G01 X99.575671 Y57.007222 Z-1.000000
G02 X101.266922 Y56.670878 Z-1.000000 I-1.045178 J-9.675757
G02 X103.360678 Y55.898224 Z-1.000000 I-4.583798 J-15.644470
G03 X105.420847 Y55.008318 Z-1.000000 I32.197774 J71.709484
G03 X105.581569 Y54.976283 Z-1.000000 I0.160722 J0.387169
G03 X105.672448 Y55.054706 Z-1.000000 I0.000000 J0.091868
G03 X105.778450 Y56.307102 Z-1.000000 I-9.962597 J1.473915
G02 X106.464185 Y59.304303 Z-1.000000 I7.626697 J-0.167880
G02 X108.722180 Y62.762636 Z-1.000000 I12.524778 J-5.711302
G02 X110.251708 Y64.383104 Z-1.000000 I30.198819 J-26.972001
G02 X110.399475 Y64.444427 Z-1.000000 I0.147767 J-0.147371
G02 X110.551639 Y64.387839 Z-1.000000 I0.000000 J-0.232878
G02 X111.903344 Y63.146377 Z-1.000000 I-19.448568 J-22.532211
G02 X114.172803 Y60.059041 Z-1.000000 I-8.242527 J-8.436762
G02 X115.119681 Y56.826086 Z-1.000000 I-8.125460 J-4.134952
G03 X115.373744 Y55.053772 Z-1.000000 I20.587376 J2.046848
G03 X115.467142 Y54.976283 Z-1.000000 I0.093398 J0.017543
G03 X115.623981 Y55.007596 Z-1.000000 I0.000000 J0.408440
G03 X117.683978 Y55.898224 Z-1.000000 I-30.878162 J74.247966
G02 X119.778065 Y56.669748 Z-1.000000 I6.626845 J-14.759067
G02 X121.492403 Y57.009751 Z-1.000000 I2.779978 J-9.525041
G01 X123.247532 Y57.199339 Z-1.000000
G01 X123.247532 Y54.869392 Z-1.000000
G02 X121.064217 Y48.413717 Z-1.000000 I-10.635800 J0.000000
G02 X115.043128 Y44.127274 Z-1.000000 I-9.942059 J7.593353
G03 X113.393044 Y43.529378 Z-1.000000 I9.541175 J-28.907813
G03 X113.089177 Y43.354860 Z-1.000000 I0.446188 J-1.128698
G03 X113.222111 Y42.659748 Z-1.000000 I0.246200 J-0.313184
G03 X117.640030 Y42.005229 Z-1.000000 I4.510896 J15.210509
G01 X119.253878 Y41.995774 Z-1.000000
G01 X120.018066 Y43.699894 Z-1.000000
G02 X121.933400 Y46.648252 Z-1.000000 I10.419511 J-4.672497
G02 X124.671128 Y48.892269 Z-1.000000 I8.620572 J-7.725161
G02 X128.852376 Y50.715403 Z-1.000000 I9.529416 J-16.148852
G02 X130.263983 Y50.556604 Z-1.000000 I0.518665 J-1.742922
G02 X130.940031 Y48.590219 Z-1.000000 I-0.768681 J-1.363681
G02 X127.266023 Y43.370179 Z-1.000000 I-13.615580 J5.680068
G02 X123.693991 Y40.897806 Z-1.000000 I-10.956164 J12.012648
G02 X121.275165 Y40.316185 Z-1.000000 I-2.421565 J4.750242
G03 X120.668173 Y39.623399 Z-1.000000 I0.000121 J-0.612410
G03 X121.909059 Y35.528443 Z-1.000000 I13.100800 J1.734417
G01 X122.633399 Y34.054752 Z-1.000000
G01 X123.359057 Y35.734581 Z-1.000000
G02 X125.029660 Y38.665783 Z-1.000000 I14.074452 J-6.079891
G02 X127.083062 Y40.860707 Z-1.000000 I9.844500 J-7.151788
G02 X132.031805 Y43.536777 Z-1.000000 I9.103742 J-10.921382
G02 X136.842442 Y43.842902 Z-1.000000 I3.050275 J-9.982185
G01 X138.051515 Y43.636027 Z-1.000000
G01 X137.839279 Y42.205053 Z-1.000000
G02 X137.477214 Y40.824464 Z-1.000000 I-6.476214 J0.960642
G02 X136.515038 Y38.746753 Z-1.000000 I-15.736362 J6.025768
G01 X135.403055 Y36.719429 Z-1.000000
G01 X137.347077 Y36.518834 Z-1.000000
G02 X141.625488 Y35.393283 Z-1.000000 I-1.476166 J-14.305413
G02 X144.949628 Y33.199421 Z-1.000000 I-4.664138 J-10.682402
G01 X146.057000 Y32.157313 Z-1.000000
G01 X144.347411 Y30.755416 Z-1.000000
G02 X141.105212 Y28.842583 Z-1.000000 I-7.790284 J9.500179
G02 X137.141408 Y27.883819 Z-1.000000 I-5.337721 J13.394533
G01 X135.463639 Y27.723226 Z-1.000000
G01 X136.557104 Y25.696783 Z-1.000000
G02 X137.454748 Y23.615243 Z-1.000000 I-11.389390 J-6.145890
G02 X137.732570 Y22.143221 Z-1.000000 I-5.365967 J-1.774974
G01 X137.814531 Y20.616103 Z-1.000000
G01 X135.092192 Y20.646430 Z-1.000000
G02 X132.421498 Y20.922439 Z-1.000000 I0.163119 J14.637364
G02 X130.161248 Y21.619406 Z-1.000000 I2.199307 J11.145771
G02 X126.235877 Y24.379408 Z-1.000000 I4.530326 J10.614586
G02 X123.009268 Y29.318721 Z-1.000000 I12.782245 J11.873557
G01 X122.679368 Y30.080346 Z-1.000000
G01 X122.157471 Y29.159853 Z-1.000000
G03 X120.764168 Y25.484174 Z-1.000000 I11.185104 J-6.341739
G03 X121.153714 Y24.424057 Z-1.000000 I1.038347 J-0.220083
G03 X121.426788 Y24.268847 Z-1.000000 I0.684070 J0.885720
G03 X123.016965 Y23.688377 Z-1.000000 I11.938118 J30.235668
G02 X127.795749 Y20.761212 Z-1.000000 I-3.987177 J-11.873739
G02 X130.446304 Y16.409025 Z-1.000000 I-7.248062 J-7.397401
G02 X130.740215 Y14.655916 Z-1.000000 I-6.437805 J-1.980500
G02 X130.522930 Y14.140266 Z-1.000000 I-0.667029 J-0.022532
G02 X128.458880 Y13.731340 Z-1.000000 I-1.370158 J1.502261
G02 X123.055756 Y16.851366 Z-1.000000 I6.100922 J16.803769
G02 X120.193088 Y20.080011 Z-1.000000 I9.521696 J11.325792
G02 X119.563928 Y22.192004 Z-1.000000 I3.230235 J2.111992
G03 X119.172125 Y22.592123 Z-1.000000 I-0.400208 J0.000000
G03 X116.571405 Y22.419662 Z-1.000000 I-0.314189 J-14.957704
G03 X113.911961 Y21.798933 Z-1.000000 I2.753367 J-17.803917
G03 X113.312042 Y21.225144 Z-1.000000 I0.282064 J-0.895423
G03 X113.391471 Y21.015913 Z-1.000000 I0.160809 J-0.058645
G03 X114.623876 Y20.516182 Z-1.000000 I2.873735 J5.317521
G02 X120.910152 Y16.313924 Z-1.000000 I-3.321125 J-11.771200
G02 X123.247532 Y9.570044 Z-1.000000 I-8.560134 J-6.743880
G01 X123.247532 Y7.251475 Z-1.000000
G01 X121.592646 Y7.451684 Z-1.000000
G02 X118.749168 Y8.104059 Z-1.000000 I1.670026 J13.802110
G02 X116.489850 Y9.203183 Z-1.000000 I3.347459 J9.752556
G03 X115.770272 Y9.127581 Z-1.000000 I-0.313006 J-0.483089
G03 X115.238093 Y7.954237 Z-1.000000 I1.289176 J-1.292073
G02 X114.468907 Y4.943205 Z-1.000000 I-8.429109 J0.549503
G02 X112.322478 Y1.681791 Z-1.000000 I-12.089994 J5.619749
G02 X110.796845 Y0.052649 Z-1.000000 I-35.289121 J31.518057
G02 X110.671379 Y0.000001 Z-1.000000 I-0.125466 J0.123176
G02 X110.540431 Y0.046723 Z-1.000000 I-0.000000 J0.206866
G02 X109.231061 Y1.177714 Z-1.000000 I20.287680 J24.810865
G01 X109.231061 Y1.177714 Z-1.000000
G00 Z3.000000

(End cutting path id: path4558-5)


(Start cutting path id: path4558-5)
(Change tool to Cylindrical cutter)

G00 Z3.000000
G00 X94.950707 Y16.812981

G01 Z-1.000000 F100.0(Penetrate)
G03 X95.906131 Y17.435753 Z-1.000000 I-3.823002 J6.909319 F100.000000
G03 X97.014437 Y18.381628 Z-1.000000 I-7.799628 J10.261269
G03 X99.515572 Y21.419773 Z-1.000000 I-11.454025 J11.978055
G03 X99.421033 Y22.138345 Z-1.000000 I-0.473341 J0.303230
G03 X98.695620 Y22.248957 Z-1.000000 I-0.445645 J-0.488616
G03 X95.517048 Y20.315638 Z-1.000000 I7.191220 J-15.402696
G03 X92.980313 Y17.709454 Z-1.000000 I7.794813 J-10.124759
G03 X92.442290 Y16.090517 Z-1.000000 I2.273322 J-1.654364
G03 X92.711784 Y15.885037 Z-1.000000 I0.211072 J-0.002638
G03 X94.950704 Y16.812981 Z-1.000000 I-2.988004 J10.374360
G01 X94.950707 Y16.812981 Z-1.000000
G00 Z3.000000

(End cutting path id: path4558-5)


(Start cutting path id: path4558-5)
(Change tool to Cylindrical cutter)

G00 Z3.000000
G00 X128.605512 Y16.044896

G01 Z-1.000000 F100.0(Penetrate)
G03 X128.115878 Y17.602413 Z-1.000000 I-2.722032 J0.000000 F100.000000
G03 X125.771284 Y20.107225 Z-1.000000 I-9.858372 J-6.878069
G03 X122.394283 Y22.285940 Z-1.000000 I-12.303997 J-15.364628
G03 X121.679528 Y22.189328 Z-1.000000 I-0.287530 J-0.565055
G03 X121.584315 Y21.420513 Z-1.000000 I0.401316 J-0.440003
G03 X124.242478 Y18.319113 Z-1.000000 I13.803732 J9.141133
G03 X128.013746 Y15.686019 Z-1.000000 I12.033318 J13.217547
G03 X128.605512 Y16.044896 Z-1.000000 I0.187062 J0.358877
G01 X128.605512 Y16.044896 Z-1.000000
G00 Z3.000000

(End cutting path id: path4558-5)


(Start cutting path id: path4558-5)
(Change tool to Cylindrical cutter)

G00 Z3.000000
G00 X111.924562 Y22.642100

G01 Z-1.000000 F100.0(Penetrate)
G02 X114.821327 Y23.968776 Z-1.000000 I5.943605 J-9.151872 F100.000000
G02 X118.086827 Y24.433898 Z-1.000000 I3.265501 J-11.230557
G03 X118.882314 Y24.780637 Z-1.000000 I-0.000000 J1.085870
G03 X119.229057 Y25.663224 Z-1.000000 I-0.949881 J0.882587
G02 X119.713792 Y28.412840 Z-1.000000 I8.040847 J-0.000000
G02 X121.216827 Y31.125731 Z-1.000000 I9.323643 J-3.392808
G01 X121.920754 Y32.027366 Z-1.000000
G01 X120.702440 Y34.048904 Z-1.000000
G02 X119.717644 Y36.146552 Z-1.000000 I9.609639 J5.791496
G02 X119.310735 Y38.040478 Z-1.000000 I7.403596 J2.581333
G03 X118.823300 Y39.667608 Z-1.000000 I-4.190660 J-0.368811
G03 X118.248933 Y40.010519 Z-1.000000 I-0.574366 J-0.309568
G02 X115.087326 Y40.452812 Z-1.000000 I-0.000000 J11.521060
G02 X111.913959 Y41.818369 Z-1.000000 I3.702480 J12.974072
G01 X110.459159 Y42.680067 Z-1.000000
G01 X108.610454 Y41.664736 Z-1.000000
G02 X106.697196 Y40.839622 Z-1.000000 I-5.282762 J9.618800
G02 X104.288689 Y40.270406 Z-1.000000 I-4.753914 J14.734949
G03 X102.192174 Y39.568153 Z-1.000000 I0.983284 J-6.416123
G03 X101.815616 Y38.937411 Z-1.000000 I0.339973 J-0.630743
G02 X101.381721 Y36.393150 Z-1.000000 I-7.676438 J-0.000000
G02 X99.903983 Y33.495715 Z-1.000000 I-11.501572 J4.040431
G03 X99.423772 Y32.269969 Z-1.000000 I2.353520 J-1.628979
G03 X99.617294 Y31.480961 Z-1.000000 I1.079128 J-0.153557
G02 X101.108213 Y28.773270 Z-1.000000 I-10.569928 J-7.584371
G02 X101.726676 Y26.264177 Z-1.000000 I-8.430524 J-3.408796
G01 X101.900790 Y24.512799 Z-1.000000
G01 X103.814889 Y24.330328 Z-1.000000
G02 X107.092196 Y23.638263 Z-1.000000 I-1.408617 J-14.776527
G02 X109.350272 Y22.488690 Z-1.000000 I-2.681451 J-8.059626
G03 X110.473811 Y22.164949 Z-1.000000 I1.019273 J1.425890
G03 X111.924562 Y22.642100 Z-1.000000 I-0.177879 J2.984870
G01 X111.924562 Y22.642100 Z-1.000000
G00 Z3.000000

(End cutting path id: path4558-5)


(Start cutting path id: path4558-5)
(Change tool to Cylindrical cutter)

G00 Z3.000000
G00 X108.365020 Y26.400634

G01 Z-1.000000 F100.0(Penetrate)
G02 X106.067739 Y27.595977 Z-1.000000 I2.685611 J7.966565 F100.000000
G02 X104.565482 Y29.196686 Z-1.000000 I3.580609 J4.865668
G02 X104.057725 Y30.459079 Z-1.000000 I3.053602 J1.961524
G02 X103.900998 Y32.581572 Z-1.000000 I8.712671 J1.710384
G02 X104.289270 Y34.657037 Z-1.000000 I7.638278 J-0.354896
G02 X105.020032 Y35.919738 Z-1.000000 I3.461127 J-1.160246
G02 X112.848304 Y38.155121 Z-1.000000 I5.670110 J-5.031702
G02 X117.219801 Y32.296685 Z-1.000000 I-1.739824 J-5.858436
G02 X114.495259 Y27.209243 Z-1.000000 I-6.112072 J-0.000000
G02 X108.365023 Y26.400634 Z-1.000000 I-3.888809 J5.840270
G01 X108.365020 Y26.400634 Z-1.000000
G00 Z3.000000

(End cutting path id: path4558-5)


(Start cutting path id: path4558-5)
(Change tool to Cylindrical cutter)

G00 Z3.000000
G00 X126.348256 Y45.185503

G01 Z-1.000000 F100.0(Penetrate)
G03 X128.520455 Y48.078419 Z-1.000000 I-9.628757 J9.491903 F100.000000
G03 X128.236588 Y48.562388 Z-1.000000 I-0.283866 J0.158735
G03 X127.321772 Y48.354682 Z-1.000000 I0.000000 J-2.118455
G03 X124.862794 Y46.947101 Z-1.000000 I8.345071 J-17.430090
G03 X122.745253 Y44.976942 Z-1.000000 I5.200983 J-7.713107
G03 X121.718373 Y42.940005 Z-1.000000 I4.552319 J-3.572268
G01 X121.486730 Y42.098249 Z-1.000000
G01 X123.156634 Y42.870028 Z-1.000000
G03 X124.723342 Y43.788580 Z-1.000000 I-3.919822 J8.481142
G03 X126.348256 Y45.185503 Z-1.000000 I-7.637814 J10.527902
G01 X126.348256 Y45.185503 Z-1.000000
G00 Z3.000000

(End cutting path id: path4558-5)


(Start cutting path id: path4558-5)
(Change tool to Cylindrical cutter)

G00 Z3.000000
G00 X99.086321 Y43.370504

G01 Z-1.000000 F100.0(Penetrate)
G03 X97.524756 Y45.731377 Z-1.000000 I-6.077046 J-2.322700 F100.000000
G03 X94.319474 Y47.966290 Z-1.000000 I-8.605241 J-8.925577
G03 X92.992266 Y48.120415 Z-1.000000 I-0.884950 J-1.828991
G03 X92.731345 Y47.612118 Z-1.000000 I0.080871 J-0.362630
G03 X95.672841 Y43.641712 Z-1.000000 I9.771690 J4.164594
G03 X98.868050 Y42.459711 Z-1.000000 I3.246744 J3.866986
G03 X99.132148 Y42.665809 Z-1.000000 I0.002758 J0.268726
G03 X99.086321 Y43.370504 Z-1.000000 I-1.161377 J0.278311
G01 X99.086321 Y43.370504 Z-1.000000
G00 Z3.000000

(End cutting path id: path4558-5)


(Start cutting path id: path4558)
(Change tool to Cylindrical cutter)

G00 Z3.000000
G00 X34.231129 Y1.177714

G01 Z-1.000000 F100.0(Penetrate)
G02 X31.940624 Y4.173248 Z-1.000000 I7.153538 J7.843352 F100.000000
G02 X30.925051 Y7.618336 Z-1.000000 I8.567345 J4.397792
G03 X30.670976 Y9.390656 Z-1.000000 I-20.580880 J-2.046042
G03 X30.577590 Y9.468133 Z-1.000000 I-0.093386 J-0.017542
G03 X30.420751 Y9.436821 Z-1.000000 I0.000000 J-0.408446
G03 X28.360734 Y8.546198 Z-1.000000 I30.873206 J-74.237660
G02 X26.266650 Y7.774671 Z-1.000000 I-6.626379 J14.757709
G02 X24.552315 Y7.434666 Z-1.000000 I-2.780106 J9.525623
G01 X22.797185 Y7.245069 Z-1.000000
G01 X22.766139 Y8.280232 Z-1.000000
G02 X23.448960 Y13.157391 Z-1.000000 I14.625264 J0.438784
G02 X25.460311 Y16.743579 Z-1.000000 I9.719166 J-3.093956
G02 X28.115206 Y19.028530 Z-1.000000 I9.094031 J-7.881555
G02 X31.336494 Y20.465360 Z-1.000000 I6.529207 J-10.308717
G03 X31.894925 Y21.193302 Z-1.000000 I-0.207706 J0.737507
G03 X31.355120 Y21.957912 Z-1.000000 I-0.797321 J0.009954
G03 X27.088720 Y22.771442 Z-1.000000 I-5.010665 J-14.683523
G03 X26.480785 Y22.192004 Z-1.000000 I-0.027828 J-0.579439
G02 X26.397720 Y21.803915 Z-1.000000 I-0.948132 J-0.000000
G02 X25.467222 Y19.932707 Z-1.000000 I-23.987221 J10.761209
G02 X22.298793 Y16.313581 Z-1.000000 I-9.757999 J5.346322
G02 X17.474651 Y14.058195 Z-1.000000 I-8.076875 J10.989001
G02 X16.062553 Y13.916133 Z-1.000000 I-1.208051 J4.918865
G02 X15.525615 Y14.136766 Z-1.000000 I0.034140 J0.846754
G02 X15.286260 Y14.643724 Z-1.000000 I0.496466 J0.544384
G02 X15.435114 Y15.916101 Z-1.000000 I3.842060 J0.195418
G02 X18.437890 Y20.727934 Z-1.000000 I10.055207 J-2.932009
G02 X24.576149 Y24.240991 Z-1.000000 I10.965468 J-12.040508
G03 X24.909402 Y24.599852 Z-1.000000 I-0.145705 J0.469476
G03 X24.955225 Y25.882395 Z-1.000000 I-3.289072 J0.759602
G03 X24.624253 Y27.304138 Z-1.000000 I-9.862768 J-1.546592
G03 X24.041278 Y28.817210 Z-1.000000 I-11.760465 J-3.662373
G01 X23.355185 Y30.298992 Z-1.000000
G01 X22.689349 Y28.664499 Z-1.000000
G02 X20.298834 Y24.804082 Z-1.000000 I-12.603171 J5.134000
G02 X16.936873 Y22.132895 Z-1.000000 I-9.133049 J8.043594
G02 X11.307786 Y20.218047 Z-1.000000 I-8.523305 J15.824647
G02 X8.428739 Y20.744785 Z-1.000000 I-0.701290 J4.298407
G02 X7.957929 Y21.831797 Z-1.000000 I0.496975 J0.860717
G02 X9.687008 Y26.126020 Z-1.000000 I14.779996 J-3.455977
G01 X10.647578 Y27.743546 Z-1.000000
G01 X8.658396 Y27.954118 Z-1.000000
G02 X4.372580 Y29.083953 Z-1.000000 I1.537691 J14.526577
G02 X1.101205 Y31.239196 Z-1.000000 I4.549472 J10.465878
G01 X0.000000 Y32.275496 Z-1.000000
G01 X1.543847 Y33.573413 Z-1.000000
G02 X4.851916 Y35.583787 Z-1.000000 I8.172661 J-9.721210
G02 X8.707752 Y36.543980 Z-1.000000 I5.125749 J-12.361400
G01 X10.636871 Y36.727885 Z-1.000000
G01 X9.512308 Y38.750980 Z-1.000000
G02 X8.590212 Y40.832179 Z-1.000000 I11.035816 J6.134398
G02 X8.308943 Y42.301198 Z-1.000000 I5.162691 J1.749922
G01 X8.230146 Y43.828319 Z-1.000000
G01 X10.952509 Y43.797975 Z-1.000000
G02 X13.624136 Y43.526432 Z-1.000000 I-0.166282 J-14.914470
G02 X15.809138 Y42.856716 Z-1.000000 I-2.055271 J-10.604701
G02 X19.702319 Y40.131428 Z-1.000000 I-4.530996 J-10.616133
G02 X23.052544 Y35.123736 Z-1.000000 I-13.540784 J-12.683520
G03 X23.407186 Y34.996296 Z-1.000000 I0.239294 J0.108741
G03 X23.990608 Y35.581876 Z-1.000000 I-0.554992 J1.136373
G03 X24.448073 Y36.840363 Z-1.000000 I-5.921043 J2.864709
G03 X24.731460 Y38.523879 Z-1.000000 I-10.368158 J2.610888
G01 X24.881237 Y40.244190 Z-1.000000
G01 X23.253167 Y40.739363 Z-1.000000
G02 X19.862104 Y42.395781 Z-1.000000 I3.465461 J11.393932
G02 X17.197853 Y45.003123 Z-1.000000 I6.689681 J9.500566
G02 X15.189403 Y48.697035 Z-1.000000 I12.384416 J9.126614
G02 X15.218339 Y50.247396 Z-1.000000 I1.957605 J0.738914
G02 X17.259156 Y51.130419 Z-1.000000 I1.481069 J-0.623152
G02 X23.419483 Y47.199557 Z-1.000000 I-6.045158 J-16.266357
G02 X25.971928 Y43.983966 Z-1.000000 I-12.084874 J-12.213454
G02 X26.477521 Y42.224843 Z-1.000000 I-2.909232 J-1.788365
G03 X27.031181 Y41.705582 Z-1.000000 I0.524521 J0.004470
G03 X30.989044 Y42.475857 Z-1.000000 I-0.822234 J14.778224
G03 X32.477686 Y43.339244 Z-1.000000 I-1.421771 J4.166442
G03 X32.350640 Y43.675603 Z-1.000000 I-0.127046 J0.144186
G02 X30.270512 Y44.151633 Z-1.000000 I0.000000 J4.782822
G02 X26.791272 Y46.360722 Z-1.000000 I7.758925 J16.064436
G02 X23.118928 Y51.232644 Z-1.000000 I7.973102 J9.829967
G02 X22.627340 Y56.140989 Z-1.000000 I7.613083 J3.241267
G01 X22.843983 Y57.194287 Z-1.000000
G01 X24.575721 Y57.007225 Z-1.000000
G02 X26.266972 Y56.670881 Z-1.000000 I-1.045185 J-9.675813
G02 X28.360734 Y55.898227 Z-1.000000 I-4.583793 J-15.644505
G03 X30.420906 Y55.008320 Z-1.000000 I32.196796 J71.707308
G03 X30.581628 Y54.976286 Z-1.000000 I0.160723 J0.387170
G03 X30.672507 Y55.054709 Z-1.000000 I0.000000 J0.091868
G03 X30.778509 Y56.307105 Z-1.000000 I-9.962597 J1.473915
G02 X31.464245 Y59.304305 Z-1.000000 I7.626681 J-0.167879
G02 X33.722245 Y62.762639 Z-1.000000 I12.524782 J-5.711316
G02 X35.251778 Y64.383106 Z-1.000000 I30.198751 J-26.972033
G02 X35.399546 Y64.444430 Z-1.000000 I0.147767 J-0.147372
G02 X35.551710 Y64.387842 Z-1.000000 I-0.000000 J-0.232878
G02 X36.903418 Y63.146380 Z-1.000000 I-19.449137 J-22.532878
G02 X39.172880 Y60.059044 Z-1.000000 I-8.242529 J-8.436777
G02 X40.119760 Y56.826089 Z-1.000000 I-8.125437 J-4.134949
G03 X40.373823 Y55.053775 Z-1.000000 I20.587376 J2.046848
G03 X40.467221 Y54.976286 Z-1.000000 I0.093398 J0.017543
G03 X40.624060 Y55.007599 Z-1.000000 I0.000000 J0.408442
G03 X42.684062 Y55.898227 Z-1.000000 I-30.878104 J74.248032
G02 X44.778153 Y56.669750 Z-1.000000 I6.626864 J-14.759147
G02 X46.492496 Y57.009754 Z-1.000000 I2.779983 J-9.525074
G01 X48.247628 Y57.199342 Z-1.000000
G01 X48.247628 Y54.869394 Z-1.000000
G02 X46.064311 Y48.413723 Z-1.000000 I-10.635782 J-0.000000
G02 X40.043207 Y44.127277 Z-1.000000 I-9.942075 J7.593380
G03 X38.393120 Y43.529381 Z-1.000000 I9.541029 J-28.907461
G03 X38.089253 Y43.354863 Z-1.000000 I0.446187 J-1.128696
G03 X38.222186 Y42.659750 Z-1.000000 I0.246199 J-0.313185
G03 X42.640115 Y42.005231 Z-1.000000 I4.510905 J15.210585
G01 X44.253966 Y41.995777 Z-1.000000
G01 X45.018156 Y43.699897 Z-1.000000
G02 X46.933492 Y46.648253 Z-1.000000 I10.419478 J-4.672482
G02 X49.671227 Y48.892272 Z-1.000000 I8.620576 J-7.725179
G02 X53.852485 Y50.715407 Z-1.000000 I9.529419 J-16.148881
G02 X55.264093 Y50.556607 Z-1.000000 I0.518665 J-1.742926
G02 X55.940142 Y48.590221 Z-1.000000 I-0.768680 J-1.363681
G02 X52.266128 Y43.370182 Z-1.000000 I-13.615564 J5.680070
G02 X48.694087 Y40.897808 Z-1.000000 I-10.956173 J12.012684
G02 X46.275258 Y40.316188 Z-1.000000 I-2.421567 J4.750258
G03 X45.668264 Y39.623400 Z-1.000000 I0.000121 J-0.612412
G03 X46.909152 Y35.528446 Z-1.000000 I13.100747 J1.734410
G01 X47.633495 Y34.054755 Z-1.000000
G01 X48.359153 Y35.734584 Z-1.000000
G02 X50.029759 Y38.665785 Z-1.000000 I14.074450 J-6.079905
G02 X52.083166 Y40.860710 Z-1.000000 I9.844488 J-7.151793
G02 X57.031918 Y43.536779 Z-1.000000 I9.103754 J-10.921420
G02 X61.842566 Y43.842904 Z-1.000000 I3.050281 J-9.982226
G01 X63.051642 Y43.636030 Z-1.000000
G01 X62.839406 Y42.205056 Z-1.000000
G02 X62.477340 Y40.824467 Z-1.000000 I-6.476174 J0.960636
G02 X61.515163 Y38.746756 Z-1.000000 I-15.736522 J6.025855
G01 X60.403176 Y36.719432 Z-1.000000
G01 X62.347202 Y36.518837 Z-1.000000
G02 X66.625624 Y35.393285 Z-1.000000 I-1.476169 J-14.305477
G02 X69.949769 Y33.199424 Z-1.000000 I-4.664135 J-10.682420
G01 X71.057144 Y32.157315 Z-1.000000
G01 X69.347549 Y30.755419 Z-1.000000
G02 X66.105346 Y28.842586 Z-1.000000 I-7.790286 J9.500196
G02 X62.141532 Y27.883822 Z-1.000000 I-5.337733 J13.394591
G01 X60.463761 Y27.723229 Z-1.000000
G01 X61.557228 Y25.696786 Z-1.000000
G02 X62.454874 Y23.615246 Z-1.000000 I-11.389485 J-6.145941
G02 X62.732697 Y22.143224 Z-1.000000 I-5.365937 J-1.774972
G01 X62.814658 Y20.616106 Z-1.000000
G01 X60.092314 Y20.646433 Z-1.000000
G02 X57.421612 Y20.922442 Z-1.000000 I0.163120 J14.637441
G02 X55.161358 Y21.619409 Z-1.000000 I2.199306 J11.145792
G02 X51.235979 Y24.379412 Z-1.000000 I4.530333 J10.614619
G02 X48.009364 Y29.318724 Z-1.000000 I12.782215 J11.873556
G01 X47.679464 Y30.080349 Z-1.000000
G01 X47.157564 Y29.159856 Z-1.000000
G03 X45.764259 Y25.484180 Z-1.000000 I11.185157 J-6.341769
G03 X46.153807 Y24.424060 Z-1.000000 I1.038345 J-0.220084
G03 X46.426881 Y24.268850 Z-1.000000 I0.684069 J0.885719
G03 X48.017061 Y23.688380 Z-1.000000 I11.937938 J30.235221
G02 X52.795856 Y20.761213 Z-1.000000 I-3.987184 J-11.873782
G02 X55.446414 Y16.409027 Z-1.000000 I-7.248036 J-7.397392
G02 X55.740327 Y14.655921 Z-1.000000 I-6.437728 J-1.980495
G02 X55.523040 Y14.140268 Z-1.000000 I-0.667030 J-0.022532
G02 X53.458989 Y13.731342 Z-1.000000 I-1.370160 J1.502263
G02 X48.055852 Y16.851368 Z-1.000000 I6.100929 J16.803824
G02 X45.193176 Y20.080015 Z-1.000000 I9.521704 J11.325825
G02 X44.564015 Y22.192006 Z-1.000000 I3.230225 J2.111992
G03 X44.172212 Y22.592126 Z-1.000000 I-0.400208 J0.000000
G03 X41.571487 Y22.419664 Z-1.000000 I-0.314189 J-14.957765
G03 X38.912038 Y21.798936 Z-1.000000 I2.753372 J-17.803981
G03 X38.312118 Y21.225147 Z-1.000000 I0.282063 J-0.895422
G03 X38.391547 Y21.015916 Z-1.000000 I0.160809 J-0.058645
G03 X39.623955 Y20.516185 Z-1.000000 I2.873731 J5.317517
G02 X45.910245 Y16.313923 Z-1.000000 I-3.321126 J-11.771229
G02 X48.247628 Y9.570046 Z-1.000000 I-8.560115 J-6.743877
G01 X48.247628 Y7.251478 Z-1.000000
G01 X46.592739 Y7.451686 Z-1.000000
G02 X43.749253 Y8.104062 Z-1.000000 I1.670026 J13.802160
G02 X41.489932 Y9.203186 Z-1.000000 I3.347463 J9.752585
G03 X40.770351 Y9.127584 Z-1.000000 I-0.313006 J-0.483091
G03 X40.238172 Y7.954239 Z-1.000000 I1.289173 J-1.292073
G02 X39.468985 Y4.943209 Z-1.000000 I-8.429088 J0.549502
G02 X37.322551 Y1.681794 Z-1.000000 I-12.090000 J5.619765
G02 X35.796916 Y0.052652 Z-1.000000 I-35.290242 J31.519166
G02 X35.671450 Y0.000004 Z-1.000000 I-0.125466 J0.123176
G02 X35.540501 Y0.046726 Z-1.000000 I-0.000000 J0.206867
G02 X34.231129 Y1.177717 Z-1.000000 I20.286942 J24.810059
G01 X34.231129 Y1.177714 Z-1.000000
G00 Z3.000000

(End cutting path id: path4558)


(Start cutting path id: path4558)
(Change tool to Cylindrical cutter)

G00 Z3.000000
G00 X19.950744 Y16.812983

G01 Z-1.000000 F100.0(Penetrate)
G03 X20.906172 Y17.435756 Z-1.000000 I-3.822980 J6.909307 F100.000000
G03 X22.014480 Y18.381631 Z-1.000000 I-7.799695 J10.261378
G03 X24.515621 Y21.419777 Z-1.000000 I-11.454047 J11.978094
G03 X24.421083 Y22.138347 Z-1.000000 I-0.473340 J0.303230
G03 X23.695664 Y22.248959 Z-1.000000 I-0.445648 J-0.488625
G03 X20.517089 Y20.315641 Z-1.000000 I7.191257 J-15.402780
G03 X17.980349 Y17.709455 Z-1.000000 I7.794720 J-10.124686
G03 X17.442324 Y16.090520 Z-1.000000 I2.273338 J-1.654373
G03 X17.711826 Y15.885041 Z-1.000000 I0.211078 J-0.002631
G03 X19.950742 Y16.812983 Z-1.000000 I-2.988049 J10.374459
G01 X19.950744 Y16.812983 Z-1.000000
G00 Z3.000000

(End cutting path id: path4558)


(Start cutting path id: path4558)
(Change tool to Cylindrical cutter)

G00 Z3.000000
G00 X53.605619 Y16.044899

G01 Z-1.000000 F100.0(Penetrate)
G03 X53.115985 Y17.602415 Z-1.000000 I-2.722028 J0.000000 F100.000000
G03 X50.771386 Y20.107228 Z-1.000000 I-9.858352 J-6.878064
G03 X47.394377 Y22.285943 Z-1.000000 I-12.304010 J-15.364678
G03 X46.679621 Y22.189331 Z-1.000000 I-0.287530 J-0.565056
G03 X46.584409 Y21.420516 Z-1.000000 I0.401316 J-0.440003
G03 X49.242577 Y18.319116 Z-1.000000 I13.803730 J9.141149
G03 X53.013853 Y15.686021 Z-1.000000 I12.033324 J13.217575
G03 X53.605619 Y16.044899 Z-1.000000 I0.187062 J0.358878
G01 X53.605619 Y16.044899 Z-1.000000
G00 Z3.000000

(End cutting path id: path4558)


(Start cutting path id: path4558)
(Change tool to Cylindrical cutter)

G00 Z3.000000
G00 X36.924635 Y22.642103

G01 Z-1.000000 F100.0(Penetrate)
G02 X39.821405 Y23.968779 Z-1.000000 I5.943617 J-9.151911 F100.000000
G02 X43.086912 Y24.433901 Z-1.000000 I3.265507 J-11.230595
G03 X43.882401 Y24.780640 Z-1.000000 I-0.000000 J1.085874
G03 X44.229144 Y25.663227 Z-1.000000 I-0.949878 J0.882586
G02 X44.713880 Y28.412842 Z-1.000000 I8.040825 J-0.000000
G02 X46.216920 Y31.125734 Z-1.000000 I9.323634 J-3.392815
G01 X46.920847 Y32.027369 Z-1.000000
G01 X45.702531 Y34.048907 Z-1.000000
G02 X44.717732 Y36.146554 Z-1.000000 I9.609699 J5.791532
G02 X44.310822 Y38.040480 Z-1.000000 I7.403556 J2.581329
G03 X43.823386 Y39.667609 Z-1.000000 I-4.190647 J-0.368810
G03 X43.249018 Y40.010521 Z-1.000000 I-0.574369 J-0.309570
G02 X40.087405 Y40.452815 Z-1.000000 I-0.000000 J11.521099
G02 X36.914032 Y41.818372 Z-1.000000 I3.702485 J12.974112
G01 X35.459230 Y42.680070 Z-1.000000
G01 X33.610519 Y41.664739 Z-1.000000
G02 X31.697257 Y40.839625 Z-1.000000 I-5.282772 J9.618841
G02 X29.288746 Y40.270409 Z-1.000000 I-4.753923 J14.735007
G03 X27.192227 Y39.568156 Z-1.000000 I0.983286 J-6.416144
G03 X26.815667 Y38.937414 Z-1.000000 I0.339972 J-0.630742
G02 X26.381772 Y36.393153 Z-1.000000 I-7.676424 J0.000000
G02 X24.904032 Y33.495718 Z-1.000000 I-11.501565 J4.040436
G03 X24.423820 Y32.269972 Z-1.000000 I2.353509 J-1.628978
G03 X24.617341 Y31.480964 Z-1.000000 I1.079127 J-0.153557
G02 X26.108265 Y28.773272 Z-1.000000 I-10.569873 J-7.584357
G02 X26.726727 Y26.264180 Z-1.000000 I-8.430493 J-3.408787
G01 X26.900841 Y24.512802 Z-1.000000
G01 X28.814946 Y24.330331 Z-1.000000
G02 X32.092259 Y23.638266 Z-1.000000 I-1.408621 J-14.776589
G02 X34.350339 Y22.488692 Z-1.000000 I-2.681454 J-8.059654
G03 X35.473882 Y22.164952 Z-1.000000 I1.019275 J1.425898
G03 X36.924635 Y22.642103 Z-1.000000 I-0.177880 J2.984881
G01 X36.924635 Y22.642103 Z-1.000000
G00 Z3.000000

(End cutting path id: path4558)


(Start cutting path id: path4558)
(Change tool to Cylindrical cutter)

G00 Z3.000000
G00 X33.365085 Y26.400637

G01 Z-1.000000 F100.0(Penetrate)
G02 X31.067799 Y27.595980 Z-1.000000 I2.685618 J7.966596 F100.000000
G02 X29.565538 Y29.196689 Z-1.000000 I3.580611 J4.865681
G02 X29.057781 Y30.459082 Z-1.000000 I3.053602 J1.961524
G02 X28.901054 Y32.581574 Z-1.000000 I8.712671 J1.710384
G02 X29.289327 Y34.657039 Z-1.000000 I7.638258 J-0.354895
G02 X30.020091 Y35.919741 Z-1.000000 I3.461122 J-1.160247
G02 X37.848383 Y38.155127 Z-1.000000 I5.670127 J-5.031727
G02 X42.219886 Y32.296688 Z-1.000000 I-1.739822 J-5.858439
G02 X39.495340 Y27.209246 Z-1.000000 I-6.112067 J0.000000
G02 X33.365087 Y26.400637 Z-1.000000 I-3.888820 J5.840300
G01 X33.365085 Y26.400637 Z-1.000000
G00 Z3.000000

(End cutting path id: path4558)


(Start cutting path id: path4558)
(Change tool to Cylindrical cutter)

G00 Z3.000000
G00 X51.348358 Y45.185506

G01 Z-1.000000 F100.0(Penetrate)
G03 X53.520561 Y48.078422 Z-1.000000 I-9.628767 J9.491930 F100.000000
G03 X53.236696 Y48.562391 Z-1.000000 I-0.283866 J0.158736
G03 X52.321874 Y48.354684 Z-1.000000 I-0.000000 J-2.118469
G03 X49.862893 Y46.947103 Z-1.000000 I8.345105 J-17.430185
G03 X47.745347 Y44.976944 Z-1.000000 I5.200977 J-7.713116
G03 X46.718466 Y42.940008 Z-1.000000 I4.552306 J-3.572264
G01 X46.486823 Y42.098252 Z-1.000000
G01 X48.156730 Y42.870031 Z-1.000000
G03 X49.723442 Y43.788584 Z-1.000000 I-3.919817 J8.481157
G03 X51.348358 Y45.185506 Z-1.000000 I-7.637762 J10.527851
G01 X51.348358 Y45.185506 Z-1.000000
G00 Z3.000000

(End cutting path id: path4558)


(Start cutting path id: path4558)
(Change tool to Cylindrical cutter)

G00 Z3.000000
G00 X24.086367 Y43.370507

G01 Z-1.000000 F100.0(Penetrate)
G03 X22.524799 Y45.731380 Z-1.000000 I-6.077030 J-2.322694 F100.000000
G03 X19.319513 Y47.966292 Z-1.000000 I-8.605269 J-8.925630
G03 X17.992300 Y48.120419 Z-1.000000 I-0.884953 J-1.829002
G03 X17.731379 Y47.612120 Z-1.000000 I0.080870 J-0.362630
G03 X20.672879 Y43.641715 Z-1.000000 I9.771658 J4.164577
G03 X23.868095 Y42.459714 Z-1.000000 I3.246752 J3.867007
G03 X24.132195 Y42.665813 Z-1.000000 I0.002758 J0.268727
G03 X24.086367 Y43.370507 Z-1.000000 I-1.161369 J0.278309
G01 X24.086367 Y43.370507 Z-1.000000
G00 Z3.000000

(End cutting path id: path4558)


(Footer)
M5
G00 X0.0000 Y0.0000
M2
(Using default footer. To add your own footer create file "footer" in the output dir.)
(end)
%