%
(Header)
(Generated by gcodetools from Inkscape.)
(Using default header. To add your own header create file "header" in the output dir.)
M3
(Header end.)
G21 (All units in mm)

(Start cutting path id: path4558)
(Change tool to Cylindrical cutter)

G00 Z3.000000
G00 X73.284715 Y8.227004

G01 Z-1.000000 F100.0(Penetrate)
G02 X68.861493 Y14.175491 Z-1.000000 I14.403476 J15.329022 F100.000000
G02 X66.883478 Y21.074293 Z-1.000000 I17.646750 J8.792618
G03 X66.390890 Y24.613861 Z-1.000000 I-42.282035 J-4.080164
G03 X66.210722 Y24.764149 Z-1.000000 I-0.180168 J-0.032851
G03 X65.907750 Y24.701978 Z-1.000000 I0.000000 J-0.769313
G03 X61.918447 Y22.925132 Z-1.000000 I60.395948 J-140.965303
G02 X57.859496 Y21.384929 Z-1.000000 I-12.920364 J27.931040
G02 X54.544578 Y20.707941 Z-1.000000 I-5.382296 J17.900411
G01 X51.146293 Y20.329760 Z-1.000000
G01 X51.086182 Y22.394645 Z-1.000000
G02 X52.414235 Y32.151202 Z-1.000000 I30.069165 J0.875679
G02 X56.302639 Y39.276698 Z-1.000000 I19.533430 J-6.035745
G02 X61.465097 Y43.848303 Z-1.000000 I18.057922 J-15.191162
G02 X67.680112 Y46.700639 Z-1.000000 I12.681576 J-19.434976
G03 X70.395173 Y47.684402 Z-1.000000 I-6.172697 J21.274337
G03 X70.671569 Y48.101671 Z-1.000000 I-0.185227 J0.422869
G03 X70.408357 Y48.534224 Z-1.000000 I-0.477507 J0.005793
G03 X67.716200 Y49.677877 Z-1.000000 I-10.317628 J-20.547189
G03 X59.484848 Y51.292967 Z-1.000000 I-9.672552 J-27.513232
G03 X58.278500 Y50.144831 Z-1.000000 I-0.056807 J-1.148136
G02 X58.116823 Y49.368599 Z-1.000000 I-1.944235 J0.000000
G02 X56.316034 Y45.638145 Z-1.000000 I-48.656953 J21.188138
G02 X50.137492 Y38.387517 Z-1.000000 I-19.535873 J10.389474
G02 X40.840810 Y33.920092 Z-1.000000 I-15.659470 J20.680377
G02 X38.112008 Y33.637594 Z-1.000000 I-2.334037 J9.224976
G02 X37.067084 Y34.076788 Z-1.000000 I0.067388 J1.622960
G02 X36.602496 Y35.082023 Z-1.000000 I1.013076 J1.078189
G02 X36.891855 Y37.626102 Z-1.000000 I7.899593 J0.390009
G02 X42.763836 Y47.278440 Z-1.000000 I20.325914 J-5.752957
G02 X54.590741 Y54.232004 Z-1.000000 I21.313682 J-22.716557
G03 X55.235417 Y54.936725 Z-1.000000 I-0.292498 J0.914809
G03 X55.324711 Y57.506157 Z-1.000000 I-6.790579 J1.522258
G03 X54.682946 Y60.345417 Z-1.000000 I-20.212586 J-3.076539
G03 X53.555124 Y63.360324 Z-1.000000 I-23.931354 J-7.233886
G01 X52.226710 Y66.316077 Z-1.000000
G01 X50.937516 Y63.055704 Z-1.000000
G02 X46.282315 Y55.323491 Z-1.000000 I-25.490046 J10.078907
G02 X39.799562 Y50.026924 Z-1.000000 I-17.924413 J15.323074
G02 X28.902106 Y46.214238 Z-1.000000 I-16.552137 J29.829529
G02 X23.326101 Y47.258019 Z-1.000000 I-1.365244 J8.122442
G02 X22.402968 Y49.408419 Z-1.000000 I1.017199 J1.710011
G02 X25.762361 Y57.992127 Z-1.000000 I30.104312 J-6.832647
G01 X27.622218 Y61.218658 Z-1.000000
G01 X23.770761 Y61.638684 Z-1.000000
G02 X15.499088 Y63.882038 Z-1.000000 I2.986017 J27.381299
G02 X9.138502 Y68.191525 Z-1.000000 I9.047057 J20.201695
G01 X7.006347 Y70.258670 Z-1.000000
G01 X9.995546 Y72.847658 Z-1.000000
G02 X16.422847 Y76.866081 Z-1.000000 I16.070158 J-18.554239
G02 X23.866309 Y78.773140 Z-1.000000 I9.908740 J-23.195059
G01 X27.601472 Y79.139975 Z-1.000000
G01 X25.424093 Y83.175507 Z-1.000000
G02 X23.640423 Y87.321032 Z-1.000000 I22.477005 J12.127536
G02 X23.094137 Y90.257231 Z-1.000000 I10.624918 J3.495707
G01 X22.941570 Y93.303422 Z-1.000000
G01 X28.212610 Y93.242893 Z-1.000000
G02 X33.379822 Y92.702098 Z-1.000000 I-0.321895 J-28.031978
G02 X37.616026 Y91.365337 Z-1.000000 I-4.012731 J-20.097022
G02 X45.118158 Y85.968750 Z-1.000000 I-8.950269 J-20.355213
G02 X51.640718 Y75.940137 Z-1.000000 I-27.569994 J-25.066813
G03 X52.327626 Y75.693587 Z-1.000000 I0.460627 J0.203179
G03 X53.456998 Y76.853998 Z-1.000000 I-1.113943 J2.213935
G03 X54.341908 Y79.360453 Z-1.000000 I-12.090721 J5.678094
G03 X54.891441 Y82.722498 Z-1.000000 I-21.313479 J5.209662
G01 X55.181435 Y86.154053 Z-1.000000
G01 X52.029166 Y87.141791 Z-1.000000
G02 X45.489151 Y90.427927 Z-1.000000 I6.785741 J21.655854
G02 X40.304859 Y95.646837 Z-1.000000 I13.460907 J18.556028
G02 X36.415517 Y103.008226 Z-1.000000 I25.180391 J18.012043
G02 X36.472120 Y106.107739 Z-1.000000 I4.030402 J1.476671
G02 X37.926058 Y106.995680 Z-1.000000 I1.329774 J-0.543079
G02 X43.054632 Y105.815932 Z-1.000000 I-1.635169 J-18.845658
G02 X48.130271 Y103.350512 Z-1.000000 I-11.674450 J-30.491961
G02 X52.351187 Y100.028128 Z-1.000000 I-10.781400 J-18.039626
G02 X57.284417 Y93.630745 Z-1.000000 I-24.306203 J-23.844082
G02 X58.272164 Y90.104921 Z-1.000000 I-6.006456 J-3.583955
G03 X59.370627 Y89.076181 Z-1.000000 I1.039004 J0.008596
G03 X67.007382 Y90.605625 Z-1.000000 I-1.592438 J27.781761
G03 X69.901606 Y92.330983 Z-1.000000 I-2.819301 J8.019430
G03 X69.643704 Y92.998797 Z-1.000000 I-0.257902 J0.284107
G02 X65.631509 Y93.941858 Z-1.000000 I0.000000 J9.006353
G02 X58.879650 Y98.354880 Z-1.000000 I15.366836 J30.882659
G02 X51.778678 Y108.026908 Z-1.000000 I16.090884 J19.256239
G02 X50.817436 Y117.863864 Z-1.000000 I15.736327 J6.503157
G01 X51.236900 Y119.964910 Z-1.000000
G01 X54.589895 Y119.591773 Z-1.000000
G02 X57.860151 Y118.922072 Z-1.000000 I-2.027732 J-18.221204
G02 X61.918447 Y117.379625 Z-1.000000 I-8.961833 J-29.689314
G03 X65.908059 Y115.604209 Z-1.000000 I62.931380 J136.045468
G03 X66.218545 Y115.540602 Z-1.000000 I0.310486 J0.725996
G03 X66.394106 Y115.692753 Z-1.000000 I0.000000 J0.177361
G03 X66.599746 Y118.195224 Z-1.000000 I-20.506311 J2.944786
G02 X67.935426 Y124.195498 Z-1.000000 I15.647228 J-0.334322
G02 X72.299410 Y131.072265 Z-1.000000 I25.123187 J-11.120058
G02 X75.262738 Y134.306528 Z-1.000000 I60.354960 J-52.324342
G02 X75.547000 Y134.426984 Z-1.000000 I0.284262 J-0.275183
G02 X75.839908 Y134.315588 Z-1.000000 I0.000000 J-0.440789
G02 X78.458800 Y131.837725 Z-1.000000 I-38.774023 J-43.603766
G02 X82.842344 Y125.703731 Z-1.000000 I-16.612676 J-16.505244
G02 X84.686287 Y119.230458 Z-1.000000 I-16.734634 J-8.266206
G03 X85.178849 Y115.690916 Z-1.000000 I42.293706 J4.081542
G03 X85.359046 Y115.540602 Z-1.000000 I0.180197 J0.032853
G03 X85.662019 Y115.602774 Z-1.000000 I-0.000000 J0.769310
G03 X89.651296 Y117.379625 Z-1.000000 I-60.394189 J140.960010
G02 X93.710255 Y118.919821 Z-1.000000 I12.920926 J-27.932699
G02 X97.025190 Y119.596816 Z-1.000000 I5.382309 J-17.900340
G01 X100.423475 Y119.974994 Z-1.000000
G01 X100.423475 Y115.327384 Z-1.000000
G02 X96.143251 Y102.366769 Z-1.000000 I-21.762625 J0.000000
G02 X84.538067 Y93.899760 Z-1.000000 I-19.366064 J14.357072
G03 X81.345460 Y92.708040 Z-1.000000 I18.602687 J-54.708767
G03 X80.754819 Y92.359004 Z-1.000000 I0.883432 J-2.169216
G03 X81.025204 Y90.968879 Z-1.000000 I0.504707 J-0.623191
G03 X89.566203 Y89.666856 Z-1.000000 I8.721172 J28.544459
G01 X92.690942 Y89.648003 Z-1.000000
G01 X94.170571 Y93.047257 Z-1.000000
G02 X97.898578 Y98.951167 Z-1.000000 I21.048078 J-9.161773
G02 X103.179858 Y103.404640 Z-1.000000 I16.954268 J-14.747493
G02 X111.276201 Y107.038300 Z-1.000000 I18.580160 J-30.562641
G02 X114.008776 Y106.724539 Z-1.000000 I1.007109 J-3.285005
G02 X115.347219 Y102.816462 Z-1.000000 I-1.582601 J-2.725246
G02 X108.204102 Y92.389572 Z-1.000000 I-27.344932 J11.072905
G02 X101.268272 Y87.449151 Z-1.000000 I-21.607477 J22.995826
G02 X96.604571 Y86.297675 Z-1.000000 I-4.669028 J8.890285
G03 X95.416480 Y84.946861 Z-1.000000 I0.000244 J-1.198107
G03 X97.831919 Y76.747428 Z-1.000000 I26.827348 J3.447469
G01 X99.234394 Y73.807812 Z-1.000000
G01 X100.639412 Y77.158620 Z-1.000000
G02 X103.885540 Y83.022186 Z-1.000000 I28.520255 J-11.958769
G02 X107.849854 Y87.383850 Z-1.000000 I19.546728 J-13.783595
G02 X117.461436 Y92.725824 Z-1.000000 I17.829103 J-20.761293
G02 X126.746018 Y93.332519 Z-1.000000 I5.883301 J-18.688530
G01 X129.087034 Y92.919862 Z-1.000000
G01 X128.676102 Y90.065455 Z-1.000000
G02 X127.973296 Y87.306499 Z-1.000000 I-13.263783 J1.909770
G02 X126.112099 Y83.167083 Z-1.000000 I-31.922360 J11.865059
G01 X123.959070 Y79.123124 Z-1.000000
G01 X127.723096 Y78.722986 Z-1.000000
G02 X135.980199 Y76.488310 Z-1.000000 I-2.866444 J-26.963762
G02 X142.443198 Y72.101655 Z-1.000000 I-9.275034 J-20.619603
G01 X144.587305 Y70.022933 Z-1.000000
G01 X141.277177 Y67.226528 Z-1.000000
G02 X134.978001 Y63.403228 Z-1.000000 I-15.307974 J18.120212
G02 X127.324881 Y61.498476 Z-1.000000 I-10.319783 J25.136791
G01 X124.076379 Y61.178134 Z-1.000000
G01 X126.193554 Y57.135927 Z-1.000000
G02 X127.929995 Y52.989452 Z-1.000000 I-23.206543 J-12.155152
G02 X128.469495 Y50.047532 Z-1.000000 I-11.041957 J-3.545344
G01 X128.628189 Y47.001344 Z-1.000000
G01 X123.357184 Y47.061841 Z-1.000000
G02 X118.191864 Y47.611510 Z-1.000000 I0.315848 J27.512527
G02 X113.809860 Y49.002660 Z-1.000000 I4.293891 J21.122430
G02 X106.245747 Y54.467670 Z-1.000000 I8.950291 J20.355331
G02 X99.962155 Y64.360714 Z-1.000000 I26.048536 J23.486835
G01 X99.323401 Y65.879945 Z-1.000000
G01 X98.312899 Y64.043812 Z-1.000000
G03 X95.606995 Y56.699608 Z-1.000000 I22.926910 J-12.617794
G03 X96.369421 Y54.597183 Z-1.000000 I2.092724 J-0.430548
G03 X96.900141 Y54.286785 Z-1.000000 I1.344136 J1.689301
G03 X99.977056 Y53.129698 Z-1.000000 I23.255894 J57.172238
G02 X109.183921 Y47.337241 Z-1.000000 I-7.849303 J-22.689325
G02 X114.361785 Y38.609361 Z-1.000000 I-14.845919 J-14.707263
G02 X114.932501 Y35.105831 Z-1.000000 I-13.250273 J-3.956684
G02 X114.510146 Y34.083790 Z-1.000000 I-1.341354 J-0.043979
G02 X110.511564 Y33.280832 Z-1.000000 I-2.645233 J2.815196
G02 X100.052158 Y39.491712 Z-1.000000 I12.039683 J32.187877
G02 X94.521748 Y45.909590 Z-1.000000 I19.094175 J22.045593
G02 X93.291263 Y50.144839 Z-1.000000 I6.673481 J4.235249
G03 X92.513051 Y50.940408 Z-1.000000 I-0.795763 J0.000000
G03 X87.497123 Y50.598953 Z-1.000000 I-0.616690 J-27.953266
G03 X82.365444 Y49.364844 Z-1.000000 I5.328044 J-33.441458
G03 X81.186331 Y48.216217 Z-1.000000 I0.574635 J-1.769404
G03 X81.345094 Y47.796047 Z-1.000000 I0.328044 J-0.116127
G03 X83.726308 Y46.802033 Z-1.000000 I5.586964 J10.034702
G02 X95.839677 Y38.507535 Z-1.000000 I-6.562065 J-22.575799
G02 X100.423475 Y24.967436 Z-1.000000 I-17.706175 J-13.540099
G01 X100.423475 Y20.342514 Z-1.000000
G01 X97.219277 Y20.741906 Z-1.000000
G02 X91.724488 Y22.039776 Z-1.000000 I3.241069 J26.002273
G02 X87.339218 Y24.235642 Z-1.000000 I6.591551 J18.640452
G03 X85.955543 Y24.089412 Z-1.000000 I-0.603945 J-0.904780
G03 X84.915565 Y21.744309 Z-1.000000 I2.650618 J-2.578615
G02 X83.418145 Y15.717279 Z-1.000000 I-17.278885 J1.093417
G02 X79.270330 Y9.232506 Z-1.000000 I-24.246807 J10.939929
G02 X76.314815 Y5.981181 Z-1.000000 I-70.534143 J61.147895
G02 X76.073460 Y5.877787 Z-1.000000 I-0.241354 J0.229999
G02 X75.821324 Y5.969832 Z-1.000000 I-0.000000 J0.391356
G02 X73.284715 Y8.227004 Z-1.000000 I40.347539 J47.896445
G01 X73.284715 Y8.227004 Z-1.000000
G00 Z3.000000

(End cutting path id: path4558)


(Start cutting path id: path4558)
(Change tool to Cylindrical cutter)

G00 Z3.000000
G00 X45.635009 Y39.415137

G01 Z-1.000000 F100.0(Penetrate)
G03 X47.481299 Y40.654587 Z-1.000000 I-7.536972 J13.221946 F100.000000
G03 X49.630819 Y42.544166 Z-1.000000 I-15.543394 J19.849031
G03 X54.477975 Y48.604952 Z-1.000000 I-23.076630 J23.424363
G03 X54.290491 Y50.037801 Z-1.000000 I-0.968144 J0.602012
G03 X52.884263 Y50.254610 Z-1.000000 I-0.861127 J-0.916471
G03 X46.731569 Y46.401994 Z-1.000000 I14.189004 J-29.499369
G03 X41.831544 Y41.221902 Z-1.000000 I15.586095 J-19.651014
G03 X40.778204 Y37.974017 Z-1.000000 I4.697544 J-3.318236
G03 X41.311896 Y37.570634 Z-1.000000 I0.415490 J-0.005029
G03 X45.635009 Y39.415137 Z-1.000000 I-5.834744 J19.663839
G01 X45.635009 Y39.415137 Z-1.000000
G00 Z3.000000

(End cutting path id: path4558)


(Start cutting path id: path4558)
(Change tool to Cylindrical cutter)

G00 Z3.000000
G00 X110.797631 Y37.883017

G01 Z-1.000000 F100.0(Penetrate)
G03 X109.839293 Y41.007212 Z-1.000000 I-5.571627 J-0.000000 F100.000000
G03 X105.309984 Y45.986266 Z-1.000000 I-19.571954 J-13.254448
G03 X98.772688 Y50.328638 Z-1.000000 I-24.175720 J-29.303719
G03 X97.387507 Y50.139500 Z-1.000000 I-0.559717 J-1.067686
G03 X97.198528 Y48.605898 Z-1.000000 I0.827244 J-0.880382
G03 X102.349905 Y42.419466 Z-1.000000 I27.583286 J17.730346
G03 X109.632571 Y37.186237 Z-1.000000 I23.611430 J25.174172
G03 X110.797631 Y37.883017 Z-1.000000 I0.374171 J0.696780
G01 X110.797631 Y37.883017 Z-1.000000
G00 Z3.000000

(End cutting path id: path4558)


(Start cutting path id: path4558)
(Change tool to Cylindrical cutter)

G00 Z3.000000
G00 X78.499883 Y51.042659

G01 Z-1.000000 F100.0(Penetrate)
G02 X84.122640 Y53.692198 Z-1.000000 I11.618255 J-17.364869 F100.000000
G02 X90.431296 Y54.616808 Z-1.000000 I6.308656 J-21.059804
G03 X91.962084 Y55.297606 Z-1.000000 I0.000000 J2.061404
G03 X92.642885 Y57.068978 Z-1.000000 I-1.964060 J1.771372
G02 X93.585787 Y62.569555 Z-1.000000 I16.515719 J-0.000000
G02 X96.491620 Y67.965203 Z-1.000000 I18.778425 J-6.632851
G01 X97.854567 Y69.763723 Z-1.000000
G01 X95.495664 Y73.796140 Z-1.000000
G02 X93.591183 Y77.972753 Z-1.000000 I19.553240 J11.438538
G02 X92.801037 Y81.758249 Z-1.000000 I15.229112 J5.153980
G03 X91.850740 Y85.018607 Z-1.000000 I-8.583982 J-0.733303
G03 X90.745164 Y85.687946 Z-1.000000 I-1.105577 J-0.578397
G02 X84.636188 Y86.567361 Z-1.000000 I-0.000000 J21.658115
G02 X78.479357 Y89.294122 Z-1.000000 I7.271421 J24.732571
G01 X75.662565 Y91.012977 Z-1.000000
G01 X72.083089 Y88.987668 Z-1.000000
G02 X68.371927 Y87.339712 Z-1.000000 I-10.323146 J18.244806
G02 X63.715263 Y86.206351 Z-1.000000 I-9.210876 J27.711766
G03 X59.672079 Y84.813569 Z-1.000000 I1.913535 J-12.119886
G03 X58.926886 Y83.547389 Z-1.000000 I0.703105 J-1.266180
G02 X58.083208 Y78.459061 Z-1.000000 I-15.766027 J0.000000
G02 X55.225572 Y72.692682 Z-1.000000 I-23.232185 J7.921875
G03 X54.292808 Y70.247378 Z-1.000000 I4.823066 J-3.240317
G03 X54.670481 Y68.673789 Z-1.000000 I2.200608 J-0.303955
G02 X57.552728 Y63.285523 Z-1.000000 I-21.444631 J-14.935994
G02 X58.754676 Y58.267717 Z-1.000000 I-17.345766 J-6.807805
G01 X59.091796 Y54.774195 Z-1.000000
G01 X62.797888 Y54.410213 Z-1.000000
G02 X69.129838 Y53.033758 Z-1.000000 I-2.732372 J-27.821730
G02 X73.515528 Y50.736642 Z-1.000000 I-5.291268 J-15.437341
G03 X75.691862 Y50.094956 Z-1.000000 I1.972493 J2.678424
G03 X78.499883 Y51.042659 Z-1.000000 I-0.347765 J5.664320
G01 X78.499883 Y51.042659 Z-1.000000
G00 Z3.000000

(End cutting path id: path4558)


(Start cutting path id: path4558)
(Change tool to Cylindrical cutter)

G00 Z3.000000
G00 X71.607878 Y58.539912

G01 Z-1.000000 F100.0(Penetrate)
G02 X67.177149 Y60.911628 Z-1.000000 I5.265500 J15.161258 F100.000000
G02 X64.251191 Y64.117280 Z-1.000000 I7.231990 J9.539154
G02 X63.268831 Y66.628310 Z-1.000000 I6.231950 J3.885724
G02 X62.964611 Y70.869210 Z-1.000000 I17.938312 J3.418164
G02 X63.719196 Y75.020088 Z-1.000000 I15.685369 J-0.707408
G02 X65.131296 Y77.527947 Z-1.000000 I6.948284 J-2.260883
G02 X80.186245 Y81.880110 Z-1.000000 I10.861060 J-9.355418
G02 X88.752554 Y70.300936 Z-1.000000 I-3.542695 J-11.579174
G02 X83.391648 Y60.122394 Z-1.000000 I-12.343254 J0.000000
G02 X71.607878 Y58.539912 Z-1.000000 I-7.458212 J10.872234
G01 X71.607878 Y58.539912 Z-1.000000
G00 Z3.000000

(End cutting path id: path4558)


(Start cutting path id: path4558)
(Change tool to Cylindrical cutter)

G00 Z3.000000
G00 X106.427124 Y96.010641

G01 Z-1.000000 F100.0(Penetrate)
G03 X110.648606 Y101.796595 Z-1.000000 I-19.506824 J18.665341 F100.000000
G03 X110.083321 Y102.746611 Z-1.000000 I-0.565285 J0.306829
G03 X108.318082 Y102.334941 Z-1.000000 I-0.000000 J-3.990508
G03 X103.550960 Y99.524553 Z-1.000000 I16.452920 J-33.356577
G03 X99.464732 Y95.613463 Z-1.000000 I10.362059 J-14.916220
G03 X97.462716 Y91.531484 Z-1.000000 I9.334720 J-7.110172
G01 X97.014208 Y89.852403 Z-1.000000
G01 X100.247479 Y91.391899 Z-1.000000
G03 X103.273227 Y93.218449 Z-1.000000 I-7.707354 J16.186931
G03 X106.427124 Y96.010641 Z-1.000000 I-15.245467 J20.397713
G01 X106.427124 Y96.010641 Z-1.000000
G00 Z3.000000

(End cutting path id: path4558)


(Start cutting path id: path4558)
(Change tool to Cylindrical cutter)

G00 Z3.000000
G00 X53.642407 Y92.390213

G01 Z-1.000000 F100.0(Penetrate)
G03 X50.595260 Y97.123123 Z-1.000000 I-12.269174 J-4.551787 F100.000000
G03 X44.412820 Y101.557561 Z-1.000000 I-16.848455 J-16.962953
G03 X41.859023 Y101.861078 Z-1.000000 I-1.700346 J-3.411128
G03 X41.337874 Y100.851080 Z-1.000000 I0.166676 J-0.725456
G03 X47.074405 Y92.899354 Z-1.000000 I19.643794 J8.126334
G03 X53.219791 Y90.573427 Z-1.000000 I6.245759 J7.220664
G03 X53.732138 Y90.975891 Z-1.000000 I0.005485 J0.520366
G03 X53.642407 Y92.390213 Z-1.000000 I-2.398233 J0.557852
G01 X53.642407 Y92.390213 Z-1.000000
G00 Z3.000000

(End cutting path id: path4558)


(Footer)
M5
G00 X0.0000 Y0.0000
M2
(Using default footer. To add your own footer create file "footer" in the output dir.)
(end)
%