%
(Header)
(Generated by gcodetools from Inkscape.)
(Using default header. To add your own header create file "header" in the output dir.)
M3
(Header end.)
G21 (All units in mm)

(Start cutting path id: path4609)
(Change tool to Cylindrical cutter)

G00 Z3.000000
G00 X169.181372 Y7.647064

G01 Z-1.000000 F100.0(Penetrate)
G01 X168.469529 Y0.467582 Z-1.000000 F100.000000
G01 X151.664450 Y0.467582 Z-1.000000
G01 X151.664450 Y1.025645 Z-1.000000
G01 X152.292546 Y1.025645 Z-1.000000
G03 X153.088956 Y1.119443 Z-1.000000 I-0.000000 J3.427938
G03 X153.618529 Y1.342376 Z-1.000000 I-0.408873 J1.711731
G03 X153.919232 Y1.606355 Z-1.000000 I-0.523426 J0.899502
G03 X154.176836 Y2.066374 Z-1.000000 I-1.430851 J1.103393
G03 X154.268833 Y2.440884 Z-1.000000 I-1.112417 J0.471814
G03 X154.330372 Y3.966823 Z-1.000000 I-18.887863 J1.525939
G01 X154.330372 Y17.420820 Z-1.000000
G03 X154.269501 Y18.977956 Z-1.000000 I-19.946768 J0.000000
G03 X154.176836 Y19.381603 Z-1.000000 I-1.404551 J-0.109981
G03 X153.962921 Y19.722866 Z-1.000000 I-1.009994 J-0.395422
G03 X153.548739 Y20.060338 Z-1.000000 I-1.400734 J-1.296228
G03 X153.060998 Y20.271022 Z-1.000000 I-0.850001 J-1.297875
G03 X152.292546 Y20.361995 Z-1.000000 I-0.768451 J-3.200068
G01 X151.664450 Y20.361995 Z-1.000000
G01 X151.664450 Y20.920065 Z-1.000000
G01 X161.755872 Y20.920065 Z-1.000000
G01 X161.755872 Y20.361995 Z-1.000000
G01 X160.932367 Y20.361995 Z-1.000000
G03 X160.135960 Y20.268194 Z-1.000000 I-0.000000 J-3.427811
G03 X159.606385 Y20.045253 Z-1.000000 I0.408880 J-1.711699
G03 X159.303121 Y19.782238 Z-1.000000 I0.541631 J-0.930858
G03 X159.034118 Y19.321272 Z-1.000000 I1.493494 J-1.180526
G03 X158.942123 Y18.946771 Z-1.000000 I1.112376 J-0.471800
G03 X158.880584 Y17.420820 Z-1.000000 I18.888372 J-1.525951
G01 X158.880584 Y4.389147 Z-1.000000
G03 X158.945456 Y2.832527 Z-1.000000 I18.708252 J0.000000
G03 X159.048078 Y2.383105 Z-1.000000 I1.632253 J0.136284
G03 X159.285521 Y2.028642 Z-1.000000 I0.939583 J0.372638
G03 X159.704089 Y1.749614 Z-1.000000 I0.976143 J1.010844
G03 X160.063044 Y1.667229 Z-1.000000 I0.460779 J1.184456
G03 X161.392970 Y1.613868 Z-1.000000 I1.329926 J16.546256
G01 X162.970193 Y1.613868 Z-1.000000
G03 X164.433918 Y1.778716 Z-1.000000 I0.000000 J6.580792
G03 X165.482579 Y2.187041 Z-1.000000 I-0.854366 J3.744944
G03 X166.369490 Y2.879698 Z-1.000000 I-1.932803 J3.388999
G03 X167.213335 Y3.996989 Z-1.000000 I-4.365023 J4.174037
G03 X167.837854 Y5.282816 Z-1.000000 I-7.067451 J4.227195
G03 X168.609105 Y7.647064 Z-1.000000 I-23.280577 J8.902366
G01 X169.181372 Y7.647064 Z-1.000000
G01 X169.181372 Y7.647064 Z-1.000000
G00 Z3.000000

(End cutting path id: path4609)


(Start cutting path id: path4607)
(Change tool to Cylindrical cutter)

G00 Z3.000000
G00 X142.368618 Y6.289599

G01 Z-1.000000 F100.0(Penetrate)
G01 X135.682876 Y6.289599 Z-1.000000 F100.000000
G01 X134.887286 Y4.298649 Z-1.000000
G03 X134.570848 Y3.289090 Z-1.000000 I7.004230 J-2.749793
G03 X134.496470 Y2.654597 Z-1.000000 I2.669131 J-0.634493
G03 X134.678020 Y1.894720 Z-1.000000 I1.681002 J0.000000
G03 X135.138523 Y1.387644 Z-1.000000 I1.152614 J0.584110
G03 X135.542238 Y1.225888 Z-1.000000 I0.625831 J0.977281
G03 X136.994898 Y1.025645 Z-1.000000 I2.525079 J12.948912
G01 X136.994898 Y0.467582 Z-1.000000
G01 X130.699973 Y0.467582 Z-1.000000
G01 X130.699973 Y1.025645 Z-1.000000
G03 X131.634873 Y1.344194 Z-1.000000 I-0.477502 J2.932593
G03 X132.374897 Y1.930628 Z-1.000000 I-1.290824 J2.389032
G03 X132.931735 Y2.746048 Z-1.000000 I-3.197360 J2.781267
G03 X133.993992 Y5.022629 Z-1.000000 I-24.301631 J12.725302
G01 X140.763480 Y21.342388 Z-1.000000
G01 X141.028678 Y21.342388 Z-1.000000
G01 X147.853996 Y4.570140 Z-1.000000
G03 X148.941303 Y2.261052 Z-1.000000 I23.163479 J9.496708
G03 X149.459131 Y1.568629 Z-1.000000 I2.533574 J1.354893
G03 X149.988809 Y1.220476 Z-1.000000 I1.139396 J1.156471
G03 X150.799073 Y1.025645 Z-1.000000 I1.053938 J2.600845
G01 X150.799073 Y0.467582 Z-1.000000
G01 X141.642817 Y0.467582 Z-1.000000
G01 X141.642817 Y1.025645 Z-1.000000
G01 X142.019673 Y1.025645 Z-1.000000
G03 X143.085012 Y1.138457 Z-1.000000 I-0.000000 J5.086705
G03 X143.568979 Y1.357485 Z-1.000000 I-0.261952 J1.223011
G03 X143.789300 Y1.640948 Z-1.000000 I-0.459025 J0.584131
G03 X143.876048 Y2.051295 Z-1.000000 I-0.927160 J0.410347
G03 X143.856005 Y2.319918 Z-1.000000 I-1.810069 J-0.000000
G03 X143.792302 Y2.609358 Z-1.000000 I-2.166818 J-0.325167
G03 X143.754318 Y2.742116 Z-1.000000 I-0.892407 J-0.183514
G03 X143.373571 Y3.740579 Z-1.000000 I-51.168958 J-18.940620
G01 X142.368618 Y6.289599 Z-1.000000
G01 X142.368618 Y6.289599 Z-1.000000
G00 Z3.000000

(End cutting path id: path4607)


(Start cutting path id: path4607)
(Change tool to Cylindrical cutter)

G00 Z3.000000
G00 X141.894055 Y7.405738

G01 Z-1.000000 F100.0(Penetrate)
G01 X139.074599 Y14.449477 Z-1.000000 F100.000000
G01 X136.171394 Y7.405738 Z-1.000000
G01 X141.894055 Y7.405738 Z-1.000000
G01 X141.894055 Y7.405738 Z-1.000000
G00 Z3.000000

(End cutting path id: path4607)


(Start cutting path id: path4605)
(Change tool to Cylindrical cutter)

G00 Z3.000000
G00 X117.412236 Y9.788843

G01 Z-1.000000 F100.0(Penetrate)
G01 X117.412236 Y4.057322 Z-1.000000 F100.000000
G03 X117.483288 Y2.412338 Z-1.000000 I19.077664 J0.000000
G03 X117.593687 Y1.960787 Z-1.000000 I1.514946 J0.131116
G03 X117.848033 Y1.593862 Z-1.000000 I1.178496 J0.545295
G03 X118.263655 Y1.282058 Z-1.000000 I1.251653 J1.235496
G03 X118.761415 Y1.117374 Z-1.000000 I0.712267 J1.318250
G03 X120.036286 Y1.025645 Z-1.000000 I1.274872 J8.813450
G01 X120.036286 Y0.467582 Z-1.000000
G01 X110.349638 Y0.467582 Z-1.000000
G01 X110.349638 Y1.025645 Z-1.000000
G03 X111.637604 Y1.118316 Z-1.000000 I0.000000 J8.996634
G03 X112.122266 Y1.282058 Z-1.000000 I-0.202149 J1.397492
G03 X112.536188 Y1.607650 Z-1.000000 I-0.893467 J1.561756
G03 X112.778277 Y1.975867 Z-1.000000 I-0.915416 J0.865545
G03 X112.896769 Y2.415117 Z-1.000000 I-1.221109 J0.565012
G03 X112.973685 Y4.057322 Z-1.000000 I-17.492485 J1.642205
G01 X112.973685 Y17.330322 Z-1.000000
G03 X112.896769 Y18.972515 Z-1.000000 I-17.569230 J-0.000000
G03 X112.778277 Y19.411771 Z-1.000000 I-1.339638 J-0.125766
G03 X112.532362 Y19.790982 Z-1.000000 I-1.152726 J-0.478190
G03 X112.122266 Y20.105586 Z-1.000000 I-1.185939 J-1.121321
G03 X111.624507 Y20.270268 Z-1.000000 I-0.712266 J-1.318263
G03 X110.349638 Y20.361995 Z-1.000000 I-1.274869 J-8.813522
G01 X110.349638 Y20.920065 Z-1.000000
G01 X119.142992 Y20.920065 Z-1.000000
G02 X122.549339 Y20.746692 Z-1.000000 I0.000000 J-33.549940
G02 X124.167767 Y20.407246 Z-1.000000 I-0.800702 J-7.845551
G02 X125.600499 Y19.676146 Z-1.000000 I-1.547910 J-4.802838
G02 X126.763900 Y18.506794 Z-1.000000 I-3.134622 J-4.282084
G02 X127.500091 Y17.046369 Z-1.000000 I-4.014987 J-2.939696
G02 X127.768856 Y15.279041 Z-1.000000 I-5.676366 J-1.767328
G02 X127.363162 Y13.186977 Z-1.000000 I-5.596982 J-0.000000
G02 X126.261422 Y11.538467 Z-1.000000 I-4.494092 J1.811098
G02 X125.201662 Y10.773253 Z-1.000000 I-3.144539 J3.238487
G02 X123.567585 Y10.135751 Z-1.000000 I-3.753894 J7.209142
G01 X128.117797 Y3.212690 Z-1.000000
G03 X129.048836 Y1.903253 Z-1.000000 I21.625486 J14.390484
G03 X129.387950 Y1.538470 Z-1.000000 I1.988632 J1.508683
G03 X130.003050 Y1.180505 Z-1.000000 I1.430778 J1.751088
G03 X130.713930 Y1.025645 Z-1.000000 I0.852474 J2.204190
G01 X130.713930 Y0.467582 Z-1.000000
G01 X124.753992 Y0.467582 Z-1.000000
G01 X118.654472 Y9.788843 Z-1.000000
G01 X117.412236 Y9.788843 Z-1.000000
G01 X117.412236 Y9.788843 Z-1.000000
G00 Z3.000000

(End cutting path id: path4605)


(Start cutting path id: path4605)
(Change tool to Cylindrical cutter)

G00 Z3.000000
G00 X117.412236 Y19.819009

G01 Z-1.000000 F100.0(Penetrate)
G01 X117.412236 Y10.859734 Z-1.000000 F100.000000
G01 X118.207826 Y10.859734 Z-1.000000
G03 X120.124547 Y10.983687 Z-1.000000 I-0.000000 J14.881395
G03 X121.111029 Y11.236807 Z-1.000000 I-0.538887 J4.149060
G03 X121.949409 Y11.768718 Z-1.000000 I-1.053419 J2.587037
G03 X122.618462 Y12.624441 Z-1.000000 I-2.264250 J2.459731
G03 X123.011488 Y13.677619 Z-1.000000 I-3.346057 J1.848610
G03 X123.176769 Y15.248873 Z-1.000000 I-7.385989 J1.571254
G03 X122.857040 Y17.462740 Z-1.000000 I-7.824481 J-0.000000
G03 X122.157856 Y18.702870 Z-1.000000 I-3.040009 J-0.896788
G03 X120.997531 Y19.470041 Z-1.000000 I-2.060267 J-1.855031
G03 X118.905712 Y19.819009 Z-1.000000 I-2.091819 J-6.095028
G01 X117.412236 Y19.819009 Z-1.000000
G01 X117.412236 Y19.819009 Z-1.000000
G00 Z3.000000

(End cutting path id: path4605)


(Start cutting path id: path4603)
(Change tool to Cylindrical cutter)

G00 Z3.000000
G00 X108.758458 Y20.920065

G01 Z-1.000000 F100.0(Penetrate)
G01 X108.758458 Y15.384622 Z-1.000000 F100.000000
G01 X108.255980 Y15.384622 Z-1.000000
G03 X107.702570 Y17.254400 Z-1.000000 I-16.189257 J-3.774853
G03 X107.264984 Y18.129718 Z-1.000000 I-3.938073 J-1.421667
G03 X106.629965 Y18.875198 Z-1.000000 I-3.101964 J-1.999134
G03 X105.771508 Y19.472101 Z-1.000000 I-2.812296 J-3.128837
G03 X105.218266 Y19.648808 Z-1.000000 I-0.810720 J-1.583823
G03 X103.915133 Y19.743596 Z-1.000000 I-1.303133 J-8.910308
G01 X102.505404 Y19.743596 Z-1.000000
G01 X102.505404 Y3.966823 Z-1.000000
G03 X102.566276 Y2.409676 Z-1.000000 I19.947068 J-0.000000
G03 X102.658940 Y2.006026 Z-1.000000 I1.404570 J0.109982
G03 X102.880903 Y1.659498 Z-1.000000 I1.144901 J0.488995
G03 X103.287037 Y1.312217 Z-1.000000 I1.556211 J1.408817
G03 X103.785713 Y1.112222 Z-1.000000 I0.861800 J1.427142
G03 X104.571147 Y1.025645 Z-1.000000 I0.785435 J3.519488
G01 X105.199244 Y1.025645 Z-1.000000
G01 X105.199244 Y0.467582 Z-1.000000
G01 X95.289270 Y0.467582 Z-1.000000
G01 X95.289270 Y1.025645 Z-1.000000
G01 X95.917366 Y1.025645 Z-1.000000
G03 X96.713776 Y1.119443 Z-1.000000 I-0.000000 J3.427938
G03 X97.243349 Y1.342376 Z-1.000000 I-0.408873 J1.711731
G03 X97.546613 Y1.605403 Z-1.000000 I-0.541697 J0.930907
G03 X97.815616 Y2.066374 Z-1.000000 I-1.493572 J1.180559
G03 X97.907611 Y2.440884 Z-1.000000 I-1.112434 J0.471813
G03 X97.969150 Y3.966823 Z-1.000000 I-18.888202 J1.525940
G01 X97.969150 Y19.743596 Z-1.000000
G01 X96.601295 Y19.743596 Z-1.000000
G03 X94.804405 Y19.467316 Z-1.000000 I-0.000000 J-5.981520
G03 X93.823711 Y18.868784 Z-1.000000 I0.717638 J-2.278547
G03 X92.893694 Y17.505619 Z-1.000000 I3.204513 J-3.185107
G03 X92.288363 Y15.384622 Z-1.000000 I7.386560 J-3.254998
G01 X91.757971 Y15.384622 Z-1.000000
G01 X91.757971 Y20.920065 Z-1.000000
G01 X108.758458 Y20.920065 Z-1.000000
G01 X108.758458 Y20.920065 Z-1.000000
G00 Z3.000000

(End cutting path id: path4603)


(Start cutting path id: path4601)
(Change tool to Cylindrical cutter)

G00 Z3.000000
G00 X77.186126 Y20.920065

G01 Z-1.000000 F100.0(Penetrate)
G01 X86.523830 Y8.235299 Z-1.000000 F100.000000
G01 X86.523830 Y17.028662 Z-1.000000
G03 X86.350568 Y18.810831 Z-1.000000 I-9.252291 J-0.000000
G03 X86.035313 Y19.517352 Z-1.000000 I-1.694967 J-0.332714
G03 X85.231282 Y20.113966 Z-1.000000 I-1.443919 J-1.105820
G03 X83.788121 Y20.361995 Z-1.000000 I-1.368762 J-3.641617
G01 X83.788121 Y20.920065 Z-1.000000
G01 X90.041172 Y20.920065 Z-1.000000
G01 X90.041172 Y20.361995 Z-1.000000
G03 X88.867856 Y20.123417 Z-1.000000 I1.296687 J-9.381488
G03 X88.422080 Y19.924589 Z-1.000000 I0.410490 J-1.519461
G03 X88.084892 Y19.612351 Z-1.000000 I0.678108 J-1.070477
G03 X87.780023 Y19.064863 Z-1.000000 I1.887859 J-1.409881
G03 X87.635081 Y18.462248 Z-1.000000 I2.291028 J-0.869783
G03 X87.556701 Y17.028662 Z-1.000000 I13.071073 J-1.433586
G01 X87.556701 Y-0.000004 Z-1.000000
G01 X87.082140 Y-0.000004 Z-1.000000
G01 X74.282921 Y17.028662 Z-1.000000
G01 X74.282921 Y4.027154 Z-1.000000
G03 X74.532810 Y2.379248 Z-1.000000 I5.558544 J-0.000000
G03 X75.022679 Y1.644057 Z-1.000000 I1.491443 J0.462972
G03 X75.833020 Y1.183926 Z-1.000000 I1.739981 J2.120685
G03 X76.739478 Y1.025645 Z-1.000000 I0.906458 J2.516457
G01 X77.186126 Y1.025645 Z-1.000000
G01 X77.186126 Y0.467582 Z-1.000000
G01 X70.472467 Y0.467582 Z-1.000000
G01 X70.472467 Y1.025645 Z-1.000000
G03 X71.936876 Y1.260499 Z-1.000000 I-0.047667 J4.980244
G03 X72.649869 Y1.719455 Z-1.000000 I-0.494252 J1.551126
G03 X73.061180 Y2.476327 Z-1.000000 I-1.356380 J1.227301
G03 X73.264008 Y4.027154 Z-1.000000 I-5.827409 J1.550826
G01 X73.264008 Y18.461543 Z-1.000000
G01 X72.859234 Y19.004530 Z-1.000000
G03 X72.209941 Y19.763219 Z-1.000000 I-5.526176 J-4.072170
G03 X71.798449 Y20.075421 Z-1.000000 I-1.304794 J-1.292481
G03 X71.316987 Y20.256867 Z-1.000000 I-0.851104 J-1.528888
G03 X70.472467 Y20.361995 Z-1.000000 I-1.011292 J-4.679257
G01 X70.472467 Y20.920065 Z-1.000000
G01 X77.186126 Y20.920065 Z-1.000000
G01 X77.186126 Y20.920065 Z-1.000000
G00 Z3.000000

(End cutting path id: path4601)


(Start cutting path id: path4599)
(Change tool to Cylindrical cutter)

G00 Z3.000000
G00 X58.761953 Y19.743596

G01 Z-1.000000 F100.0(Penetrate)
G01 X58.761953 Y11.417804 Z-1.000000 F100.000000
G01 X59.138809 Y11.417804 Z-1.000000
G03 X60.747221 Y11.775604 Z-1.000000 I-0.000000 J3.794026
G03 X61.748902 Y12.639523 Z-1.000000 I-1.036561 J2.214518
G03 X62.346806 Y13.935946 Z-1.000000 I-3.902487 J2.585894
G03 X62.781772 Y16.244348 Z-1.000000 I-12.183679 J3.490921
G01 X63.312165 Y16.244348 Z-1.000000
G01 X63.312165 Y5.535451 Z-1.000000
G01 X62.781772 Y5.535451 Z-1.000000
G03 X62.488484 Y7.249635 Z-1.000000 I-11.705634 J-1.120594
G03 X62.069929 Y8.401213 Z-1.000000 I-5.665026 J-1.407169
G03 X61.425972 Y9.408624 Z-1.000000 I-4.325907 J-2.055684
G03 X60.827693 Y9.894424 Z-1.000000 I-1.529738 J-1.272623
G03 X60.083860 Y10.162218 Z-1.000000 I-1.212488 J-2.200901
G03 X58.761953 Y10.286582 Z-1.000000 I-1.321907 J-6.963305
G01 X58.761953 Y4.524893 Z-1.000000
G03 X58.813002 Y2.843891 Z-1.000000 I27.702621 J-0.000000
G03 X58.887572 Y2.458532 Z-1.000000 I1.506181 J0.091564
G03 X59.079197 Y2.122625 Z-1.000000 I1.111285 J0.411344
G03 X59.390049 Y1.840121 Z-1.000000 I1.084973 J0.881574
G03 X59.777118 Y1.678780 Z-1.000000 I0.608678 J0.915287
G03 X60.562496 Y1.598788 Z-1.000000 I0.785378 J3.815536
G01 X61.693070 Y1.598788 Z-1.000000
G03 X64.205953 Y1.982646 Z-1.000000 I-0.000000 J8.417097
G03 X65.936212 Y2.926089 Z-1.000000 I-1.510345 J4.828303
G03 X67.222013 Y4.456166 Z-1.000000 I-3.537720 J4.278224
G03 X68.239236 Y6.968332 Z-1.000000 I-8.870436 J5.053833
G01 X68.755671 Y6.968332 Z-1.000000
G01 X67.904249 Y0.467582 Z-1.000000
G01 X51.545816 Y0.467582 Z-1.000000
G01 X51.545816 Y1.025645 Z-1.000000
G01 X52.173915 Y1.025645 Z-1.000000
G03 X52.970324 Y1.119443 Z-1.000000 I-0.000000 J3.427931
G03 X53.499895 Y1.342376 Z-1.000000 I-0.408869 J1.711713
G03 X53.800600 Y1.606356 Z-1.000000 I-0.523425 J0.899506
G03 X54.058205 Y2.066374 Z-1.000000 I-1.430837 J1.103387
G03 X54.150200 Y2.440884 Z-1.000000 I-1.112434 J0.471813
G03 X54.211738 Y3.966823 Z-1.000000 I-18.888202 J1.525940
G01 X54.211738 Y17.420820 Z-1.000000
G03 X54.183404 Y18.805366 Z-1.000000 I-33.842562 J-0.000000
G03 X54.141951 Y19.125193 Z-1.000000 I-1.833866 J-0.075089
G03 X53.931956 Y19.605994 Z-1.000000 I-1.660826 J-0.439125
G03 X53.625516 Y19.939672 Z-1.000000 I-1.081779 J-0.685922
G03 X53.051417 Y20.236939 Z-1.000000 I-1.040921 J-1.307284
G03 X52.173915 Y20.361995 Z-1.000000 I-0.877502 J-3.016134
G01 X51.545816 Y20.361995 Z-1.000000
G01 X51.545816 Y20.920065 Z-1.000000
G01 X67.387814 Y20.920065 Z-1.000000
G01 X67.387814 Y14.871800 Z-1.000000
G01 X66.857421 Y14.871800 Z-1.000000
G03 X66.281163 Y17.012985 Z-1.000000 I-13.262609 J-2.421238
G03 X65.712889 Y18.054305 Z-1.000000 I-3.631119 J-1.305868
G03 X64.871672 Y18.859937 Z-1.000000 I-2.880764 J-2.166005
G03 X63.647149 Y19.472101 Z-1.000000 I-2.817535 J-4.105173
G03 X62.848885 Y19.645029 Z-1.000000 I-1.110384 J-3.196792
G03 X60.716032 Y19.743596 Z-1.000000 I-2.132854 J-23.026749
G01 X58.761953 Y19.743596 Z-1.000000
G01 X58.761953 Y19.743596 Z-1.000000
G00 Z3.000000

(End cutting path id: path4599)


(Start cutting path id: path4597)
(Change tool to Cylindrical cutter)

G00 Z3.000000
G00 X49.396331 Y21.387639

G01 Z-1.000000 F100.0(Penetrate)
G01 X49.396331 Y14.298649 Z-1.000000 F100.000000
G01 X48.851979 Y14.298649 Z-1.000000
G03 X47.895752 Y16.872209 Z-1.000000 I-9.745474 J-2.156580
G03 X46.562915 Y18.552041 Z-1.000000 I-5.361866 J-2.885614
G03 X44.747311 Y19.658151 Z-1.000000 I-4.019617 J-4.554781
G03 X42.766419 Y20.030170 Z-1.000000 I-1.980892 J-5.087818
G03 X41.085496 Y19.753339 Z-1.000000 I0.000000 J-5.241705
G03 X39.514275 Y18.929114 Z-1.000000 I1.823374 J-5.385625
G03 X38.246844 Y17.667183 Z-1.000000 I3.734666 J-5.018385
G03 X37.350830 Y16.048269 Z-1.000000 I5.353730 J-4.020521
G03 X36.707983 Y13.726676 Z-1.000000 I11.445678 J-4.419098
G03 X36.471493 Y10.980398 Z-1.000000 I15.827594 J-2.746278
G03 X36.645217 Y8.259472 Z-1.000000 I21.394915 J0.000000
G03 X37.113547 Y5.972856 Z-1.000000 I15.552569 J1.994110
G03 X38.008416 Y3.888458 Z-1.000000 I8.593908 J2.455226
G03 X39.123458 Y2.564119 Z-1.000000 I4.484597 J2.644275
G03 X40.609364 Y1.742462 Z-1.000000 I2.851929 J3.403098
G03 X42.668715 Y1.417804 Z-1.000000 I2.059350 J6.369037
G03 X44.396966 Y1.637656 Z-1.000000 I-0.000000 J6.902797
G03 X45.934819 Y2.262439 Z-1.000000 I-1.568907 J6.066780
G03 X47.298613 Y3.259117 Z-1.000000 I-3.580388 J6.330591
G03 X49.075304 Y5.173460 Z-1.000000 I-11.819969 J12.751688
G01 X49.075304 Y3.408754 Z-1.000000
G02 X47.354338 Y1.787219 Z-1.000000 I-9.862143 J8.742865
G02 X45.753368 Y0.799392 Z-1.000000 I-5.152981 J6.560177
G02 X43.987435 Y0.221931 Z-1.000000 I-3.282795 J7.050184
G02 X41.733549 Y-0.000004 Z-1.000000 I-2.253886 J11.333825
G02 X38.796191 Y0.352554 Z-1.000000 I-0.000000 J12.412669
G02 X36.345874 Y1.312217 Z-1.000000 I2.324080 J9.542135
G02 X34.286506 Y2.901842 Z-1.000000 I4.331516 J7.740277
G02 X32.716871 Y5.082962 Z-1.000000 I6.818770 J6.562454
G02 X31.769279 Y7.619884 Z-1.000000 I10.099990 J5.217987
G02 X31.446718 Y10.316748 Z-1.000000 I11.112681 J2.696864
G02 X31.801345 Y13.153624 Z-1.000000 I11.524261 J-0.000000
G02 X32.856447 Y15.867276 Z-1.000000 I11.584413 J-2.942222
G02 X34.559361 Y18.224952 Z-1.000000 I9.976236 J-5.411849
G02 X36.680859 Y19.939672 Z-1.000000 I7.278067 J-6.834876
G02 X39.195617 Y21.026160 Z-1.000000 I5.338292 J-8.902341
G02 X41.803338 Y21.387639 Z-1.000000 I2.607720 J-9.225346
G02 X43.756043 Y21.173637 Z-1.000000 I-0.000000 J-9.015948
G02 X46.018566 Y20.452494 Z-1.000000 I-2.853546 J-12.862545
G03 X47.313762 Y19.964203 Z-1.000000 I6.821314 J16.131706
G03 X47.651618 Y19.909507 Z-1.000000 I0.337855 J1.016112
G03 X48.059821 Y19.997458 Z-1.000000 I-0.000000 J0.991265
G03 X48.419290 Y20.256414 Z-1.000000 I-0.459499 J1.016827
G03 X48.668961 Y20.658209 Z-1.000000 I-0.915992 J0.847656
G03 X48.851979 Y21.387639 Z-1.000000 I-2.946075 J1.126861
G01 X49.396331 Y21.387639 Z-1.000000
G01 X49.396331 Y21.387639 Z-1.000000
G00 Z3.000000

(End cutting path id: path4597)


(Start cutting path id: path4595)
(Change tool to Cylindrical cutter)

G00 Z3.000000
G00 X180.933755 Y39.079946

G01 Z-1.000000 F100.0(Penetrate)
G01 X180.933755 Y39.638015 Z-1.000000 F100.000000
G01 X181.561852 Y39.638015 Z-1.000000
G03 X182.360797 Y39.723365 Z-1.000000 I-0.000000 J3.782070
G03 X182.818045 Y39.909507 Z-1.000000 I-0.301616 J1.395575
G03 X183.204784 Y40.247040 Z-1.000000 I-0.945600 J1.473776
G03 X183.474059 Y40.678738 Z-1.000000 I-1.308961 J1.116305
G03 X183.547721 Y41.005407 Z-1.000000 I-1.003152 J0.397846
G03 X183.599678 Y42.579190 Z-1.000000 I-23.809334 J1.573783
G01 X183.599678 Y56.033187 Z-1.000000
G03 X183.538807 Y57.590323 Z-1.000000 I-19.947154 J0.000000
G03 X183.446144 Y57.993972 Z-1.000000 I-1.404591 J-0.109982
G03 X183.232227 Y58.335233 Z-1.000000 I-1.009999 J-0.395434
G03 X182.818045 Y58.672705 Z-1.000000 I-1.400752 J-1.296256
G03 X182.330303 Y58.883391 Z-1.000000 I-0.850003 J-1.297866
G03 X181.561852 Y58.974365 Z-1.000000 I-0.768451 J-3.200035
G01 X180.933755 Y58.974365 Z-1.000000
G01 X180.933755 Y59.532434 Z-1.000000
G01 X189.406085 Y59.532434 Z-1.000000
G02 X192.729156 Y59.231840 Z-1.000000 I-0.000000 J-18.518560
G02 X194.863549 Y58.536959 Z-1.000000 I-1.503911 J-8.244845
G02 X197.077130 Y56.992037 Z-1.000000 I-3.713552 J-7.679101
G02 X198.687960 Y54.841632 Z-1.000000 I-5.872055 J-6.077177
G02 X199.648960 Y52.280697 Z-1.000000 I-9.414840 J-4.993728
G02 X199.999985 Y49.245857 Z-1.000000 I-12.943566 J-3.034840
G02 X199.829543 Y47.118102 Z-1.000000 I-13.366333 J0.000000
G02 X199.357929 Y45.263956 Z-1.000000 I-10.600634 J1.709286
G02 X198.578541 Y43.533397 Z-1.000000 I-10.883147 J3.860633
G02 X197.696962 Y42.262448 Z-1.000000 I-6.710517 J3.713448
G02 X196.590695 Y41.194843 Z-1.000000 I-6.506323 J5.634978
G02 X195.338109 Y40.361995 Z-1.000000 I-5.169310 J6.416178
G02 X193.970159 Y39.769547 Z-1.000000 I-4.277157 J8.000357
G02 X192.085965 Y39.260939 Z-1.000000 I-4.986218 J14.727586
G02 X191.228083 Y39.141403 Z-1.000000 I-1.269188 J5.970457
G02 X189.406085 Y39.079946 Z-1.000000 I-1.821998 J26.977381
G01 X180.933755 Y39.079946 Z-1.000000
G01 X180.933755 Y39.079946 Z-1.000000
G00 Z3.000000

(End cutting path id: path4595)


(Start cutting path id: path4595)
(Change tool to Cylindrical cutter)

G00 Z3.000000
G00 X188.149890 Y58.371045

G01 Z-1.000000 F100.0(Penetrate)
G01 X188.149890 Y42.413279 Z-1.000000 F100.000000
G03 X188.195058 Y41.154798 Z-1.000000 I17.554406 J0.000000
G03 X188.261551 Y40.859734 Z-1.000000 I1.010087 J0.072600
G03 X188.413127 Y40.607646 Z-1.000000 I0.810872 J0.315947
G03 X188.638410 Y40.422329 Z-1.000000 I0.648411 J0.558656
G03 X189.034988 Y40.267240 Z-1.000000 I0.655822 J1.092415
G03 X189.727112 Y40.196084 Z-1.000000 I0.692125 J3.330550
G03 X191.812423 Y40.673400 Z-1.000000 I-0.000000 J4.793838
G03 X193.286326 Y41.915540 Z-1.000000 I-1.692954 J3.504357
G03 X194.421057 Y44.412768 Z-1.000000 I-5.648542 J4.073099
G03 X194.961253 Y49.125193 Z-1.000000 I-20.284442 J4.712426
G03 X194.613222 Y52.981688 Z-1.000000 I-21.540740 J0.000000
G03 X193.816719 Y55.414787 Z-1.000000 I-9.264259 J-1.685842
G03 X192.697098 Y57.037840 Z-1.000000 I-6.086297 J-3.000776
G03 X191.485783 Y57.918556 Z-1.000000 I-2.865330 J-2.667538
G03 X190.445405 Y58.223529 Z-1.000000 I-1.526892 J-3.281766
G03 X188.149890 Y58.371045 Z-1.000000 I-2.190086 J-16.146035
G01 X188.149890 Y58.371045 Z-1.000000
G00 Z3.000000

(End cutting path id: path4595)


(Start cutting path id: path4593)
(Change tool to Cylindrical cutter)

G00 Z3.000000
G00 X171.791457 Y44.901966

G01 Z-1.000000 F100.0(Penetrate)
G01 X165.105718 Y44.901966 Z-1.000000 F100.000000
G01 X164.310127 Y42.911015 Z-1.000000
G03 X163.993689 Y41.901463 Z-1.000000 I7.004148 J-2.749778
G03 X163.919311 Y41.266972 Z-1.000000 I2.669104 J-0.634490
G03 X164.100863 Y40.507084 Z-1.000000 I1.681043 J0.000000
G03 X164.561365 Y40.000005 Z-1.000000 I1.152616 J0.584105
G03 X164.965078 Y39.838253 Z-1.000000 I0.625827 J0.977299
G03 X166.417740 Y39.638015 Z-1.000000 I2.525080 J12.949230
G01 X166.417740 Y39.079946 Z-1.000000
G01 X160.122814 Y39.079946 Z-1.000000
G01 X160.122814 Y39.638015 Z-1.000000
G03 X161.057717 Y39.956565 Z-1.000000 I-0.477531 J2.932671
G03 X161.797739 Y40.542992 Z-1.000000 I-1.290827 J2.389053
G03 X162.354574 Y41.358404 Z-1.000000 I-3.197231 J2.781187
G03 X163.416833 Y43.634998 Z-1.000000 I-24.301386 J12.725150
G01 X170.186322 Y59.954755 Z-1.000000
G01 X170.451517 Y59.954755 Z-1.000000
G01 X177.276837 Y43.182510 Z-1.000000
G03 X178.364146 Y40.873414 Z-1.000000 I23.163169 J9.496545
G03 X178.881972 Y40.181002 Z-1.000000 I2.533471 J1.354840
G03 X179.411654 Y39.832838 Z-1.000000 I1.139387 J1.156418
G03 X180.221912 Y39.638015 Z-1.000000 I1.053868 J2.600652
G01 X180.221912 Y39.079946 Z-1.000000
G01 X171.065656 Y39.079946 Z-1.000000
G01 X171.065656 Y39.638015 Z-1.000000
G01 X171.442515 Y39.638015 Z-1.000000
G03 X172.507857 Y39.750821 Z-1.000000 I-0.000000 J5.086933
G03 X172.991820 Y39.969840 Z-1.000000 I-0.261945 J1.223032
G03 X173.212145 Y40.253322 Z-1.000000 I-0.459116 J0.584189
G03 X173.298890 Y40.663655 Z-1.000000 I-0.927137 J0.410334
G03 X173.278847 Y40.932279 Z-1.000000 I-1.810088 J0.000000
G03 X173.215143 Y41.221725 Z-1.000000 I-2.166924 J-0.325180
G03 X173.177160 Y41.354483 Z-1.000000 I-0.892407 J-0.183514
G03 X172.796412 Y42.352946 Z-1.000000 I-51.168958 J-18.940620
G01 X171.791457 Y44.901966 Z-1.000000
G01 X171.791457 Y44.901966 Z-1.000000
G00 Z3.000000

(End cutting path id: path4593)


(Start cutting path id: path4593)
(Change tool to Cylindrical cutter)

G00 Z3.000000
G00 X171.316896 Y46.018104

G01 Z-1.000000 F100.0(Penetrate)
G01 X168.497438 Y53.061844 Z-1.000000 F100.000000
G01 X165.594235 Y46.018104 Z-1.000000
G01 X171.316896 Y46.018104 Z-1.000000
G01 X171.316896 Y46.018104 Z-1.000000
G00 Z3.000000

(End cutting path id: path4593)


(Start cutting path id: path4591)
(Change tool to Cylindrical cutter)

G00 Z3.000000
G00 X139.618943 Y39.079946

G01 Z-1.000000 F100.0(Penetrate)
G01 X139.618943 Y39.638015 Z-1.000000 F100.000000
G01 X140.247040 Y39.638015 Z-1.000000
G03 X141.045985 Y39.723365 Z-1.000000 I-0.000000 J3.782070
G03 X141.503233 Y39.909507 Z-1.000000 I-0.301616 J1.395575
G03 X141.889972 Y40.247040 Z-1.000000 I-0.945600 J1.473776
G03 X142.159247 Y40.678738 Z-1.000000 I-1.308961 J1.116305
G03 X142.232909 Y41.005407 Z-1.000000 I-1.003152 J0.397846
G03 X142.284866 Y42.579190 Z-1.000000 I-23.809334 J1.573783
G01 X142.284866 Y56.033187 Z-1.000000
G03 X142.223994 Y57.590323 Z-1.000000 I-19.946799 J0.000000
G03 X142.131329 Y57.993972 Z-1.000000 I-1.404572 J-0.109983
G03 X141.917415 Y58.335233 Z-1.000000 I-1.009988 J-0.395422
G03 X141.503233 Y58.672705 Z-1.000000 I-1.400743 J-1.296242
G03 X141.015490 Y58.883391 Z-1.000000 I-0.850003 J-1.297866
G03 X140.247040 Y58.974365 Z-1.000000 I-0.768451 J-3.200035
G01 X139.618943 Y58.974365 Z-1.000000
G01 X139.618943 Y59.532434 Z-1.000000
G01 X148.091271 Y59.532434 Z-1.000000
G02 X151.414343 Y59.231839 Z-1.000000 I-0.000000 J-18.518575
G02 X153.548734 Y58.536959 Z-1.000000 I-1.503906 J-8.244820
G02 X155.762318 Y56.992037 Z-1.000000 I-3.713551 J-7.679107
G02 X157.373148 Y54.841632 Z-1.000000 I-5.872046 J-6.077172
G02 X158.334146 Y52.280697 Z-1.000000 I-9.414855 J-4.993726
G02 X158.685171 Y49.245857 Z-1.000000 I-12.943595 J-3.034840
G02 X158.514728 Y47.118102 Z-1.000000 I-13.366389 J0.000000
G02 X158.043117 Y45.263956 Z-1.000000 I-10.600670 J1.709284
G02 X157.263729 Y43.533397 Z-1.000000 I-10.883147 J3.860633
G02 X156.382150 Y42.262448 Z-1.000000 I-6.710517 J3.713448
G02 X155.275883 Y41.194843 Z-1.000000 I-6.506323 J5.634978
G02 X154.023297 Y40.361995 Z-1.000000 I-5.169310 J6.416178
G02 X152.655347 Y39.769547 Z-1.000000 I-4.277151 J8.000344
G02 X150.771150 Y39.260939 Z-1.000000 I-4.986220 J14.727605
G02 X149.913271 Y39.141403 Z-1.000000 I-1.269182 J5.970410
G02 X148.091271 Y39.079946 Z-1.000000 I-1.822000 J26.977421
G01 X139.618943 Y39.079946 Z-1.000000
G01 X139.618943 Y39.079946 Z-1.000000
G00 Z3.000000

(End cutting path id: path4591)


(Start cutting path id: path4591)
(Change tool to Cylindrical cutter)

G00 Z3.000000
G00 X146.835078 Y58.371045

G01 Z-1.000000 F100.0(Penetrate)
G01 X146.835078 Y42.413279 Z-1.000000 F100.000000
G03 X146.880246 Y41.154798 Z-1.000000 I17.554406 J-0.000000
G03 X146.946739 Y40.859734 Z-1.000000 I1.010087 J0.072600
G03 X147.098314 Y40.607646 Z-1.000000 I0.810872 J0.315947
G03 X147.323598 Y40.422329 Z-1.000000 I0.648411 J0.558656
G03 X147.720173 Y40.267240 Z-1.000000 I0.655817 J1.092398
G03 X148.412298 Y40.196084 Z-1.000000 I0.692125 J3.330541
G03 X150.497611 Y40.673401 Z-1.000000 I-0.000000 J4.793847
G03 X151.971514 Y41.915540 Z-1.000000 I-1.692952 J3.504355
G03 X153.106243 Y44.412767 Z-1.000000 I-5.648549 J4.073097
G03 X153.646438 Y49.125193 Z-1.000000 I-20.284477 J4.712426
G03 X153.298408 Y52.981688 Z-1.000000 I-21.540792 J-0.000000
G03 X152.501906 Y55.414787 Z-1.000000 I-9.264274 J-1.685841
G03 X151.382284 Y57.037841 Z-1.000000 I-6.086323 J-3.000798
G03 X150.170971 Y57.918556 Z-1.000000 I-2.865331 J-2.667539
G03 X149.130593 Y58.223529 Z-1.000000 I-1.526892 J-3.281766
G03 X146.835078 Y58.371045 Z-1.000000 I-2.190086 J-16.146035
G01 X146.835078 Y58.371045 Z-1.000000
G00 Z3.000000

(End cutting path id: path4591)


(Start cutting path id: path4589)
(Change tool to Cylindrical cutter)

G00 Z3.000000
G00 X138.600041 Y39.638015

G01 Z-1.000000 F100.0(Penetrate)
G01 X138.600041 Y39.079946 Z-1.000000 F100.000000
G01 X128.704027 Y39.079946 Z-1.000000
G01 X128.704027 Y39.638015 Z-1.000000
G01 X129.332124 Y39.638015 Z-1.000000
G03 X130.128531 Y39.731816 Z-1.000000 I-0.000000 J3.427811
G03 X130.658106 Y39.954757 Z-1.000000 I-0.408880 J1.711699
G03 X130.958808 Y40.218724 Z-1.000000 I-0.523363 J0.899455
G03 X131.216413 Y40.678738 Z-1.000000 I-1.430779 J1.103364
G03 X131.308410 Y41.053240 Z-1.000000 I-1.112358 J0.471801
G03 X131.369950 Y42.579190 Z-1.000000 I-18.888033 J1.525951
G01 X131.369950 Y56.033187 Z-1.000000
G03 X131.309078 Y57.590323 Z-1.000000 I-19.946799 J0.000000
G03 X131.216413 Y57.993972 Z-1.000000 I-1.404572 J-0.109983
G03 X131.002499 Y58.335233 Z-1.000000 I-1.009988 J-0.395422
G03 X130.588317 Y58.672705 Z-1.000000 I-1.400743 J-1.296242
G03 X130.100574 Y58.883391 Z-1.000000 I-0.850003 J-1.297866
G03 X129.332124 Y58.974365 Z-1.000000 I-0.768451 J-3.200035
G01 X128.704027 Y58.974365 Z-1.000000
G01 X128.704027 Y59.532434 Z-1.000000
G01 X138.600041 Y59.532434 Z-1.000000
G01 X138.600041 Y58.974365 Z-1.000000
G01 X137.971945 Y58.974365 Z-1.000000
G03 X137.175537 Y58.880564 Z-1.000000 I0.000000 J-3.427811
G03 X136.645962 Y58.657622 Z-1.000000 I0.408880 J-1.711699
G03 X136.342698 Y58.394605 Z-1.000000 I0.541645 J-0.930869
G03 X136.073695 Y57.933639 Z-1.000000 I1.493508 J-1.180532
G03 X135.981700 Y57.559138 Z-1.000000 I1.112376 J-0.471800
G03 X135.920162 Y56.033187 Z-1.000000 I18.888372 J-1.525951
G01 X135.920162 Y42.579190 Z-1.000000
G03 X135.981032 Y41.022054 Z-1.000000 I19.947124 J0.000000
G03 X136.073695 Y40.618408 Z-1.000000 I1.404570 J0.109981
G03 X136.295657 Y40.271878 Z-1.000000 I1.144924 J0.489005
G03 X136.701792 Y39.924589 Z-1.000000 I1.556278 J1.408860
G03 X137.200298 Y39.723985 Z-1.000000 I0.868121 J1.437595
G03 X137.971945 Y39.638015 Z-1.000000 I0.771646 J3.420085
G01 X138.600041 Y39.638015 Z-1.000000
G01 X138.600041 Y39.638015 Z-1.000000
G00 Z3.000000

(End cutting path id: path4589)


(Start cutting path id: path4587)
(Change tool to Cylindrical cutter)

G00 Z3.000000
G00 X125.647289 Y60.000005

G01 Z-1.000000 F100.0(Penetrate)
G01 X125.800822 Y53.182510 Z-1.000000 F100.000000
G01 X125.228558 Y53.182510 Z-1.000000
G03 X124.479970 Y55.568942 Z-1.000000 I-8.410980 J-1.327772
G03 X123.232604 Y57.300157 Z-1.000000 I-5.577076 J-2.703385
G03 X121.503070 Y58.499641 Z-1.000000 I-4.231354 J-4.254534
G03 X119.812966 Y58.868784 Z-1.000000 I-1.690104 J-3.684459
G03 X118.486252 Y58.633094 Z-1.000000 I0.000000 J-3.851923
G03 X117.551817 Y58.039220 Z-1.000000 I0.895710 J-2.441443
G03 X116.934047 Y57.138858 Z-1.000000 I2.037620 J-2.060201
G03 X116.728313 Y56.153850 Z-1.000000 I2.255123 J-0.985008
G03 X116.807125 Y55.495530 Z-1.000000 I2.788880 J-0.000000
G03 X117.021425 Y54.947213 Z-1.000000 I2.136596 J0.519015
G03 X117.496530 Y54.299335 Z-1.000000 I3.068611 J1.752147
G03 X118.319493 Y53.544500 Z-1.000000 I5.010623 J4.636821
G03 X119.002480 Y53.088870 Z-1.000000 I4.086518 J5.385957
G03 X121.348314 Y51.779794 Z-1.000000 I36.438310 J62.540228
G02 X124.482554 Y49.797379 Z-1.000000 I-11.508864 J-21.664615
G02 X125.828739 Y48.446461 Z-1.000000 I-3.872475 J-5.205100
G02 X126.674044 Y46.780274 Z-1.000000 I-4.711962 J-3.438032
G02 X126.973271 Y44.856718 Z-1.000000 I-6.033097 J-1.923556
G02 X126.496417 Y42.490223 Z-1.000000 I-6.110558 J-0.000000
G02 X125.116896 Y40.437411 Z-1.000000 I-5.913497 J2.484025
G02 X123.067755 Y39.096804 Z-1.000000 I-4.241426 J4.246718
G02 X120.427105 Y38.597289 Z-1.000000 I-2.640650 J6.730040
G02 X119.540045 Y38.648611 Z-1.000000 I0.000000 J7.691807
G02 X118.738224 Y38.793368 Z-1.000000 I0.745899 J6.424623
G02 X117.957776 Y39.033195 Z-1.000000 I1.730137 J7.020021
G02 X116.742270 Y39.532434 Z-1.000000 I6.503021 J17.562345
G03 X116.060171 Y39.777602 Z-1.000000 I-1.909176 J-4.240206
G03 X115.639613 Y39.834091 Z-1.000000 I-0.420558 J-1.537278
G03 X115.298162 Y39.769412 Z-1.000000 I-0.000000 J-0.933626
G03 X114.871938 Y39.532434 Z-1.000000 I0.672387 J-1.711131
G03 X114.529429 Y39.182637 Z-1.000000 I0.944648 J-1.267549
G03 X114.215927 Y38.612372 Z-1.000000 I2.274353 J-1.621630
G01 X113.699491 Y38.612372 Z-1.000000
G01 X113.699491 Y46.334847 Z-1.000000
G01 X114.215927 Y46.334847 Z-1.000000
G03 X115.209722 Y43.279192 Z-1.000000 I12.356440 J2.329271
G03 X116.574779 Y41.357471 Z-1.000000 I6.115003 J2.897991
G03 X118.495509 Y40.053184 Z-1.000000 I4.688163 J4.837519
G03 X120.357319 Y39.653098 Z-1.000000 I1.861810 J4.131941
G03 X121.812643 Y39.913913 Z-1.000000 I0.000000 J4.190684
G03 X122.841790 Y40.573157 Z-1.000000 I-0.994460 J2.685379
G03 X123.542386 Y41.591500 Z-1.000000 I-2.284012 J2.321513
G03 X123.776956 Y42.714936 Z-1.000000 I-2.572968 J1.123436
G03 X123.687668 Y43.416548 Z-1.000000 I-2.801213 J0.000000
G03 X123.414055 Y44.117652 Z-1.000000 I-3.070710 J-0.794434
G03 X122.998668 Y44.743083 Z-1.000000 I-3.003322 J-1.544030
G03 X122.339312 Y45.399705 Z-1.000000 I-3.975273 J-3.332464
G03 X121.573612 Y45.959449 Z-1.000000 I-4.136440 J-4.854840
G03 X119.771094 Y46.998497 Z-1.000000 I-16.219118 J-26.053563
G02 X117.249448 Y48.459971 Z-1.000000 I18.642778 J35.072673
G02 X116.058344 Y49.336355 Z-1.000000 I5.448387 J8.652577
G02 X115.035344 Y50.386890 Z-1.000000 I5.183838 J6.071328
G02 X114.313631 Y51.493217 Z-1.000000 I5.036788 J4.074324
G02 X113.870978 Y52.722204 Z-1.000000 I4.837038 J2.436399
G02 X113.713449 Y54.117652 Z-1.000000 I6.101922 J1.395448
G02 X114.149088 Y56.385043 Z-1.000000 I6.118419 J0.000000
G02 X115.374416 Y58.280547 Z-1.000000 I5.430689 J-2.166808
G02 X117.230594 Y59.540018 Z-1.000000 I3.933748 J-3.799931
G02 X119.561729 Y60.000005 Z-1.000000 I2.331135 J-5.676897
G02 X120.474540 Y59.938634 Z-1.000000 I0.000000 J-6.819080
G02 X121.348314 Y59.758678 Z-1.000000 I-0.867959 J-6.425657
G02 X121.987451 Y59.535322 Z-1.000000 I-1.344964 J-4.874761
G02 X122.939494 Y59.079946 Z-1.000000 I-4.820860 J-11.301735
G03 X123.903899 Y58.661050 Z-1.000000 I3.929762 J7.727709
G03 X124.265477 Y58.597289 Z-1.000000 I0.361578 J0.993349
G03 X124.597716 Y58.664478 Z-1.000000 I-0.000000 J0.855037
G03 X124.837741 Y58.838616 Z-1.000000 I-0.254278 J0.602976
G03 X124.991373 Y59.107189 Z-1.000000 I-0.603100 J0.523219
G03 X125.228558 Y60.000005 Z-1.000000 I-6.745529 J2.269922
G01 X125.647289 Y60.000005 Z-1.000000
G01 X125.647289 Y60.000005 Z-1.000000
G00 Z3.000000

(End cutting path id: path4587)


(Start cutting path id: path4585)
(Change tool to Cylindrical cutter)

G00 Z3.000000
G00 X99.155561 Y48.401213

G01 Z-1.000000 F100.0(Penetrate)
G01 X99.155561 Y42.669688 Z-1.000000 F100.000000
G03 X99.226612 Y41.024715 Z-1.000000 I19.077793 J-0.000000
G03 X99.337010 Y40.573157 Z-1.000000 I1.515026 J0.131121
G03 X99.591357 Y40.206227 Z-1.000000 I1.178493 J0.545286
G03 X100.006981 Y39.894424 Z-1.000000 I1.251623 J1.235466
G03 X100.504737 Y39.729742 Z-1.000000 I0.712261 J1.318247
G03 X101.779609 Y39.638015 Z-1.000000 I1.274872 J8.813539
G01 X101.779609 Y39.079946 Z-1.000000
G01 X92.092961 Y39.079946 Z-1.000000
G01 X92.092961 Y39.638015 Z-1.000000
G03 X93.380930 Y39.730685 Z-1.000000 I-0.000000 J8.996756
G03 X93.865589 Y39.894424 Z-1.000000 I-0.202145 J1.397486
G03 X94.279512 Y40.220018 Z-1.000000 I-0.893452 J1.561739
G03 X94.521603 Y40.588240 Z-1.000000 I-0.915420 J0.865545
G03 X94.640093 Y41.027495 Z-1.000000 I-1.221161 J0.565021
G03 X94.717008 Y42.669688 Z-1.000000 I-17.492561 J1.642194
G01 X94.717008 Y55.942689 Z-1.000000
G03 X94.640093 Y57.584882 Z-1.000000 I-17.569476 J-0.000000
G03 X94.521603 Y58.024137 Z-1.000000 I-1.339651 J-0.125766
G03 X94.275687 Y58.403348 Z-1.000000 I-1.152719 J-0.478187
G03 X93.865589 Y58.717953 Z-1.000000 I-1.185941 J-1.121327
G03 X93.367832 Y58.882637 Z-1.000000 I-0.712262 J-1.318234
G03 X92.092961 Y58.974365 Z-1.000000 I-1.274871 J-8.813435
G01 X92.092961 Y59.532434 Z-1.000000
G01 X100.886315 Y59.532434 Z-1.000000
G02 X104.292664 Y59.359061 Z-1.000000 I-0.000000 J-33.549773
G02 X105.911090 Y59.019613 Z-1.000000 I-0.800699 J-7.845482
G02 X107.343825 Y58.288512 Z-1.000000 I-1.547910 J-4.802846
G02 X108.507226 Y57.119160 Z-1.000000 I-3.134615 J-4.282079
G02 X109.243414 Y55.658738 Z-1.000000 I-4.014972 J-2.939684
G02 X109.512178 Y53.891408 Z-1.000000 I-5.676391 J-1.767331
G02 X109.106486 Y51.799346 Z-1.000000 I-5.596985 J0.000000
G02 X108.004748 Y50.150834 Z-1.000000 I-4.494109 J1.811101
G02 X106.944985 Y49.385620 Z-1.000000 I-3.144541 J3.238498
G02 X105.310908 Y48.748121 Z-1.000000 I-3.753878 J7.209133
G01 X109.861123 Y41.825042 Z-1.000000
G03 X110.792155 Y40.515627 Z-1.000000 I21.626937 J14.391689
G03 X111.131273 Y40.150834 Z-1.000000 I1.988911 J1.508902
G03 X111.746373 Y39.792878 Z-1.000000 I1.430797 J1.751174
G03 X112.457256 Y39.638015 Z-1.000000 I0.852512 J2.204318
G01 X112.457256 Y39.079946 Z-1.000000
G01 X106.497315 Y39.079946 Z-1.000000
G01 X100.397797 Y48.401213 Z-1.000000
G01 X99.155561 Y48.401213 Z-1.000000
G01 X99.155561 Y48.401213 Z-1.000000
G00 Z3.000000

(End cutting path id: path4585)


(Start cutting path id: path4585)
(Change tool to Cylindrical cutter)

G00 Z3.000000
G00 X99.155561 Y58.431378

G01 Z-1.000000 F100.0(Penetrate)
G01 X99.155561 Y49.472101 Z-1.000000 F100.000000
G01 X99.951149 Y49.472101 Z-1.000000
G03 X101.867870 Y49.596055 Z-1.000000 I-0.000000 J14.881293
G03 X102.854354 Y49.849177 Z-1.000000 I-0.538890 J4.149060
G03 X103.692734 Y50.381085 Z-1.000000 I-1.053403 J2.587018
G03 X104.361785 Y51.236807 Z-1.000000 I-2.264230 J2.459710
G03 X104.754813 Y52.289986 Z-1.000000 I-3.346042 J1.848611
G03 X104.920094 Y53.861243 Z-1.000000 I-7.385974 J1.571257
G03 X104.600365 Y56.075109 Z-1.000000 I-7.824481 J0.000000
G03 X103.901182 Y57.315239 Z-1.000000 I-3.040009 J-0.896788
G03 X102.740854 Y58.082411 Z-1.000000 I-2.060272 J-1.855040
G03 X100.649035 Y58.431378 Z-1.000000 I-2.091819 J-6.095034
G01 X99.155561 Y58.431378 Z-1.000000
G01 X99.155561 Y58.431378 Z-1.000000
G00 Z3.000000

(End cutting path id: path4585)


(Start cutting path id: path4583)
(Change tool to Cylindrical cutter)

G00 Z3.000000
G00 X80.256822 Y58.355962

G01 Z-1.000000 F100.0(Penetrate)
G01 X80.256822 Y50.030170 Z-1.000000 F100.000000
G01 X80.633678 Y50.030170 Z-1.000000
G03 X82.242090 Y50.387971 Z-1.000000 I0.000000 J3.794026
G03 X83.243771 Y51.251890 Z-1.000000 I-1.036561 J2.214518
G03 X83.841675 Y52.548313 Z-1.000000 I-3.902484 J2.585892
G03 X84.276642 Y54.856718 Z-1.000000 I-12.183701 J3.490924
G01 X84.807034 Y54.856718 Z-1.000000
G01 X84.807034 Y44.147817 Z-1.000000
G01 X84.276642 Y44.147817 Z-1.000000
G03 X83.983353 Y45.862002 Z-1.000000 I-11.705634 J-1.120594
G03 X83.564798 Y47.013579 Z-1.000000 I-5.665026 J-1.407169
G03 X82.920841 Y48.020991 Z-1.000000 I-4.325907 J-2.055684
G03 X82.322563 Y48.506791 Z-1.000000 I-1.529738 J-1.272623
G03 X81.578730 Y48.774585 Z-1.000000 I-1.212488 J-2.200901
G03 X80.256822 Y48.898949 Z-1.000000 I-1.321907 J-6.963305
G01 X80.256822 Y43.137259 Z-1.000000
G03 X80.307871 Y41.456248 Z-1.000000 I27.702803 J0.000000
G03 X80.382441 Y41.070896 Z-1.000000 I1.506132 J0.091561
G03 X80.574067 Y40.734992 Z-1.000000 I1.111261 J0.411338
G03 X80.884919 Y40.452494 Z-1.000000 I1.084943 J0.881561
G03 X81.271986 Y40.291156 Z-1.000000 I0.608674 J0.915304
G03 X82.057365 Y40.211167 Z-1.000000 I0.785379 J3.815634
G01 X83.187939 Y40.211167 Z-1.000000
G03 X85.700823 Y40.595024 Z-1.000000 I0.000000 J8.417097
G03 X87.431082 Y41.538467 Z-1.000000 I-1.510345 J4.828303
G03 X88.716882 Y43.068536 Z-1.000000 I-3.537675 J4.278199
G03 X89.734105 Y45.580698 Z-1.000000 I-8.870386 J5.053819
G01 X90.250540 Y45.580698 Z-1.000000
G01 X89.399118 Y39.079946 Z-1.000000
G01 X73.040685 Y39.079946 Z-1.000000
G01 X73.040685 Y39.638015 Z-1.000000
G01 X73.668784 Y39.638015 Z-1.000000
G03 X74.465192 Y39.731816 Z-1.000000 I0.000000 J3.427803
G03 X74.994764 Y39.954757 Z-1.000000 I-0.408877 J1.711681
G03 X75.295468 Y40.218725 Z-1.000000 I-0.523362 J0.899460
G03 X75.553074 Y40.678738 Z-1.000000 I-1.430764 J1.103358
G03 X75.645069 Y41.053239 Z-1.000000 I-1.112376 J0.471800
G03 X75.706608 Y42.579190 Z-1.000000 I-18.888372 J1.525951
G01 X75.706608 Y56.033187 Z-1.000000
G03 X75.678274 Y57.417736 Z-1.000000 I-33.842692 J-0.000000
G03 X75.636821 Y57.737563 Z-1.000000 I-1.833866 J-0.075089
G03 X75.426826 Y58.218361 Z-1.000000 I-1.660825 J-0.439128
G03 X75.120386 Y58.552041 Z-1.000000 I-1.081799 J-0.685934
G03 X74.546284 Y58.849309 Z-1.000000 I-1.040928 J-1.307300
G03 X73.668784 Y58.974365 Z-1.000000 I-0.877500 J-3.016125
G01 X73.040685 Y58.974365 Z-1.000000
G01 X73.040685 Y59.532434 Z-1.000000
G01 X88.882683 Y59.532434 Z-1.000000
G01 X88.882683 Y53.484167 Z-1.000000
G01 X88.352291 Y53.484167 Z-1.000000
G03 X87.776032 Y55.625351 Z-1.000000 I-13.262609 J-2.421238
G03 X87.207759 Y56.666672 Z-1.000000 I-3.631119 J-1.305868
G03 X86.366541 Y57.472307 Z-1.000000 I-2.880768 J-2.166002
G03 X85.142018 Y58.084470 Z-1.000000 I-2.817529 J-4.105156
G03 X84.343755 Y58.257397 Z-1.000000 I-1.110383 J-3.196824
G03 X82.210901 Y58.355962 Z-1.000000 I-2.132854 J-23.027002
G01 X80.256822 Y58.355962 Z-1.000000
G01 X80.256822 Y58.355962 Z-1.000000
G00 Z3.000000

(End cutting path id: path4583)


(Start cutting path id: path4581)
(Change tool to Cylindrical cutter)

G00 Z3.000000
G00 X72.105516 Y59.532434

G01 Z-1.000000 F100.0(Penetrate)
G01 X72.105516 Y58.974365 Z-1.000000 F100.000000
G03 X71.180301 Y58.611483 Z-1.000000 I0.431089 J-2.460039
G03 X70.263099 Y57.782810 Z-1.000000 I2.098173 J-3.244260
G03 X69.760710 Y56.979864 Z-1.000000 I3.683785 J-2.863515
G03 X68.518385 Y54.238315 Z-1.000000 I42.273695 J-20.808461
G01 X62.000137 Y38.612372 Z-1.000000
G01 X61.539534 Y38.612372 Z-1.000000
G01 X55.049197 Y54.871800 Z-1.000000
G03 X53.809053 Y57.773876 Z-1.000000 I-59.795071 J-23.836225
G03 X53.471977 Y58.325797 Z-1.000000 I-2.458820 J-1.122786
G03 X52.999374 Y58.696119 Z-1.000000 I-0.946753 J-0.721515
G03 X51.978504 Y58.974365 Z-1.000000 I-1.472590 J-3.390971
G01 X51.978504 Y59.532434 Z-1.000000
G01 X61.051013 Y59.532434 Z-1.000000
G01 X61.051013 Y58.974365 Z-1.000000
G01 X60.743944 Y58.974365 Z-1.000000
G03 X59.554275 Y58.857654 Z-1.000000 I0.000000 J-6.121699
G03 X59.069020 Y58.642540 Z-1.000000 I0.234570 J-1.184019
G03 X58.837580 Y58.369831 Z-1.000000 I0.411309 J-0.583628
G03 X58.747990 Y57.978890 Z-1.000000 I0.808175 J-0.390941
G03 X58.770907 Y57.710717 Z-1.000000 I1.580557 J-0.000000
G03 X58.859651 Y57.330322 Z-1.000000 I3.280669 J0.564820
G03 X58.982963 Y56.972438 Z-1.000000 I5.547730 J1.711324
G03 X59.613369 Y55.354454 Z-1.000000 I114.149805 J43.543784
G01 X63.647146 Y45.173458 Z-1.000000
G01 X67.387811 Y54.238315 Z-1.000000
G03 X68.033296 Y55.890683 Z-1.000000 I-56.440358 J23.000264
G03 X68.211316 Y56.440428 Z-1.000000 I-6.057107 J2.265124
G03 X68.333711 Y57.002702 Z-1.000000 I-5.126335 J1.410359
G03 X68.364852 Y57.390652 Z-1.000000 I-2.400994 J0.387950
G03 X68.305237 Y57.825611 Z-1.000000 I-1.616580 J0.000000
G03 X68.141529 Y58.190051 Z-1.000000 I-1.289372 J-0.360203
G03 X67.875404 Y58.485885 Z-1.000000 I-1.046102 J-0.673431
G03 X67.485515 Y58.717953 Z-1.000000 I-1.014107 J-1.260214
G03 X66.869360 Y58.896308 Z-1.000000 I-1.035465 J-2.423692
G03 X65.894338 Y58.974365 Z-1.000000 I-0.975023 J-6.050544
G01 X65.894338 Y59.532434 Z-1.000000
G01 X72.105516 Y59.532434 Z-1.000000
G01 X72.105516 Y59.532434 Z-1.000000
G00 Z3.000000

(End cutting path id: path4581)


(Start cutting path id: path4579)
(Change tool to Cylindrical cutter)

G00 Z3.000000
G00 X51.113127 Y39.638015

G01 Z-1.000000 F100.0(Penetrate)
G01 X51.113127 Y39.079946 Z-1.000000 F100.000000
G01 X41.217113 Y39.079946 Z-1.000000
G01 X41.217113 Y39.638015 Z-1.000000
G01 X41.845210 Y39.638015 Z-1.000000
G03 X42.641618 Y39.731816 Z-1.000000 I0.000000 J3.427811
G03 X43.171192 Y39.954757 Z-1.000000 I-0.408880 J1.711699
G03 X43.471894 Y40.218724 Z-1.000000 I-0.523363 J0.899455
G03 X43.729500 Y40.678738 Z-1.000000 I-1.430779 J1.103364
G03 X43.821496 Y41.053240 Z-1.000000 I-1.112358 J0.471801
G03 X43.883036 Y42.579190 Z-1.000000 I-18.888033 J1.525951
G01 X43.883036 Y56.033187 Z-1.000000
G03 X43.822164 Y57.590323 Z-1.000000 I-19.946799 J0.000000
G03 X43.729500 Y57.993972 Z-1.000000 I-1.404572 J-0.109983
G03 X43.515585 Y58.335233 Z-1.000000 I-1.009988 J-0.395422
G03 X43.101403 Y58.672705 Z-1.000000 I-1.400743 J-1.296242
G03 X42.613661 Y58.883391 Z-1.000000 I-0.850003 J-1.297866
G03 X41.845210 Y58.974365 Z-1.000000 I-0.768451 J-3.200035
G01 X41.217113 Y58.974365 Z-1.000000
G01 X41.217113 Y59.532434 Z-1.000000
G01 X51.113127 Y59.532434 Z-1.000000
G01 X51.113127 Y58.974365 Z-1.000000
G01 X50.485031 Y58.974365 Z-1.000000
G03 X49.688623 Y58.880564 Z-1.000000 I-0.000000 J-3.427811
G03 X49.159048 Y58.657622 Z-1.000000 I0.408880 J-1.711699
G03 X48.855786 Y58.394606 Z-1.000000 I0.541650 J-0.930871
G03 X48.586781 Y57.933639 Z-1.000000 I1.493536 J-1.180554
G03 X48.494787 Y57.559138 Z-1.000000 I1.112376 J-0.471800
G03 X48.433248 Y56.033187 Z-1.000000 I18.888372 J-1.525951
G01 X48.433248 Y42.579190 Z-1.000000
G03 X48.494118 Y41.022054 Z-1.000000 I19.947124 J-0.000000
G03 X48.586781 Y40.618408 Z-1.000000 I1.404570 J0.109981
G03 X48.808744 Y40.271878 Z-1.000000 I1.144916 J0.489002
G03 X49.214880 Y39.924589 Z-1.000000 I1.556278 J1.408866
G03 X49.713385 Y39.723985 Z-1.000000 I0.868115 J1.437577
G03 X50.485031 Y39.638015 Z-1.000000 I0.771646 J3.420077
G01 X51.113127 Y39.638015 Z-1.000000
G01 X51.113127 Y39.638015 Z-1.000000
G00 Z3.000000

(End cutting path id: path4579)


(Start cutting path id: path4577)
(Change tool to Cylindrical cutter)

G00 Z3.000000
G00 X27.105871 Y59.532434

G01 Z-1.000000 F100.0(Penetrate)
G01 X36.443579 Y46.847668 Z-1.000000 F100.000000
G01 X36.443579 Y55.641031 Z-1.000000
G03 X36.270315 Y57.423197 Z-1.000000 I-9.252213 J0.000000
G03 X35.955058 Y58.129718 Z-1.000000 I-1.694964 J-0.332715
G03 X35.151027 Y58.726333 Z-1.000000 I-1.443922 J-1.105822
G03 X33.707867 Y58.974365 Z-1.000000 I-1.368769 J-3.641623
G01 X33.707867 Y59.532434 Z-1.000000
G01 X39.960920 Y59.532434 Z-1.000000
G01 X39.960920 Y58.974365 Z-1.000000
G03 X38.787601 Y58.735785 Z-1.000000 I1.296736 J-9.381700
G03 X38.341826 Y58.536959 Z-1.000000 I0.410494 J-1.519479
G03 X38.004638 Y58.224718 Z-1.000000 I0.678119 J-1.070482
G03 X37.699772 Y57.677230 Z-1.000000 I1.887860 J-1.409871
G03 X37.554829 Y57.074617 Z-1.000000 I2.291003 J-0.869778
G03 X37.476449 Y55.641031 Z-1.000000 I13.071053 J-1.433586
G01 X37.476449 Y38.612372 Z-1.000000
G01 X37.001886 Y38.612372 Z-1.000000
G01 X24.202668 Y55.641031 Z-1.000000
G01 X24.202668 Y42.639523 Z-1.000000
G03 X24.452556 Y40.991623 Z-1.000000 I5.558548 J-0.000000
G03 X24.942427 Y40.256414 Z-1.000000 I1.491507 J0.462990
G03 X25.752765 Y39.796293 Z-1.000000 I1.739962 J2.120697
G03 X26.659225 Y39.638015 Z-1.000000 I0.906460 J2.516510
G01 X27.105871 Y39.638015 Z-1.000000
G01 X27.105871 Y39.079946 Z-1.000000
G01 X20.392214 Y39.079946 Z-1.000000
G01 X20.392214 Y39.638015 Z-1.000000
G03 X21.856649 Y39.872931 Z-1.000000 I-0.048053 J4.981562
G03 X22.569617 Y40.331830 Z-1.000000 I-0.494303 J1.551272
G03 X22.980928 Y41.088705 Z-1.000000 I-1.356394 J1.227309
G03 X23.183756 Y42.639523 Z-1.000000 I-5.827363 J1.550818
G01 X23.183756 Y57.073913 Z-1.000000
G01 X22.778982 Y57.616896 Z-1.000000
G03 X22.129687 Y58.375588 Z-1.000000 I-5.526180 J-4.072173
G03 X21.718196 Y58.687787 Z-1.000000 I-1.304772 J-1.292460
G03 X21.236732 Y58.869234 Z-1.000000 I-0.851115 J-1.528911
G03 X20.392214 Y58.974365 Z-1.000000 I-1.011308 J-4.679282
G01 X20.392214 Y59.532434 Z-1.000000
G01 X27.105871 Y59.532434 Z-1.000000
G01 X27.105871 Y59.532434 Z-1.000000
G00 Z3.000000

(End cutting path id: path4577)


(Start cutting path id: path4575)
(Change tool to Cylindrical cutter)

G00 Z3.000000
G00 X0.000004 Y59.532434

G01 Z-1.000000 F100.0(Penetrate)
G01 X9.770400 Y59.532434 Z-1.000000 F100.000000
G01 X9.770400 Y58.974365 Z-1.000000
G01 X9.281880 Y58.974365 Z-1.000000
G03 X8.204628 Y58.884221 Z-1.000000 I-0.000000 J-6.481880
G03 X7.760490 Y58.717953 Z-1.000000 I0.207324 J-1.230134
G03 X7.413366 Y58.426752 Z-1.000000 I0.726434 J-1.218435
G03 X7.174266 Y58.039220 Z-1.000000 I1.084319 J-0.936530
G03 X7.073203 Y57.589530 Z-1.000000 I1.493220 J-0.571787
G03 X7.006773 Y55.852193 Z-1.000000 I22.685221 J-1.737337
G01 X7.006773 Y45.837108 Z-1.000000
G03 X7.147218 Y43.120524 Z-1.000000 I26.343284 J-0.000000
G03 X7.383632 Y42.202117 Z-1.000000 I3.184768 J0.330181
G03 X7.885334 Y41.405150 Z-1.000000 I2.923130 J1.283754
G03 X8.653783 Y40.723986 Z-1.000000 I2.879136 J2.474027
G03 X9.584106 Y40.303675 Z-1.000000 I1.725365 J2.579200
G03 X10.873058 Y40.135751 Z-1.000000 I1.288952 J4.862924
G03 X12.344919 Y40.340118 Z-1.000000 I-0.000000 J5.402402
G03 X13.483149 Y40.874817 Z-1.000000 I-1.054148 J3.722837
G03 X14.415566 Y41.753945 Z-1.000000 I-2.438716 J3.520571
G03 X15.102244 Y42.941180 Z-1.000000 I-3.861302 J3.025514
G03 X15.455510 Y44.291459 Z-1.000000 I-4.708327 J1.953167
G03 X15.646594 Y47.511319 Z-1.000000 I-27.032580 J3.219859
G01 X15.646594 Y55.852193 Z-1.000000
G03 X15.555514 Y57.205159 Z-1.000000 I-10.094500 J0.000000
G03 X15.381398 Y57.812976 Z-1.000000 I-2.174741 J-0.294134
G03 X15.052323 Y58.342610 Z-1.000000 I-2.152923 J-0.970613
G03 X14.711428 Y58.627457 Z-1.000000 I-0.925744 J-0.761491
G03 X14.055427 Y58.866128 Z-1.000000 I-1.088342 J-1.970508
G03 X12.938799 Y58.974365 Z-1.000000 I-1.116628 J-5.705747
G01 X12.938799 Y59.532434 Z-1.000000
G01 X19.484964 Y59.532434 Z-1.000000
G01 X19.484964 Y58.974365 Z-1.000000
G01 X19.094148 Y58.974365 Z-1.000000
G03 X18.327932 Y58.875794 Z-1.000000 I-0.000000 J-3.027273
G03 X17.768166 Y58.627457 Z-1.000000 I0.481462 J-1.840288
G03 X17.327440 Y58.210877 Z-1.000000 I0.937321 J-1.433073
G03 X17.000492 Y57.586731 Z-1.000000 I1.860181 J-1.372132
G03 X16.883730 Y57.092320 Z-1.000000 I1.867177 J-0.701951
G03 X16.819042 Y55.852193 Z-1.000000 I11.854764 J-1.240127
G01 X16.819042 Y48.084470 Z-1.000000
G02 X16.665519 Y44.500684 Z-1.000000 I-41.906123 J0.000000
G02 X16.372395 Y42.880850 Z-1.000000 I-8.793010 J0.754738
G02 X15.687375 Y41.448734 Z-1.000000 I-4.236504 J1.146544
G02 X14.236866 Y39.939672 Z-1.000000 I-6.174059 J4.482857
G02 X12.396264 Y38.994566 Z-1.000000 I-3.335621 J4.231304
G02 X9.588949 Y38.597289 Z-1.000000 I-2.807315 J9.720151
G02 X7.187568 Y38.819567 Z-1.000000 I-0.000000 J13.082800
G02 X5.792453 Y39.306190 Z-1.000000 I0.901399 J4.827416
G02 X4.172003 Y40.474914 Z-1.000000 I3.363942 J6.371892
G02 X3.210277 Y41.779794 Z-1.000000 I3.281031 J3.425042
G02 X2.686322 Y43.342302 Z-1.000000 I5.287028 J2.641999
G02 X2.456561 Y45.837108 Z-1.000000 I13.429734 J2.494805
G01 X2.456561 Y55.852193 Z-1.000000
G03 X2.384098 Y57.601989 Z-1.000000 I-21.162817 J-0.000000
G03 X2.275111 Y58.039220 Z-1.000000 I-1.396262 J-0.115843
G03 X2.032313 Y58.422663 Z-1.000000 I-1.229986 J-0.510238
G03 X1.647014 Y58.733035 Z-1.000000 I-1.173176 J-1.062052
G03 X1.176100 Y58.896082 Z-1.000000 I-0.664376 J-1.157283
G03 X0.000004 Y58.974365 Z-1.000000 I-1.082302 J-7.386414
G01 X0.000004 Y59.532434 Z-1.000000
G01 X0.000004 Y59.532434 Z-1.000000
G00 Z3.000000

(End cutting path id: path4575)


(Start cutting path id: path4558)
(Change tool to Cylindrical cutter)

G00 Z3.000000
G00 X97.443728 Y67.467116

G01 Z-1.000000 F100.0(Penetrate)
G02 X92.954895 Y73.685155 Z-1.000000 I15.289468 J15.766816 F100.000000
G02 X90.929940 Y80.959107 Z-1.000000 I19.171803 J9.255965
G03 X90.428016 Y84.680903 Z-1.000000 I-45.816911 J-4.284161
G03 X90.245354 Y84.834123 Z-1.000000 I-0.182662 J-0.032272
G03 X89.937841 Y84.769169 Z-1.000000 I-0.000000 J-0.760414
G03 X85.877607 Y82.902823 Z-1.000000 I62.157301 J-140.572796
G02 X81.742327 Y81.283905 Z-1.000000 I-13.250611 J27.755744
G02 X78.374088 Y80.574371 Z-1.000000 I-5.476655 J17.648825
G01 X74.916050 Y80.177211 Z-1.000000
G01 X74.854881 Y82.345716 Z-1.000000
G02 X76.212456 Y92.621782 Z-1.000000 I32.606262 J0.920082
G02 X80.163061 Y100.074933 Z-1.000000 I20.695918 J-6.196442
G02 X85.440535 Y104.891596 Z-1.000000 I18.890582 J-15.398331
G02 X91.740578 Y107.871415 Z-1.000000 I12.951168 J-19.232036
G03 X94.496335 Y108.901725 Z-1.000000 I-6.318120 J21.099542
G03 X94.784633 Y109.342756 Z-1.000000 I-0.202009 J0.446795
G03 X94.510188 Y109.800149 Z-1.000000 I-0.508409 J0.005977
G03 X91.777307 Y110.998059 Z-1.000000 I-10.559233 J-20.373248
G03 X83.433328 Y112.685427 Z-1.000000 I-9.810896 J-27.040516
G03 X82.173666 Y111.488446 Z-1.000000 I-0.061121 J-1.196982
G02 X82.008274 Y110.671031 Z-1.000000 I-2.102655 J0.000000
G02 X80.176692 Y106.755604 Z-1.000000 I-52.049347 J21.961855
G02 X73.841813 Y99.105631 Z-1.000000 I-20.614530 J10.622803
G02 X64.429372 Y94.449527 Z-1.000000 I-15.961676 J20.425159
G02 X61.658540 Y94.153887 Z-1.000000 I-2.369341 J9.073820
G02 X60.589296 Y94.614083 Z-1.000000 I0.070064 J1.635058
G02 X60.115349 Y95.663274 Z-1.000000 I1.089961 J1.124006
G02 X60.410982 Y98.341510 Z-1.000000 I8.566666 J0.409815
G02 X66.448591 Y108.538573 Z-1.000000 I21.664626 J-5.941528
G02 X78.421067 Y115.780718 Z-1.000000 I21.787009 J-22.500239
G03 X79.076478 Y116.508715 Z-1.000000 I-0.309377 J0.937561
G03 X79.167940 Y119.219173 Z-1.000000 I-7.395111 J1.606312
G03 X78.513931 Y122.204370 Z-1.000000 I-21.847136 J-3.222117
G03 X77.367235 Y125.367113 Z-1.000000 I-25.681381 J-7.521891
G01 X76.015467 Y128.471188 Z-1.000000
G01 X74.703605 Y125.047206 Z-1.000000
G02 X69.938070 Y116.891902 Z-1.000000 I-27.184719 J10.415317
G02 X63.369817 Y111.364623 Z-1.000000 I-18.517547 J15.338753
G02 X52.282534 Y107.368649 Z-1.000000 I-16.899513 J29.510160
G02 X46.606709 Y108.456769 Z-1.000000 I-1.397614 J8.056912
G02 X45.655228 Y110.695555 Z-1.000000 I1.097735 J1.788118
G02 X49.085802 Y119.729529 Z-1.000000 I32.338741 J-7.112008
G01 X50.978362 Y123.117977 Z-1.000000
G01 X47.059184 Y123.559079 Z-1.000000
G02 X38.671641 Y125.903054 Z-1.000000 I3.048654 J27.087866
G02 X32.169645 Y130.440749 Z-1.000000 I9.479362 J20.509990
G01 X29.999999 Y132.611628 Z-1.000000
G01 X33.041757 Y135.330534 Z-1.000000
G02 X39.606879 Y139.560167 Z-1.000000 I16.634428 J-18.609591
G02 X47.156410 Y141.553368 Z-1.000000 I10.065589 J-22.830794
G01 X50.957246 Y141.938609 Z-1.000000
G01 X48.741584 Y146.176650 Z-1.000000
G02 X46.928290 Y150.523938 Z-1.000000 I24.142965 J12.622072
G02 X46.370661 Y153.613745 Z-1.000000 I11.532544 J3.676543
G01 X46.215410 Y156.812799 Z-1.000000
G01 X51.579128 Y156.749231 Z-1.000000
G02 X56.830835 Y156.182303 Z-1.000000 I-0.327579 J-27.642424
G02 X61.147884 Y154.777457 Z-1.000000 I-4.121323 J-20.000207
G02 X68.743476 Y149.154087 Z-1.000000 I-9.310616 J-20.517463
G02 X75.419168 Y138.578198 Z-1.000000 I-29.607171 J-26.083434
G03 X76.118414 Y138.327717 Z-1.000000 I0.465801 J0.199083
G03 X77.267382 Y139.537917 Z-1.000000 I-1.178352 J2.269248
G03 X78.166993 Y142.166045 Z-1.000000 I-13.021012 J5.925140
G03 X78.727049 Y145.700908 Z-1.000000 I-23.107959 J5.472975
G01 X79.022141 Y149.304663 Z-1.000000
G01 X75.814448 Y150.341968 Z-1.000000
G02 X69.187629 Y153.772655 Z-1.000000 I6.992123 J21.621821
G02 X63.883995 Y159.273810 Z-1.000000 I14.280882 J19.075303
G02 X59.925672 Y166.997115 Z-1.000000 I26.998960 J18.713424
G02 X59.983867 Y170.259655 Z-1.000000 I4.376570 J1.553722
G02 X61.483717 Y171.184524 Z-1.000000 I1.369188 J-0.541817
G02 X66.682116 Y169.953205 Z-1.000000 I-1.654805 J-18.575260
G02 X71.831996 Y167.372729 Z-1.000000 I-12.015397 J-30.408311
G02 X76.142128 Y163.874958 Z-1.000000 I-11.324900 J-18.359588
G02 X81.152886 Y157.174782 Z-1.000000 I-25.772778 J-24.498041
G02 X82.167214 Y153.453790 Z-1.000000 I-6.541135 J-3.781835
G03 X83.314044 Y152.381466 Z-1.000000 I1.082881 J0.008702
G03 X91.056020 Y153.979620 Z-1.000000 I-1.621138 J27.404700
G03 X94.014459 Y155.795193 Z-1.000000 I-2.945034 J8.117018
G03 X93.738698 Y156.492888 Z-1.000000 I-0.275761 J0.294351
G02 X89.673066 Y157.475785 Z-1.000000 I-0.000000 J8.899938
G02 X82.785379 Y162.117747 Z-1.000000 I16.031455 J31.218197
G02 X75.569375 Y172.225157 Z-1.000000 I17.120592 J19.852513
G02 X74.581411 Y182.605723 Z-1.000000 I17.157093 J6.870214
G01 X75.008249 Y184.812198 Z-1.000000
G01 X78.420200 Y184.420338 Z-1.000000
G02 X81.743036 Y183.718450 Z-1.000000 I-2.068066 J-18.006822
G02 X85.877607 Y182.097178 Z-1.000000 I-9.218578 J-29.591875
G03 X89.938169 Y180.232330 Z-1.000000 I64.719128 J135.567724
G03 X90.253315 Y180.165875 Z-1.000000 I0.315146 J0.714019
G03 X90.431544 Y180.321021 Z-1.000000 I0.000000 J0.179946
G03 X90.641219 Y182.953708 Z-1.000000 I-22.262243 J3.097721
G02 X92.008632 Y189.278353 Z-1.000000 I16.931559 J-0.350529
G02 X96.441094 Y196.476939 Z-1.000000 I26.565028 J-11.393249
G02 X99.458539 Y199.875602 Z-1.000000 I63.576496 J-53.406490
G02 X99.745789 Y200.000001 Z-1.000000 I0.287251 J-0.269445
G02 X100.041967 Y199.884695 Z-1.000000 I-0.000000 J-0.438038
G02 X102.708784 Y197.280810 Z-1.000000 I-40.736173 J-44.388275
G02 X107.158371 Y190.865319 Z-1.000000 I-17.652861 J-16.994277
G02 X109.045768 Y184.040893 Z-1.000000 I-18.178772 J-8.700816
G03 X109.547669 Y180.319118 Z-1.000000 I45.825524 J4.285087
G03 X109.730357 Y180.165875 Z-1.000000 I0.182688 J0.032274
G03 X110.037871 Y180.230829 Z-1.000000 I-0.000000 J0.760413
G03 X114.098076 Y182.097178 Z-1.000000 I-62.151914 J140.559870
G02 X118.233367 Y183.716090 Z-1.000000 I13.251167 J-27.757334
G02 X121.601623 Y184.425635 Z-1.000000 I5.476750 J-17.649030
G01 X125.059661 Y184.822790 Z-1.000000
G01 X125.059661 Y179.941957 Z-1.000000
G02 X120.648047 Y166.238862 Z-1.000000 I-23.487678 J0.000000
G02 X108.894943 Y157.439061 Z-1.000000 I-19.843300 J14.254231
G03 X105.648759 Y156.188597 Z-1.000000 I19.077019 J-54.362359
G03 X105.045175 Y155.820988 Z-1.000000 I0.921362 J-2.192127
G03 X105.334911 Y154.356952 Z-1.000000 I0.545558 J-0.652720
G03 X114.011488 Y152.993745 Z-1.000000 I8.860126 J28.099099
G01 X117.191167 Y152.973933 Z-1.000000
G01 X118.696811 Y156.543770 Z-1.000000
G02 X122.511223 Y162.769067 Z-1.000000 I22.419517 J-9.455813
G02 X127.864509 Y167.420900 Z-1.000000 I17.555259 J-14.796258
G02 X136.103856 Y171.233424 Z-1.000000 I19.054858 J-30.370562
G02 X138.883828 Y170.907394 Z-1.000000 I1.028044 J-3.249197
G02 X139.669736 Y169.351244 Z-1.000000 I-0.839297 J-1.400402
G02 X138.517567 Y164.533095 Z-1.000000 I-17.773003 J1.703240
G02 X136.181088 Y159.847660 Z-1.000000 I-27.517487 J10.796825
G02 X132.977089 Y155.853079 Z-1.000000 I-17.528836 J10.777408
G02 X125.897491 Y150.654734 Z-1.000000 I-22.438933 J23.139452
G02 X121.173610 Y149.455480 Z-1.000000 I-4.729330 J8.725561
G03 X119.951097 Y148.071016 Z-1.000000 I0.000254 J-1.232210
G03 X122.422540 Y139.425990 Z-1.000000 I28.976506 J3.608031
G01 X123.849670 Y136.338858 Z-1.000000
G01 X125.279396 Y139.857816 Z-1.000000
G02 X128.594750 Y146.033779 Z-1.000000 I30.475959 J-12.382123
G02 X132.616612 Y150.596160 Z-1.000000 I20.447818 J-13.971425
G02 X142.430504 Y156.210768 Z-1.000000 I18.373402 J-20.730998
G02 X151.845039 Y156.843344 Z-1.000000 I5.961400 J-18.348793
G01 X154.227206 Y156.409980 Z-1.000000
G01 X153.809029 Y153.412337 Z-1.000000
G02 X153.092074 Y150.509555 Z-1.000000 I-14.325686 J1.998357
G02 X151.199975 Y146.167794 Z-1.000000 I-34.148952 J12.298632
G01 X149.009081 Y141.920903 Z-1.000000
G01 X152.839268 Y141.500682 Z-1.000000
G02 X161.211722 Y139.165969 Z-1.000000 I-2.926481 J-26.674054
G02 X167.818210 Y134.547082 Z-1.000000 I-9.718258 J-20.934363
G01 X170.000000 Y132.364051 Z-1.000000
G01 X166.631677 Y129.427314 Z-1.000000
G02 X160.197599 Y125.403235 Z-1.000000 I-15.833609 J18.160521
G02 X152.434048 Y123.411821 Z-1.000000 I-10.484648 J24.745676
G01 X149.128455 Y123.075404 Z-1.000000
G01 X151.282850 Y118.830352 Z-1.000000
G02 X153.048182 Y114.481778 Z-1.000000 I-24.937341 J-12.656089
G02 X153.598793 Y111.386250 Z-1.000000 I-11.984024 J-3.728371
G01 X153.760289 Y108.187202 Z-1.000000
G01 X148.396583 Y108.250733 Z-1.000000
G02 X143.146932 Y108.826941 Z-1.000000 I0.321446 J27.130641
G02 X138.681413 Y110.288948 Z-1.000000 I4.410229 J21.021200
G02 X131.023112 Y115.983282 Z-1.000000 I9.312132 J20.520854
G02 X124.590229 Y126.417694 Z-1.000000 I27.998633 J24.461503
G01 X123.940246 Y128.013158 Z-1.000000
G01 X122.911972 Y126.084886 Z-1.000000
G03 X120.149955 Y118.358866 Z-1.000000 I24.786571 J-13.217802
G03 X120.934325 Y116.164213 Z-1.000000 I2.222712 J-0.443095
G03 X121.476609 Y115.837315 Z-1.000000 I1.390218 J1.692955
G03 X124.605390 Y114.623085 Z-1.000000 I23.825129 J56.753533
G02 X133.924938 Y108.591702 Z-1.000000 I-8.135506 J-22.786647
G02 X139.243046 Y99.374099 Z-1.000000 I-16.040796 J-15.397706
G02 X139.825491 Y95.687727 Z-1.000000 I-14.383847 J-4.161840
G02 X139.394015 Y94.621423 Z-1.000000 I-1.421695 J-0.045166
G02 X135.322750 Y93.792688 Z-1.000000 I-2.683220 J2.766988
G02 X124.681813 Y100.300728 Z-1.000000 I12.510580 J32.408582
G02 X119.067064 Y107.016319 Z-1.000000 I20.183480 J22.579915
G02 X117.802045 Y111.488443 Z-1.000000 I7.272474 J4.472124
G03 X116.988577 Y112.321034 Z-1.000000 I-0.832816 J0.000000
G03 X111.906028 Y111.965344 Z-1.000000 I-0.636573 J-27.394603
G03 X106.703445 Y110.673971 Z-1.000000 I5.419335 J-32.958558
G03 X105.484276 Y109.463038 Z-1.000000 I0.617471 J-1.840869
G03 X105.651267 Y109.018595 Z-1.000000 I0.352828 J-0.121025
G03 X108.068915 Y107.977892 Z-1.000000 I5.711810 J9.940495
G02 X120.333470 Y99.364491 Z-1.000000 I-6.827603 J-22.760174
G02 X125.059661 Y85.047599 Z-1.000000 I-19.321747 J-14.316892
G01 X125.059661 Y80.190591 Z-1.000000
G01 X121.799122 Y80.610027 Z-1.000000
G02 X116.219835 Y81.969048 Z-1.000000 I3.307216 J25.709384
G02 X111.745345 Y84.279085 Z-1.000000 I6.833532 J18.724911
G03 X110.347440 Y84.130569 Z-1.000000 I-0.612397 J-0.888964
G03 X109.279078 Y81.662730 Z-1.000000 I2.874461 J-2.709568
G02 X107.746905 Y75.310816 Z-1.000000 I-18.681429 J1.145483
G02 X103.534586 Y68.523058 Z-1.000000 I-25.633278 J11.206485
G02 X100.525389 Y65.106756 Z-1.000000 I-74.324433 J62.434069
G02 X100.281506 Y64.999999 Z-1.000000 I-0.243882 J0.225194
G02 X100.026475 Y65.095360 Z-1.000000 I0.000000 J0.388707
G02 X97.443728 Y67.467116 Z-1.000000 I42.298375 J48.653368
G01 X97.443728 Y67.467116 Z-1.000000
G00 Z3.000000

(End cutting path id: path4558)


(Start cutting path id: path4558)
(Change tool to Cylindrical cutter)

G00 Z3.000000
G00 X69.307863 Y100.220317

G01 Z-1.000000 F100.0(Penetrate)
G03 X71.182661 Y101.518784 Z-1.000000 I-7.824111 J13.299583 F100.000000
G03 X73.373929 Y103.506371 Z-1.000000 I-16.322070 J20.196398
G03 X78.311043 Y109.871841 Z-1.000000 I-24.512131 J24.109193
G03 X78.115530 Y111.376042 Z-1.000000 I-1.044110 J0.629096
G03 X76.682749 Y111.599376 Z-1.000000 I-0.874340 J-0.901642
G03 X70.423702 Y107.557790 Z-1.000000 I14.742117 J-29.697908
G03 X65.449752 Y102.137986 Z-1.000000 I16.425746 J-20.066790
G03 X64.365661 Y98.706883 Z-1.000000 I5.120424 J-3.504665
G03 X64.921694 Y98.290589 Z-1.000000 I0.430090 J-0.005027
G03 X69.307863 Y100.220317 Z-1.000000 I-5.994291 J19.574334
G01 X69.307863 Y100.220317 Z-1.000000
G00 Z3.000000

(End cutting path id: path4558)


(Start cutting path id: path4558)
(Change tool to Cylindrical cutter)

G00 Z3.000000
G00 X135.616223 Y98.611314

G01 Z-1.000000 F100.0(Penetrate)
G03 X134.630196 Y101.911223 Z-1.000000 I-6.014874 J-0.000000 F100.000000
G03 X130.032083 Y107.121201 Z-1.000000 I-20.471701 J-13.433445
G03 X123.381244 Y111.677418 Z-1.000000 I-25.004723 J-29.367784
G03 X121.970310 Y111.482849 Z-1.000000 I-0.572867 J-1.058846
G03 X121.773074 Y109.872264 Z-1.000000 I0.899460 J-0.927519
G03 X127.019962 Y103.375409 Z-1.000000 I29.048503 J18.092565
G03 X134.410048 Y97.900757 Z-1.000000 I24.386340 J25.193298
G03 X135.616223 Y98.611314 Z-1.000000 I0.393793 J0.710558
G01 X135.616223 Y98.611314 Z-1.000000
G00 Z3.000000

(End cutting path id: path4558)


(Start cutting path id: path4558)
(Change tool to Cylindrical cutter)

G00 Z3.000000
G00 X102.750595 Y112.431328

G01 Z-1.000000 F100.0(Penetrate)
G02 X108.487996 Y115.217536 Z-1.000000 I11.948357 J-17.303854 F100.000000
G02 X114.891790 Y116.184835 Z-1.000000 I6.403794 J-20.713818
G03 X116.439414 Y116.887681 Z-1.000000 I0.000000 J2.055311
G03 X117.142264 Y118.760056 Z-1.000000 I-2.142558 J1.872375
G02 X118.106238 Y124.553567 Z-1.000000 I17.891564 J0.000000
G02 X121.058673 Y130.203067 Z-1.000000 I19.940402 J-6.824653
G01 X122.445583 Y132.091845 Z-1.000000
G01 X120.045201 Y136.326609 Z-1.000000
G02 X118.109590 Y140.704707 Z-1.000000 I20.981853 J11.893265
G02 X117.303198 Y144.688272 Z-1.000000 I16.522001 J5.417947
G03 X116.329312 Y148.128380 Z-1.000000 I-9.274565 J-0.767699
G03 X115.211178 Y148.815165 Z-1.000000 I-1.118135 J-0.566808
G02 X109.008935 Y149.735395 Z-1.000000 I0.000000 J21.361321
G02 X102.729705 Y152.602308 Z-1.000000 I7.516814 J24.773598
G01 X99.863383 Y154.407416 Z-1.000000
G01 X96.220972 Y152.280473 Z-1.000000
G02 X92.436999 Y150.547403 Z-1.000000 I-10.612966 J18.174792
G02 X87.706017 Y149.359586 Z-1.000000 I-9.380212 J27.345171
G03 X83.609270 Y147.905997 Z-1.000000 I1.958504 J-12.019645
G03 X82.833448 Y146.567192 Z-1.000000 I0.767249 J-1.338805
G02 X81.971260 Y141.209439 Z-1.000000 I-17.078000 J-0.000000
G02 X79.067054 Y135.167779 Z-1.000000 I-24.743884 J8.175453
G03 X78.114809 Y132.599475 Z-1.000000 I5.212718 J-3.393391
G03 X78.502206 Y130.947214 Z-1.000000 I2.366407 J-0.316707
G02 X81.430502 Y125.302264 Z-1.000000 I-22.943377 J-15.483788
G02 X82.658210 Y120.018948 Z-1.000000 I-18.823107 J-7.158312
G01 X83.001254 Y116.350119 Z-1.000000
G01 X86.772511 Y115.967874 Z-1.000000
G02 X93.200528 Y114.527023 Z-1.000000 I-2.786202 J-27.488957
G02 X97.678599 Y112.109953 Z-1.000000 I-5.498280 J-15.543344
G03 X99.894231 Y111.440796 Z-1.000000 I2.005998 J2.639376
G03 X102.750595 Y112.431328 Z-1.000000 I-0.357685 J5.645114
G01 X102.750595 Y112.431328 Z-1.000000
G00 Z3.000000

(End cutting path id: path4558)


(Start cutting path id: path4558)
(Change tool to Cylindrical cutter)

G00 Z3.000000
G00 X95.737404 Y120.304805

G01 Z-1.000000 F100.0(Penetrate)
G02 X91.247605 Y122.781237 Z-1.000000 I5.433405 J15.159070 F100.000000
G02 X88.251369 Y126.162051 Z-1.000000 I7.702558 J9.844477
G02 X87.252515 Y128.791562 Z-1.000000 I6.707391 J4.052359
G02 X86.942166 Y133.252806 Z-1.000000 I19.478722 J3.596468
G02 X87.712922 Y137.623620 Z-1.000000 I16.988358 J-0.742387
G02 X89.146945 Y140.245685 Z-1.000000 I7.353333 J-2.318411
G02 X104.358127 Y144.697589 Z-1.000000 I10.926024 J-9.119239
G02 X113.183532 Y132.656016 Z-1.000000 I-3.802189 J-12.041574
G02 X107.636480 Y121.932441 Z-1.000000 I-13.138946 J-0.000000
G02 X95.737404 Y120.304805 Z-1.000000 I-7.512326 J10.611187
G01 X95.737404 Y120.304805 Z-1.000000
G00 Z3.000000

(End cutting path id: path4558)


(Start cutting path id: path4558)
(Change tool to Cylindrical cutter)

G00 Z3.000000
G00 X131.168869 Y159.655871

G01 Z-1.000000 F100.0(Penetrate)
G03 X135.481489 Y165.749395 Z-1.000000 I-20.840427 J19.322435 F100.000000
G03 X134.889351 Y166.729862 Z-1.000000 I-0.592138 J0.311427
G03 X133.099827 Y166.300596 Z-1.000000 I0.000000 J-3.944715
G03 X128.242137 Y163.346116 Z-1.000000 I17.080832 J-33.554621
G03 X124.098639 Y159.259426 Z-1.000000 I10.878608 J-15.173720
G03 X122.046843 Y154.951941 Z-1.000000 I10.096527 J-7.451719
G01 X121.590450 Y153.188600 Z-1.000000
G01 X124.880571 Y154.805352 Z-1.000000
G03 X127.951053 Y156.717099 Z-1.000000 I-7.977993 J16.235198
G03 X131.168869 Y159.655871 Z-1.000000 I-16.037747 J20.791637
G01 X131.168869 Y159.655871 Z-1.000000
G00 Z3.000000

(End cutting path id: path4558)


(Start cutting path id: path4558)
(Change tool to Cylindrical cutter)

G00 Z3.000000
G00 X77.456056 Y155.853762

G01 Z-1.000000 F100.0(Penetrate)
G03 X74.329960 Y160.850430 Z-1.000000 I-13.060831 J-4.695095 F100.000000
G03 X68.064186 Y165.481141 Z-1.000000 I-17.360547 J-16.935963
G03 X65.482873 Y165.795431 Z-1.000000 I-1.715904 J-3.335478
G03 X64.935171 Y164.739207 Z-1.000000 I0.181169 J-0.764061
G03 X70.817116 Y156.352628 Z-1.000000 I20.817838 J8.344689
G03 X77.026003 Y153.945807 Z-1.000000 I6.311724 J7.070427
G03 X77.548413 Y154.358945 Z-1.000000 I0.005751 J0.529590
G03 X77.456056 Y155.853762 Z-1.000000 I-2.612519 J0.588847
G01 X77.456056 Y155.853762 Z-1.000000
G00 Z3.000000

(End cutting path id: path4558)


(Footer)
M5
G00 X0.0000 Y0.0000
M2
(Using default footer. To add your own footer create file "footer" in the output dir.)
(end)
%