%
(Header)
(Generated by gcodetools from Inkscape.)
(Using default header. To add your own header create file "header" in the output dir.)
M3
(Header end.)
G21 (All units in mm)

(Start cutting path id: path9558)
(Change tool to Cylindrical cutter)

G00 Z3.000000
G00 X25.366376 Y46.761492

G01 Z-1.000000 F100.0(Penetrate)
G03 X25.279078 Y46.723301 Z-1.000000 I-0.000006 J-0.118856 F100.000000
G03 X24.358755 Y45.671188 Z-1.000000 I18.818956 J-17.390251
G03 X23.008445 Y43.446543 Z-1.000000 I6.896655 J-5.708240
G03 X22.590456 Y41.485813 Z-1.000000 I4.898549 J-2.069193
G02 X22.526255 Y40.670505 Z-1.000000 I-7.028836 J0.143302
G02 X22.471945 Y40.623158 Z-1.000000 I-0.054310 J0.007475
G02 X22.375955 Y40.643696 Z-1.000000 I0.000012 J0.234649
G02 X21.137452 Y41.221230 Z-1.000000 I18.837735 J42.013633
G03 X19.876088 Y41.723075 Z-1.000000 I-4.084628 J-8.430401
G03 X18.863689 Y41.940013 Z-1.000000 I-1.643937 J-5.201092
G01 X17.822995 Y42.061281 Z-1.000000
G01 X17.692908 Y41.378326 Z-1.000000
G03 X17.995661 Y38.158634 Z-1.000000 I5.705512 J-1.087582
G03 X20.194874 Y35.037696 Z-1.000000 I7.532552 J2.972598
G03 X22.297529 Y33.600030 Z-1.000000 I7.051080 J8.056092
G03 X23.534688 Y33.296957 Z-1.000000 I1.237158 J2.373539
G02 X23.620731 Y33.081589 Z-1.000000 I0.000000 J-0.124872
G02 X22.716684 Y32.519192 Z-1.000000 I-1.813465 J1.907304
G02 X20.360327 Y32.025925 Z-1.000000 I-2.850021 J7.739825
G02 X20.006359 Y32.356584 Z-1.000000 I-0.019990 J0.333390
G03 X19.695782 Y33.510762 Z-1.000000 I-2.369795 J-0.018811
G03 X18.169158 Y35.581744 Z-1.000000 I-9.540047 J-5.434278
G03 X14.489167 Y38.097758 Z-1.000000 I-7.507552 J-7.031516
G03 X13.241845 Y37.557299 Z-1.000000 I-0.355990 J-0.887987
G03 X13.223933 Y36.546564 Z-1.000000 I1.358259 J-0.529597
G03 X14.430816 Y34.157405 Z-1.000000 I9.640715 J3.370596
G03 X16.052158 Y32.451857 Z-1.000000 I6.064380 J4.141548
G03 X18.068837 Y31.393061 Z-1.000000 I4.161823 J5.477014
G01 X19.047244 Y31.072253 Z-1.000000
G01 X18.957396 Y29.957145 Z-1.000000
G02 X18.786334 Y28.862656 Z-1.000000 I-7.414311 J0.598195
G02 X18.512014 Y28.049938 Z-1.000000 I-4.359015 J1.018664
G02 X18.161842 Y27.676617 Z-1.000000 I-0.716656 J0.321326
G02 X17.948672 Y27.752834 Z-1.000000 I-0.071652 J0.135812
G03 X15.907530 Y31.032209 Z-1.000000 I-11.301905 J-4.759602
G03 X13.596827 Y32.766137 Z-1.000000 I-5.180324 J-4.496877
G03 X12.279334 Y33.201036 Z-1.000000 I-2.579118 J-5.600166
G03 X10.678694 Y33.376332 Z-1.000000 I-1.701078 J-8.137220
G01 X9.043238 Y33.396173 Z-1.000000
G01 X9.090643 Y32.406191 Z-1.000000
G03 X9.260788 Y31.448961 Z-1.000000 I3.800000 J0.181706
G03 X9.813286 Y30.104316 Z-1.000000 I8.091502 J2.538864
G01 X10.489076 Y28.792976 Z-1.000000
G01 X9.330421 Y28.673361 Z-1.000000
G03 X7.031752 Y28.058178 Z-1.000000 I0.768765 J-7.474683
G03 X5.025981 Y26.747965 Z-1.000000 I3.105367 J-6.944324
G01 X4.098837 Y25.906260 Z-1.000000
G01 X4.760295 Y25.234328 Z-1.000000
G03 X6.747334 Y23.828132 Z-1.000000 I4.919072 J4.843937
G03 X9.300655 Y23.104434 Z-1.000000 I3.484534 J7.427886
G01 X10.495690 Y22.968282 Z-1.000000
G01 X9.918568 Y21.919321 Z-1.000000
G03 X8.870553 Y19.120733 Z-1.000000 I9.078300 J-4.995163
G03 X9.162300 Y18.430679 Z-1.000000 I0.635762 J-0.137908
G03 X10.893425 Y18.095162 Z-1.000000 I1.303583 J2.092241
G03 X14.274271 Y19.330812 Z-1.000000 I-1.781908 J10.118417
G03 X16.273140 Y21.036305 Z-1.000000 I-3.690022 J6.348874
G03 X17.730391 Y23.565249 Z-1.000000 I-7.018325 J5.728491
G01 X18.130573 Y24.624683 Z-1.000000
G01 X18.542331 Y23.664467 Z-1.000000
G02 X18.891822 Y22.686079 Z-1.000000 I-7.674696 J-3.293099
G02 X19.091341 Y21.761671 Z-1.000000 I-6.660108 J-1.921219
G02 X19.063466 Y20.920912 Z-1.000000 I-2.358002 J-0.342663
G02 X18.863689 Y20.697276 Z-1.000000 I-0.295858 J0.063244
G03 X15.221865 Y18.464825 Z-1.000000 I3.016778 J-9.008008
G03 X13.371931 Y15.300326 Z-1.000000 I4.903234 J-4.989356
G03 X13.281742 Y14.470459 Z-1.000000 I2.598794 J-0.702270
G03 X13.426502 Y14.146641 Z-1.000000 I0.486162 J0.023069
G03 X13.753372 Y14.004465 Z-1.000000 I0.348292 J0.353905
G03 X14.597283 Y14.095926 Z-1.000000 I0.121632 J2.816811
G03 X17.460731 Y15.531588 Z-1.000000 I-2.008801 J7.580005
G03 X19.399471 Y17.904267 Z-1.000000 I-4.456109 J5.619554
G03 X19.957518 Y19.115593 Z-1.000000 I-15.607923 J7.924636
G03 X20.008012 Y19.368848 Z-1.000000 I-0.609850 J0.253255
G02 X20.396810 Y19.738055 Z-1.000000 I0.369701 J0.000000
G02 X22.936619 Y19.217263 Z-1.000000 I-0.446399 J-8.630503
G02 X23.278752 Y18.720708 Z-1.000000 I-0.180659 J-0.490621
G02 X22.925595 Y18.249879 Z-1.000000 I-0.497969 J0.005652
G03 X21.007921 Y17.329830 Z-1.000000 I2.038202 J-6.706808
G03 X19.395061 Y15.836659 Z-1.000000 I4.227303 J-6.183808
G03 X18.191121 Y13.534317 Z-1.000000 I5.230945 J-4.201319
G03 X17.776142 Y10.349849 Z-1.000000 I9.826086 J-2.899742
G01 X17.794885 Y9.679035 Z-1.000000
G01 X18.849359 Y9.801943 Z-1.000000
G03 X19.875716 Y10.021236 Z-1.000000 I-0.643980 J5.525499
G03 X21.137454 Y10.522400 Z-1.000000 I-2.789902 J8.862763
G02 X22.376058 Y11.099884 Z-1.000000 I20.038650 J-41.362427
G02 X22.469742 Y11.119921 Z-1.000000 I0.093683 J-0.208993
G02 X22.525306 Y11.073168 Z-1.000000 I0.000000 J-0.056395
G02 X22.678101 Y9.921013 Z-1.000000 I-14.325788 J-2.486044
G03 X23.297421 Y7.665791 Z-1.000000 I6.645295 J0.612256
G03 X24.664681 Y5.745563 Z-1.000000 I6.126244 J2.915191
G01 X24.664681 Y5.745563 Z-1.000000
G03 X25.452540 Y5.011463 Z-1.000000 I13.812012 J14.033664
G03 X25.530089 Y4.982152 Z-1.000000 I0.077548 J0.087930
G03 X25.604188 Y5.014928 Z-1.000000 I0.000000 J0.100149
G03 X26.521725 Y6.072433 Z-1.000000 I-22.286301 J20.263355
G03 X27.805064 Y8.169837 Z-1.000000 I-6.677800 J5.527268
G03 X28.273487 Y10.138747 Z-1.000000 I-5.391860 J2.322952
G02 X28.600584 Y10.903230 Z-1.000000 I1.230657 J-0.074340
G02 X29.025344 Y10.948499 Z-1.000000 I0.238377 J-0.221298
G03 X30.391608 Y10.232982 Z-1.000000 I3.469064 J4.961914
G03 X32.091203 Y9.812978 Z-1.000000 I2.709485 J7.315446
G01 X33.085596 Y9.682902 Z-1.000000
G01 X33.085596 Y11.186074 Z-1.000000
G03 X31.635742 Y15.630865 Z-1.000000 I-7.538085 J-0.000000
G03 X27.904724 Y18.282416 Z-1.000000 I-5.835282 J-4.260122
G02 X27.168197 Y18.604090 Z-1.000000 I1.009154 J3.314663
G02 X27.116486 Y18.742128 Z-1.000000 I0.058739 J0.100709
G02 X27.491034 Y19.117580 Z-1.000000 I0.567837 J-0.191920
G02 X29.074634 Y19.516746 Z-1.000000 I3.237516 J-9.503241
G02 X30.621279 Y19.626613 Z-1.000000 I1.352424 J-8.097302
G02 X30.872466 Y19.369412 Z-1.000000 I-0.006087 J-0.257201
G03 X31.260012 Y17.981773 Z-1.000000 I2.678090 J0.000012
G03 X32.970393 Y15.906678 Z-1.000000 I7.977266 J4.832766
G03 X36.214890 Y13.894972 Z-1.000000 I7.095156 J7.820900
G03 X37.456733 Y14.149407 Z-1.000000 I0.424763 J1.084626
G03 X37.588455 Y14.478347 Z-1.000000 I-0.309944 J0.314959
G03 X37.410431 Y15.620045 Z-1.000000 I-4.705191 J-0.148945
G03 X35.781903 Y18.480345 Z-1.000000 I-6.662028 J-1.899307
G03 X32.947242 Y20.339551 Z-1.000000 I-5.337043 J-5.046634
G02 X31.993435 Y20.715044 Z-1.000000 I6.358322 J17.550204
G02 X31.827723 Y20.816351 Z-1.000000 I0.261108 J0.613291
G02 X31.587337 Y21.493640 Z-1.000000 I0.451222 J0.541454
G02 X32.430753 Y23.886621 Z-1.000000 I8.619853 J-1.692979
G01 X32.744395 Y24.483036 Z-1.000000
G01 X32.942281 Y23.989697 Z-1.000000
G03 X34.909594 Y20.753756 Z-1.000000 I10.728942 J4.306744
G03 X37.239554 Y18.997892 Z-1.000000 I5.200400 J4.476906
G03 X38.602097 Y18.545349 Z-1.000000 I2.712287 J5.888828
G03 X40.201787 Y18.367303 Z-1.000000 I1.697279 J7.974160
G01 X41.837242 Y18.347463 Z-1.000000
G01 X41.788184 Y19.337447 Z-1.000000
G03 X41.620117 Y20.296390 Z-1.000000 I-3.937362 J-0.195873
G03 X41.082078 Y21.641527 Z-1.000000 I-8.333944 J-2.553308
G01 X40.425028 Y22.955074 Z-1.000000
G01 X41.433202 Y23.059253 Z-1.000000
G03 X43.796953 Y23.674388 Z-1.000000 I-0.830694 J8.041184
G03 X45.762445 Y24.921257 Z-1.000000 I-2.903224 J6.749053
G01 X46.789359 Y25.829659 Z-1.000000
G01 X46.124043 Y26.505449 Z-1.000000
G03 X44.105233 Y27.936648 Z-1.000000 I-5.024334 J-4.947746
G03 X41.556674 Y28.657393 Z-1.000000 I-3.442439 J-7.306254
G01 X40.388649 Y28.787481 Z-1.000000
G01 X41.056720 Y30.102131 Z-1.000000
G03 X41.633304 Y31.444930 Z-1.000000 I-10.079850 J5.123370
G03 X41.852124 Y32.343921 Z-1.000000 I-4.275463 J1.516802
G01 X41.980007 Y33.271617 Z-1.000000
G01 X41.253505 Y33.405562 Z-1.000000
G03 X38.387665 Y33.210572 Z-1.000000 I-1.051897 J-5.697527
G03 X35.390228 Y31.472450 Z-1.000000 I2.638499 J-8.003799
G03 X34.165530 Y30.063094 Z-1.000000 I5.094515 J-5.663811
G03 X33.152844 Y28.149173 Z-1.000000 I8.497761 J-5.721178
G01 X32.716833 Y27.059973 Z-1.000000
G01 X32.281373 Y28.015228 Z-1.000000
G02 X31.525813 Y30.695556 Z-1.000000 I8.333271 J3.795730
G02 X31.900483 Y31.119122 Z-1.000000 I0.374762 J0.045992
G03 X33.337814 Y31.488716 Z-1.000000 I-0.001357 J2.984927
G03 X35.499920 Y33.099089 Z-1.000000 I-4.748313 J8.631763
G03 X37.730680 Y36.495457 Z-1.000000 I-6.765711 J6.874543
G03 X37.301290 Y37.758510 Z-1.000000 I-0.969635 J0.374876
G03 X36.453670 Y37.858830 Z-1.000000 I-0.533571 J-0.877222
G03 X33.941082 Y36.679230 Z-1.000000 I3.323368 J-10.344632
G03 X32.311536 Y35.243226 Z-1.000000 I3.770200 J-5.920927
G03 X31.145318 Y33.312959 Z-1.000000 I5.818904 J-4.833068
G01 X30.686157 Y32.208325 Z-1.000000
G01 X29.716568 Y32.214392 Z-1.000000
G02 X27.073015 Y32.635921 Z-1.000000 I0.056070 J8.851728
G02 X26.982541 Y33.089722 Z-1.000000 I0.080701 J0.252009
G02 X27.167008 Y33.203622 Z-1.000000 I0.467889 J-0.551443
G02 X28.156629 Y33.590226 Z-1.000000 I6.878525 J-16.147600
G03 X31.732438 Y36.299666 Z-1.000000 I-2.493636 J7.005322
G03 X33.085594 Y40.553706 Z-1.000000 I-6.010328 J4.254041
G01 X33.085594 Y42.064589 Z-1.000000
G01 X32.031119 Y41.941667 Z-1.000000
G03 X31.004758 Y41.722364 Z-1.000000 I0.644153 J-5.526098
G03 X29.743025 Y41.221230 Z-1.000000 I2.790537 J-8.864821
G02 X28.504943 Y40.643236 Z-1.000000 I-20.671804 J42.664689
G02 X28.411289 Y40.623158 Z-1.000000 I-0.093654 J0.208393
G02 X28.355660 Y40.669934 Z-1.000000 I0.000003 J0.056470
G02 X28.202379 Y41.822603 Z-1.000000 I14.205562 J2.475574
G03 X27.625199 Y43.938207 Z-1.000000 I-6.290235 J-0.579570
G03 X26.269818 Y45.919787 Z-1.000000 I-6.852480 J-3.232705
G03 X25.456407 Y46.726044 Z-1.000000 I-13.490022 J-12.796273
G03 X25.366376 Y46.761492 Z-1.000000 I-0.090031 J-0.096607
G01 X25.366376 Y46.761492 Z-1.000000
G00 Z3.000000

(End cutting path id: path9558)


(Start cutting path id: path9558)
(Change tool to Cylindrical cutter)

G00 Z3.000000
G00 X36.083105 Y36.465342

G01 Z-1.000000 F100.0(Penetrate)
G02 X36.266136 Y36.164386 Z-1.000000 I0.000000 J-0.206135 F100.000000
G02 X34.948701 Y34.275916 Z-1.000000 I-7.817857 J4.050123
G02 X33.966158 Y33.365547 Z-1.000000 I-5.943878 J5.429711
G02 X33.031024 Y32.774956 Z-1.000000 I-3.390093 J4.332194
G01 X32.027814 Y32.274452 Z-1.000000
G01 X32.166718 Y32.820157 Z-1.000000
G02 X32.794611 Y34.156245 Z-1.000000 I3.794667 J-0.967715
G02 X34.056286 Y35.418035 Z-1.000000 I4.631413 J-3.369317
G02 X35.538442 Y36.332913 Z-1.000000 I6.748878 J-9.275543
G02 X36.083105 Y36.465342 Z-1.000000 I0.544663 J-1.053852
G01 X36.083105 Y36.465342 Z-1.000000
G00 Z3.000000

(End cutting path id: path9558)


(Start cutting path id: path9558)
(Change tool to Cylindrical cutter)

G00 Z3.000000
G00 X14.746662 Y36.424553

G01 Z-1.000000 F100.0(Penetrate)
G02 X14.955744 Y36.412123 Z-1.000000 I0.084127 J-0.349605 F100.000000
G02 X15.705777 Y36.078940 Z-1.000000 I-2.259950 J-6.098213
G02 X17.612624 Y34.649419 Z-1.000000 I-3.416793 J-6.544214
G02 X18.569340 Y33.099072 Z-1.000000 I-3.114680 J-2.992433
G02 X18.597938 Y32.635163 Z-1.000000 I-0.795862 J-0.281896
G02 X18.438702 Y32.508719 Z-1.000000 I-0.157415 J0.034752
G02 X16.551717 Y33.248323 Z-1.000000 I0.031471 J2.857272
G02 X14.751623 Y35.849084 Z-1.000000 I4.671716 J5.156826
G02 X14.657059 Y36.307128 Z-1.000000 I1.266721 J0.500300
G02 X14.746662 Y36.424553 Z-1.000000 I0.116985 J0.003631
G01 X14.746662 Y36.424553 Z-1.000000
G00 Z3.000000

(End cutting path id: path9558)


(Start cutting path id: path9558)
(Change tool to Cylindrical cutter)

G00 Z3.000000
G00 X25.402205 Y32.651484

G01 Z-1.000000 F100.0(Penetrate)
G01 X26.276433 Y32.093105 Z-1.000000 F100.000000
G03 X28.193338 Y31.205432 Z-1.000000 I4.225198 J6.610612
G03 X30.082575 Y30.921219 Z-1.000000 I1.889237 J6.137020
G02 X30.422552 Y30.710889 Z-1.000000 I0.000000 J-0.379935
G02 X30.720329 Y29.643503 Z-1.000000 I-2.615957 J-1.305024
G03 X30.966596 Y28.409716 Z-1.000000 I5.434243 J0.443217
G03 X31.556523 Y27.056098 Z-1.000000 I7.154510 J2.312682
G01 X32.288537 Y25.745309 Z-1.000000
G01 X31.865756 Y25.161021 Z-1.000000
G03 X30.965934 Y23.414889 Z-1.000000 I5.307577 J-3.840034
G03 X30.671271 Y21.619463 Z-1.000000 I5.322566 J-1.795426
G02 X30.455526 Y21.038193 Z-1.000000 I-0.890915 J0.000000
G02 X29.985008 Y20.822405 Z-1.000000 I-0.470518 J0.405080
G03 X28.034757 Y20.523674 Z-1.000000 I0.000000 J-6.515432
G03 X26.283047 Y19.660993 Z-1.000000 I1.909773 J-6.087671
G02 X25.412148 Y19.354946 Z-1.000000 I-0.981213 J1.400026
G02 X24.736337 Y19.561224 Z-1.000000 I-0.064572 J0.998637
G03 X23.368401 Y20.309979 Z-1.000000 I-3.060981 J-3.968300
G03 X21.410304 Y20.755157 Z-1.000000 I-2.808921 J-7.826035
G01 X20.260469 Y20.873668 Z-1.000000
G01 X20.155738 Y22.009172 Z-1.000000
G03 X19.780772 Y23.646246 Z-1.000000 I-6.292491 J-0.579794
G03 X18.888494 Y25.391427 Z-1.000000 I-8.054629 J-3.017485
G02 X18.770092 Y25.902590 Z-1.000000 I0.621472 J0.413247
G02 X19.061024 Y26.697258 Z-1.000000 I1.927535 J-0.255091
G03 X19.945928 Y28.565026 Z-1.000000 I-6.821154 J4.375206
G03 X20.209206 Y30.225036 Z-1.000000 I-5.101674 J1.660010
G02 X20.448351 Y30.640765 Z-1.000000 I0.480924 J-0.000000
G02 X21.695282 Y31.089342 Z-1.000000 I1.846056 J-3.174213
G03 X23.136650 Y31.456624 Z-1.000000 I-1.419166 J8.581290
G03 X24.291506 Y31.993333 Z-1.000000 I-2.099077 J6.027488
G01 X25.402205 Y32.651484 Z-1.000000
G01 X25.402205 Y32.651484 Z-1.000000
G00 Z3.000000

(End cutting path id: path9558)


(Start cutting path id: path9558)
(Change tool to Cylindrical cutter)

G00 Z3.000000
G00 X25.530638 Y29.827608

G01 Z-1.000000 F100.0(Penetrate)
G03 X23.800684 Y29.507622 Z-1.000000 I-0.126255 J-4.153785 F100.000000
G03 X22.134601 Y28.268771 Z-1.000000 I1.663661 J-3.977143
G03 X21.697656 Y27.458989 Z-1.000000 I1.848378 J-1.520129
G03 X21.462118 Y26.104702 Z-1.000000 I5.095503 J-1.583837
G03 X21.557111 Y24.723031 Z-1.000000 I6.207780 J-0.267302
G03 X21.861749 Y23.910314 Z-1.000000 I2.407074 J0.438813
G03 X22.778033 Y22.861812 Z-1.000000 I3.318676 J1.975564
G03 X24.144332 Y22.097366 Z-1.000000 I3.033333 J3.818278
G03 X27.759594 Y22.596185 Z-1.000000 I1.335494 J3.671293
G03 X29.464110 Y25.920044 Z-1.000000 I-2.388555 J3.323859
G03 X28.155551 Y28.797900 Z-1.000000 I-3.818851 J0.000000
G03 X25.530638 Y29.827608 Z-1.000000 I-2.752108 J-3.155080
G01 X25.530638 Y29.827608 Z-1.000000
G00 Z3.000000

(End cutting path id: path9558)


(Start cutting path id: path9558)
(Change tool to Cylindrical cutter)

G00 Z3.000000
G00 X32.143568 Y19.367197

G01 Z-1.000000 F100.0(Penetrate)
G02 X32.574026 Y19.426816 Z-1.000000 I0.255286 J-0.259400 F100.000000
G02 X34.601988 Y18.017271 Z-1.000000 I-5.657451 J-10.303195
G02 X36.002496 Y16.407904 Z-1.000000 I-4.925578 J-5.700407
G02 X36.304692 Y15.384115 Z-1.000000 I-1.583112 J-1.023788
G02 X35.933957 Y15.167254 Z-1.000000 I-0.248794 J0.000000
G02 X33.683663 Y16.858063 Z-1.000000 I5.235220 J9.310402
G02 X32.082775 Y18.868713 Z-1.000000 I7.409819 J7.542371
G02 X32.143568 Y19.367197 Z-1.000000 I0.343746 J0.211028
G01 X32.143568 Y19.367197 Z-1.000000
G00 Z3.000000

(End cutting path id: path9558)


(Start cutting path id: path9558)
(Change tool to Cylindrical cutter)

G00 Z3.000000
G00 X18.770534 Y19.334123

G01 Z-1.000000 F100.0(Penetrate)
G02 X18.830811 Y18.868731 Z-1.000000 I-0.266854 J-0.271162 F100.000000
G02 X17.324696 Y16.898853 Z-1.000000 I-9.135787 J5.424265
G02 X16.656038 Y16.283254 Z-1.000000 I-5.728500 J5.551304
G02 X16.085013 Y15.881862 Z-1.000000 I-2.977498 J3.628955
G02 X14.749438 Y15.285594 Z-1.000000 I-3.175591 J5.319070
G02 X14.577991 Y15.413328 Z-1.000000 I-0.039264 J0.126226
G02 X14.910245 Y16.478006 Z-1.000000 I1.944760 J-0.022720
G02 X16.425113 Y18.152317 Z-1.000000 I6.607365 J-4.455690
G02 X18.333386 Y19.402580 Z-1.000000 I6.451077 J-7.764832
G02 X18.770534 Y19.334123 Z-1.000000 I0.170842 J-0.339032
G01 X18.770534 Y19.334123 Z-1.000000
G00 Z3.000000

(End cutting path id: path9558)


(Footer)
M5
G00 X0.0000 Y0.0000
M2
(Using default footer. To add your own footer create file "footer" in the output dir.)
(end)
%