%
(Header)
(Generated by gcodetools from Inkscape.)
(Using default header. To add your own header create file "header" in the output dir.)
M3
(Header end.)
G21 (All units in mm)

(Start cutting path id: path3347)
(Change tool to Cylindrical cutter)

G00 Z3.000000
G00 X98.081784 Y12.126019

G01 Z-1.000000 F100.0(Penetrate)
G02 X92.317289 Y20.303029 Z-1.000000 I20.366100 J20.477745 F100.000000
G02 X89.699231 Y29.933225 Z-1.000000 I26.000267 J12.239383
G03 X89.052630 Y34.850149 Z-1.000000 I-62.008899 J-5.653524
G03 X88.818244 Y35.047611 Z-1.000000 I-0.234386 J-0.040376
G03 X88.423354 Y34.962255 Z-1.000000 I-0.000000 J-0.956132
G03 X83.197418 Y32.498614 Z-1.000000 I80.752922 J-178.069581
G02 X77.870410 Y30.360334 Z-1.000000 I-17.164476 J35.056538
G02 X73.541154 Y29.425434 Z-1.000000 I-7.047769 J22.144978
G01 X69.091026 Y28.901254 Z-1.000000
G01 X69.012345 Y31.763320 Z-1.000000
G02 X70.765509 Y45.356516 Z-1.000000 I44.154766 J1.214854
G02 X75.843407 Y55.162969 Z-1.000000 I27.527444 J-8.036114
G02 X82.660422 Y61.537070 Z-1.000000 I24.872382 J-19.768274
G02 X90.742438 Y65.453048 Z-1.000000 I16.718812 J-24.207175
G03 X94.281436 Y66.809851 Z-1.000000 I-8.171572 J26.608066
G03 X94.659797 Y67.394973 Z-1.000000 I-0.274827 J0.592605
G03 X94.299731 Y68.002015 Z-1.000000 I-0.678638 J0.007774
G03 X90.789704 Y69.579696 Z-1.000000 I-13.655564 J-25.687521
G03 X80.085553 Y71.797254 Z-1.000000 I-12.592525 J-33.840865
G03 X78.430840 Y70.226930 Z-1.000000 I-0.082238 J-1.570324
G02 X78.217137 Y69.145809 Z-1.000000 I-2.841536 J-0.000000
G02 X75.860947 Y63.980353 Z-1.000000 I-69.751305 J28.696503
G02 X67.659021 Y53.845611 Z-1.000000 I-27.330631 J13.732122
G02 X55.595828 Y47.738360 Z-1.000000 I-20.572997 J25.668907
G02 X52.036421 Y47.349302 Z-1.000000 I-3.042952 J11.362664
G02 X50.654058 Y47.955544 Z-1.000000 I0.091782 J2.088447
G02 X50.042953 Y49.333667 Z-1.000000 I1.466993 J1.475065
G02 X50.424554 Y52.875132 Z-1.000000 I11.601523 J0.541200
G02 X58.258518 Y66.397641 Z-1.000000 I28.951267 J-7.741798
G02 X73.601648 Y75.892019 Z-1.000000 I28.149237 J-28.345194
G03 X74.444492 Y76.840327 Z-1.000000 I-0.410794 J1.213816
G03 X74.562790 Y80.430217 Z-1.000000 I-10.047662 J2.127997
G03 X73.720190 Y84.373679 Z-1.000000 I-29.510322 J-4.243723
G03 X72.245477 Y88.544482 Z-1.000000 I-34.506197 J-9.854588
G01 X70.505893 Y92.641355 Z-1.000000
G01 X68.817671 Y88.122260 Z-1.000000
G02 X62.655821 Y77.321735 Z-1.000000 I-36.345064 J13.577392
G02 X54.232288 Y70.063504 Z-1.000000 I-24.135615 J19.493484
G02 X39.966023 Y64.798320 Z-1.000000 I-21.809234 J37.133005
G02 X32.659955 Y66.225614 Z-1.000000 I-1.807579 J10.160203
G02 X31.423341 Y69.160171 Z-1.000000 I1.480762 J2.351820
G02 X35.850277 Y81.103803 Z-1.000000 I43.483095 J-9.324870
G01 X38.285813 Y85.575998 Z-1.000000
G01 X33.242247 Y86.158174 Z-1.000000
G02 X22.479806 Y89.238766 Z-1.000000 I3.934509 J34.085988
G02 X14.080988 Y95.240850 Z-1.000000 I12.497472 J26.365270
G01 X11.288889 Y98.106052 Z-1.000000
G01 X15.203302 Y101.694558 Z-1.000000
G02 X23.678353 Y107.287450 Z-1.000000 I21.713786 J-23.685774
G02 X33.367371 Y109.907674 Z-1.000000 I12.935109 J-28.607169
G01 X38.258637 Y110.416128 Z-1.000000
G01 X35.407304 Y116.009646 Z-1.000000
G02 X33.075506 Y121.741009 Z-1.000000 I32.456920 J16.545080
G02 X32.356191 Y125.825385 Z-1.000000 I15.628246 J4.857880
G01 X32.156378 Y130.047608 Z-1.000000
G01 X39.058932 Y129.963714 Z-1.000000
G02 X45.810432 Y129.216576 Z-1.000000 I-0.421613 J-34.688361
G02 X51.372903 Y127.361295 Z-1.000000 I-5.345282 J-25.292426
G02 X61.108176 Y119.985848 Z-1.000000 I-12.203145 J-26.220422
G02 X69.738486 Y105.980944 Z-1.000000 I-39.799074 J-34.187177
G03 X70.393032 Y104.647314 Z-1.000000 I11.173844 J4.656689
G03 X70.696050 Y104.559560 Z-1.000000 I0.196646 J0.111982
G03 X71.012011 Y104.885731 Z-1.000000 I-0.347759 J0.652994
G03 X72.116942 Y107.247608 Z-1.000000 I-58.532844 J28.822169
G03 X73.273821 Y110.712175 Z-1.000000 I-17.537991 J7.781673
G03 X73.995379 Y115.381749 Z-1.000000 I-31.289224 J7.225453
G01 X74.375163 Y120.138111 Z-1.000000
G01 X70.247203 Y121.507179 Z-1.000000
G02 X61.748649 Y126.013250 Z-1.000000 I9.093287 J27.417420
G02 X54.893947 Y133.295737 Z-1.000000 I19.016228 J24.766451
G02 X49.799454 Y143.481560 Z-1.000000 I36.247391 J24.496255
G02 X49.874932 Y147.795245 Z-1.000000 I5.932976 J2.053691
G02 X51.826464 Y149.007664 Z-1.000000 I1.778778 J-0.686334
G02 X58.494868 Y147.390782 Z-1.000000 I-2.120238 J-23.303838
G02 X65.106418 Y143.994347 Z-1.000000 I-15.611013 J-38.521917
G02 X70.668899 Y139.368496 Z-1.000000 I-14.960669 J-23.647169
G02 X77.107976 Y130.544158 Z-1.000000 I-34.301598 J-31.791162
G02 X78.422537 Y125.614275 Z-1.000000 I-8.887175 J-5.009985
G03 X79.928835 Y124.207680 Z-1.000000 I1.420284 J0.011126
G03 X89.861484 Y126.308282 Z-1.000000 I-2.087227 J34.402859
G03 X93.682894 Y128.708529 Z-1.000000 I-3.873100 J10.408465
G03 X93.313804 Y129.625386 Z-1.000000 I-0.369090 J0.384138
G02 X88.099967 Y130.914454 Z-1.000000 I0.000000 J11.188622
G02 X79.218051 Y137.049267 Z-1.000000 I21.061389 J39.989429
G02 X69.941636 Y150.337843 Z-1.000000 I22.845989 J25.830303
G02 X68.660417 Y164.090031 Z-1.000000 I23.331512 J9.109451
G01 X69.209714 Y167.002209 Z-1.000000
G01 X73.600533 Y166.485020 Z-1.000000
G02 X77.871314 Y165.560223 Z-1.000000 I-2.666602 J-22.638346
G02 X83.197418 Y163.418831 Z-1.000000 I-11.971468 J-37.469906
G03 X88.423795 Y160.957161 Z-1.000000 I84.023281 J171.611116
G03 X88.828488 Y160.869831 Z-1.000000 I0.404693 J0.894020
G03 X89.057431 Y161.069809 Z-1.000000 I0.000000 J0.231040
G03 X89.327680 Y164.549311 Z-1.000000 I-30.173669 J4.093803
G02 X91.095580 Y172.920598 Z-1.000000 I22.890840 J-0.461908
G02 X96.791501 Y182.397750 Z-1.000000 I35.278880 J-14.752928
G02 X100.676713 Y186.885662 Z-1.000000 I84.155071 J-68.927862
G02 X101.044294 Y187.047607 Z-1.000000 I0.367580 J-0.336193
G02 X101.423469 Y186.897230 Z-1.000000 I0.000000 J-0.553234
G02 X104.857347 Y183.458720 Z-1.000000 I-53.820319 J-57.181698
G02 X110.572480 Y175.018360 Z-1.000000 I-23.533497 J-22.090085
G02 X113.012373 Y165.984214 Z-1.000000 I-24.651259 J-11.504228
G03 X113.658944 Y161.067293 Z-1.000000 I62.018355 J5.654386
G03 X113.893327 Y160.869831 Z-1.000000 I0.234383 J0.040373
G03 X114.288275 Y160.955200 Z-1.000000 I0.000000 J0.956267
G03 X119.514152 Y163.418831 Z-1.000000 I-80.758715 J178.080576
G02 X124.841186 Y165.557105 Z-1.000000 I17.165257 J-35.058723
G02 X129.170417 Y166.492011 Z-1.000000 I7.047834 J-22.145068
G01 X133.620545 Y167.016188 Z-1.000000
G01 X133.620545 Y160.574290 Z-1.000000
G02 X127.886214 Y142.391634 Z-1.000000 I-31.694330 J0.000000
G02 X112.818275 Y130.874172 Z-1.000000 I-25.688856 J17.992745
G03 X108.643514 Y129.224925 Z-1.000000 I24.709844 J-68.656812
G03 X107.864033 Y128.738582 Z-1.000000 I1.210188 J-2.807439
G03 X108.252513 Y126.801722 Z-1.000000 I0.736857 J-0.859596
G03 X119.402725 Y125.007088 Z-1.000000 I11.386639 J35.210229
G01 X123.494634 Y124.980954 Z-1.000000
G01 X125.432234 Y129.692550 Z-1.000000
G02 X130.362271 Y137.935313 Z-1.000000 I29.944322 J-12.314124
G02 X137.230082 Y144.048573 Z-1.000000 I22.923929 J-18.839020
G02 X147.833947 Y149.076663 Z-1.000000 I24.682818 J-38.358793
G02 X151.410772 Y148.650170 Z-1.000000 I1.326437 J-4.087659
G02 X152.428264 Y146.612429 Z-1.000000 I-1.128883 J-1.836577
G02 X150.939433 Y140.237145 Z-1.000000 I-24.043477 J2.253428
G02 X147.924608 Y134.038895 Z-1.000000 I-36.909565 J14.120461
G02 X143.809430 Y128.780952 Z-1.000000 I-23.141357 J13.872434
G02 X134.675606 Y121.909075 Z-1.000000 I-29.369011 J29.530020
G02 X128.619609 Y120.337176 Z-1.000000 I-6.063042 J10.907053
G03 X127.032765 Y118.545116 Z-1.000000 I0.000794 J-1.599297
G03 X130.226851 Y107.099901 Z-1.000000 I39.123924 J4.750247
G01 X132.063412 Y103.025397 Z-1.000000
G01 X133.903317 Y107.669844 Z-1.000000
G02 X138.182122 Y115.839966 Z-1.000000 I40.807489 J-16.165944
G02 X143.345536 Y121.842694 Z-1.000000 I26.923558 J-17.936959
G02 X156.010479 Y129.258065 Z-1.000000 I23.895472 J-26.288711
G02 X168.090473 Y130.087943 Z-1.000000 I7.644608 J-22.942330
G01 X171.156069 Y129.515972 Z-1.000000
G01 X170.617914 Y125.559574 Z-1.000000
G02 X169.693470 Y121.722933 Z-1.000000 I-19.341510 J2.630669
G02 X167.260344 Y115.997976 Z-1.000000 I-45.765239 J16.070856
G01 X164.440891 Y110.392774 Z-1.000000
G01 X169.369936 Y109.838154 Z-1.000000
G02 X180.112702 Y106.769940 Z-1.000000 I-3.776676 J-33.564288
G02 X188.646236 Y100.660550 Z-1.000000 I-12.812446 J-26.910766
G01 X191.453971 Y97.779304 Z-1.000000
G01 X187.119295 Y93.903295 Z-1.000000
G02 X178.813542 Y88.582384 Z-1.000000 I-20.655977 J23.100297
G02 X168.848460 Y85.963839 Z-1.000000 I-13.475107 J31.009869
G01 X164.594516 Y85.519821 Z-1.000000
G01 X167.366990 Y79.917050 Z-1.000000
G02 X169.637172 Y74.183693 Z-1.000000 I-33.533645 J-16.594118
G02 X170.347364 Y70.092064 Z-1.000000 I-16.240045 J-4.926268
G01 X170.555193 Y65.869842 Z-1.000000
G01 X163.652675 Y65.953696 Z-1.000000
G02 X156.903942 Y66.713035 Z-1.000000 I0.413728 J34.046881
G02 X151.150284 Y68.643802 Z-1.000000 I5.720069 J26.584026
G02 X141.334658 Y76.111985 Z-1.000000 I12.206732 J26.228182
G02 X133.016431 Y89.931096 Z-1.000000 I37.663602 J32.084172
G01 X132.179978 Y92.036846 Z-1.000000
G01 X130.856697 Y89.491842 Z-1.000000
G03 X127.293728 Y79.281058 Z-1.000000 I33.488845 J-17.412685
G03 X128.311677 Y76.398190 Z-1.000000 I2.961138 J-0.575567
G03 X129.011913 Y75.965732 Z-1.000000 I1.813551 J2.153362
G03 X133.035950 Y74.364153 Z-1.000000 I30.835774 J71.620126
G02 X144.978695 Y66.458512 Z-1.000000 I-10.631295 J-29.033828
G02 X151.873050 Y54.238002 Z-1.000000 I-21.665634 J-20.277965
G02 X152.624275 Y49.365410 Z-1.000000 I-19.494309 J-5.499712
G02 X152.067326 Y47.965249 Z-1.000000 I-1.891194 J-0.058581
G02 X146.825559 Y46.887151 Z-1.000000 I-3.443971 J3.462842
G02 X133.134293 Y55.460993 Z-1.000000 I16.382029 J41.378357
G02 X125.921671 Y64.299281 Z-1.000000 I26.796410 J29.229754
G02 X124.280767 Y70.226941 Z-1.000000 I9.886194 J5.927660
G03 X123.211228 Y71.322702 Z-1.000000 I-1.096082 J0.000000
G03 X116.693222 Y70.856369 Z-1.000000 I-0.828539 J-34.204100
G03 X110.018377 Y69.157034 Z-1.000000 I6.972600 J-41.346568
G03 X108.429110 Y67.553741 Z-1.000000 I0.830435 J-2.412499
G03 X108.649692 Y66.963710 Z-1.000000 I0.474728 J-0.158771
G03 X111.755265 Y65.593592 Z-1.000000 I7.379916 J12.522981
G02 X127.475549 Y54.327829 Z-1.000000 I-8.949568 J-29.089208
G02 X133.620545 Y35.329379 Z-1.000000 I-26.296205 J-18.998450
G01 X133.620545 Y28.918932 Z-1.000000
G01 X129.424578 Y29.472514 Z-1.000000
G02 X122.257623 Y31.261815 Z-1.000000 I4.266090 J32.335689
G02 X116.486438 Y34.315066 Z-1.000000 I8.931714 J23.863424
G03 X114.673873 Y35.325611 Z-1.000000 I-5.633123 J-7.973030
G03 X114.024073 Y35.185273 Z-1.000000 I-0.225526 J-0.530296
G03 X113.663073 Y34.418486 Z-1.000000 I1.044723 J-0.960222
G03 X113.312578 Y30.861905 Z-1.000000 I45.971992 J-6.326022
G02 X111.332483 Y22.455468 Z-1.000000 I-25.240591 J1.508880
G02 X105.920069 Y13.519717 Z-1.000000 I-34.035669 J14.508480
G02 X102.045770 Y9.008803 Z-1.000000 I-98.443181 J80.630915
G02 X101.733701 Y8.869851 Z-1.000000 I-0.312069 J0.280961
G02 X101.407116 Y8.994306 Z-1.000000 I0.000000 J0.490727
G02 X98.081784 Y12.126047 Z-1.000000 I55.795607 J62.575968
G01 X98.081784 Y12.126019 Z-1.000000
G00 Z3.000000

(End cutting path id: path3347)


(Start cutting path id: path3347)
(Change tool to Cylindrical cutter)

G00 Z3.000000
G00 X61.873926 Y55.354852

G01 Z-1.000000 F100.0(Penetrate)
G03 X64.282428 Y57.065191 Z-1.000000 I-10.238869 J16.969383 F100.000000
G03 X67.106518 Y59.691902 Z-1.000000 I-21.555961 J26.007253
G03 X73.464874 Y68.093851 Z-1.000000 I-32.668630 J31.329576
G03 X73.208453 Y70.078577 Z-1.000000 I-1.407782 J0.827046
G03 X71.362699 Y70.368636 Z-1.000000 I-1.123139 J-1.129309
G03 X63.309890 Y65.039110 Z-1.000000 I19.302757 J-37.914668
G03 X56.921275 Y57.906879 Z-1.000000 I21.755383 J-25.914518
G03 X55.513840 Y53.357370 Z-1.000000 I6.962092 J-4.646249
G03 X56.242620 Y52.815755 Z-1.000000 I0.560755 J-0.006586
G03 X61.873926 Y55.354852 Z-1.000000 I-7.775689 J24.759432
G01 X61.873926 Y55.354852 Z-1.000000
G00 Z3.000000

(End cutting path id: path3347)


(Start cutting path id: path3347)
(Change tool to Cylindrical cutter)

G00 Z3.000000
G00 X147.205712 Y53.231234

G01 Z-1.000000 F100.0(Penetrate)
G03 X145.925893 Y57.606204 Z-1.000000 I-8.117670 J0.000000 F100.000000
G03 X140.019522 Y64.462885 Z-1.000000 I-26.952036 J-17.244361
G03 X131.461997 Y70.471993 Z-1.000000 I-32.619019 J-37.354591
G03 X129.644880 Y70.219541 Z-1.000000 I-0.740651 J-1.334803
G03 X129.386020 Y68.093808 Z-1.000000 I1.220600 J-1.227266
G03 X136.143242 Y59.519052 Z-1.000000 I38.451667 J23.351474
G03 X145.632369 Y52.315773 Z-1.000000 I31.777111 J32.009268
G03 X147.205712 Y53.231234 Z-1.000000 I0.520338 J0.915461
G01 X147.205712 Y53.231234 Z-1.000000
G00 Z3.000000

(End cutting path id: path3347)


(Start cutting path id: path3347)
(Change tool to Cylindrical cutter)

G00 Z3.000000
G00 X104.911156 Y71.471378

G01 Z-1.000000 F100.0(Penetrate)
G02 X112.311539 Y75.152814 Z-1.000000 I15.513339 J-21.905942 F100.000000
G02 X120.535574 Y76.425388 Z-1.000000 I8.224035 J-25.937708
G03 X122.516900 Y77.340180 Z-1.000000 I0.000000 J2.603050
G03 X123.431696 Y79.824261 Z-1.000000 I-2.915299 J2.484081
G02 X124.676677 Y87.487954 Z-1.000000 I24.210071 J0.000000
G02 X128.471699 Y94.927149 Z-1.000000 I26.569390 J-8.866486
G01 X130.256504 Y97.420023 Z-1.000000
G01 X127.167471 Y103.009217 Z-1.000000
G02 X124.678867 Y108.779373 Z-1.000000 I28.185604 J15.577872
G02 X123.638805 Y114.045229 Z-1.000000 I22.381515 J7.156225
G03 X122.378551 Y118.602504 Z-1.000000 I-12.525760 J-1.010942
G03 X120.946594 Y119.492053 Z-1.000000 I-1.431957 J-0.707775
G02 X112.980194 Y120.702937 Z-1.000000 I0.000000 J26.810904
G02 X104.884271 Y124.490457 Z-1.000000 I9.801711 J31.497790
G01 X101.195618 Y126.872898 Z-1.000000
G01 X96.508223 Y124.065688 Z-1.000000
G02 X91.630524 Y121.775654 Z-1.000000 I-13.775931 J23.002606
G02 X85.550390 Y120.210597 Z-1.000000 I-12.079652 J34.335615
G03 X80.296551 Y118.301871 Z-1.000000 I2.532949 J-15.157096
G03 X79.279911 Y116.525099 Z-1.000000 I1.044306 J-1.776772
G02 X78.166738 Y109.439455 Z-1.000000 I-23.107585 J-0.000000
G02 X74.432925 Y101.479751 Z-1.000000 I-33.046396 J10.646114
G03 X73.204457 Y98.089715 Z-1.000000 I7.041023 J-4.469101
G03 X73.706065 Y95.909296 Z-1.000000 I3.183865 J-0.415455
G02 X77.469874 Y88.472847 Z-1.000000 I-30.751256 J-20.234844
G02 X79.054399 Y81.485788 Z-1.000000 I-25.503690 J-9.456922
G01 X79.495862 Y76.643532 Z-1.000000
G01 X84.349066 Y76.139037 Z-1.000000
G02 X92.604879 Y74.242504 Z-1.000000 I-3.591913 J-34.553477
G02 X98.384039 Y71.047215 Z-1.000000 I-7.200170 J-19.846472
G03 X101.236413 Y70.169227 Z-1.000000 I2.580210 J3.310153
G03 X104.911156 Y71.471378 Z-1.000000 I-0.464438 J7.146914
G01 X104.911156 Y71.471378 Z-1.000000
G00 Z3.000000

(End cutting path id: path3347)


(Start cutting path id: path3347)
(Change tool to Cylindrical cutter)

G00 Z3.000000
G00 X95.885926 Y81.863068

G01 Z-1.000000 F100.0(Penetrate)
G02 X90.127642 Y85.116234 Z-1.000000 I7.074542 J19.245155 F100.000000
G02 X86.252197 Y89.593671 Z-1.000000 I10.288025 J12.820713
G02 X84.967546 Y93.056583 Z-1.000000 I9.031026 J5.320022
G02 X84.567390 Y98.952301 Z-1.000000 I26.404728 J4.753588
G02 X85.562146 Y104.732917 Z-1.000000 I22.984168 J-0.979327
G02 X87.404708 Y108.181749 Z-1.000000 I9.771776 J-3.004021
G02 X106.869607 Y113.932238 Z-1.000000 I13.931235 J-11.337276
G02 X118.337235 Y98.164639 Z-1.000000 I-5.106145 J-15.767600
G02 X111.104429 Y83.974708 Z-1.000000 I-17.535906 J-0.000000
G02 X95.885926 Y81.863068 Z-1.000000 I-9.588021 J13.205087
G01 X95.885926 Y81.863068 Z-1.000000
G00 Z3.000000

(End cutting path id: path3347)


(Start cutting path id: path3347)
(Change tool to Cylindrical cutter)

G00 Z3.000000
G00 X141.482446 Y133.800001

G01 Z-1.000000 F100.0(Penetrate)
G03 X147.049774 Y141.860793 Z-1.000000 I-27.903320 J25.224900 F100.000000
G03 X146.270304 Y143.136499 Z-1.000000 I-0.779470 J0.399721
G03 X143.974592 Y142.573298 Z-1.000000 I0.000000 J-4.960475
G03 X137.716046 Y138.670515 Z-1.000000 I22.351240 J-42.812225
G03 X132.398579 Y133.298306 Z-1.000000 I14.364012 J-19.535390
G03 X129.743364 Y127.591583 Z-1.000000 I13.647284 J-9.820854
G01 X129.156040 Y125.264271 Z-1.000000
G01 X133.390071 Y127.398117 Z-1.000000
G03 X137.332599 Y129.914365 Z-1.000000 I-10.414252 J20.664095
G03 X141.482446 Y133.800001 Z-1.000000 I-21.211600 J26.812757
G01 X141.482446 Y133.800001 Z-1.000000
G00 Z3.000000

(End cutting path id: path3347)


(Start cutting path id: path3347)
(Change tool to Cylindrical cutter)

G00 Z3.000000
G00 X72.359780 Y128.781841

G01 Z-1.000000 F100.0(Penetrate)
G03 X68.310793 Y135.404347 Z-1.000000 I-17.436529 J-6.111635 F100.000000
G03 X60.273444 Y141.488397 Z-1.000000 I-22.578614 J-21.476628
G03 X57.107534 Y142.910451 Z-1.000000 I-12.797059 J-24.254858
G03 X56.225742 Y142.963554 Z-1.000000 I-0.527126 J-1.405332
G03 X55.846663 Y142.465631 Z-1.000000 I0.117363 J-0.482613
G03 X56.246737 Y140.509168 Z-1.000000 I5.868951 J0.180995
G03 X58.740608 Y136.151138 Z-1.000000 I15.944937 J6.231879
G03 X63.326523 Y131.210711 Z-1.000000 I32.625716 J25.685945
G03 X68.699259 Y127.160130 Z-1.000000 I23.865776 J26.067308
G03 X71.806348 Y126.263654 Z-1.000000 I3.174604 J5.170182
G03 X72.479697 Y126.798944 Z-1.000000 I0.007590 J0.681604
G03 X72.359780 Y128.781841 Z-1.000000 I-3.550715 J0.780343
G01 X72.359780 Y128.781841 Z-1.000000
G00 Z3.000000

(End cutting path id: path3347)


(Footer)
M5
G00 X0.0000 Y0.0000
M2
(Using default footer. To add your own footer create file "footer" in the output dir.)
(end)
%