%
(Header)
(Generated by gcodetools from Inkscape.)
(Using default header. To add your own header create file "header" in the output dir.)
M3
(Header end.)
G21 (All units in mm)

(Start cutting path id: path3365)
(Change tool to Cylindrical cutter)

G00 Z3.000000
G00 X52.150860 Y12.717645

G01 Z-1.000000 F100.0(Penetrate)
G03 X51.955861 Y12.750131 Z-1.000000 I-1.607230 J-9.046035 F100.000000
G03 X51.372235 Y12.838755 Z-1.000000 I-12.528867 J-80.541748
G02 X50.026066 Y13.158337 Z-1.000000 I1.180263 J7.966600
G02 X48.685981 Y13.726242 Z-1.000000 I2.795730 J8.462130
G02 X46.169153 Y15.828969 Z-1.000000 I3.593167 J6.858394
G02 X44.866504 Y18.633446 Z-1.000000 I5.431746 J4.227757
G02 X44.676484 Y20.437435 Z-1.000000 I8.602639 J1.818147
G02 X44.860916 Y22.107204 Z-1.000000 I7.540955 J0.012143
G02 X45.600559 Y24.074385 Z-1.000000 I7.450851 J-1.678814
G02 X46.856222 Y25.779976 Z-1.000000 I6.815835 J-3.702837
G02 X48.505578 Y27.087172 Z-1.000000 I5.861188 J-5.701225
G02 X50.446489 Y27.937604 Z-1.000000 I4.269997 J-7.105208
G02 X51.856223 Y28.212909 Z-1.000000 I2.197816 J-7.507193
G02 X53.875557 Y28.284839 Z-1.000000 I1.559538 J-15.400823
G02 X55.217457 Y28.182655 Z-1.000000 I-0.431918 J-14.534156
G02 X56.122102 Y28.008722 Z-1.000000 I-0.831185 J-6.762614
G02 X57.009549 Y27.748600 Z-1.000000 I-4.283056 J-16.256221
G02 X57.562559 Y27.543106 Z-1.000000 I-2.103463 J-6.507530
G01 X58.107341 Y27.313473 Z-1.000000
G01 X58.122129 Y25.657723 Z-1.000000
G01 X58.136918 Y24.001982 Z-1.000000
G01 X57.981343 Y24.554624 Z-1.000000
G03 X56.803280 Y26.721501 Z-1.000000 I-5.354318 J-1.507298
G03 X55.039385 Y27.898604 Z-1.000000 I-3.087231 J-2.716076
G03 X54.436924 Y28.034460 Z-1.000000 I-0.940529 J-2.767073
G03 X53.279879 Y28.103509 Z-1.000000 I-1.190772 J-10.224957
G03 X52.121362 Y28.045700 Z-1.000000 I-0.035883 J-10.918503
G03 X51.527973 Y27.922441 Z-1.000000 I0.306565 J-2.965796
G03 X48.978971 Y26.323593 Z-1.000000 I1.810060 J-5.717061
G03 X47.298949 Y23.446086 Z-1.000000 I5.345480 J-5.050129
G03 X46.885835 Y20.609976 Z-1.000000 I8.852629 J-2.737636
G03 X47.358814 Y17.813404 Z-1.000000 I9.074316 J0.096439
G03 X49.149421 Y14.900125 Z-1.000000 I7.211575 J2.425569
G03 X51.878355 Y13.224341 Z-1.000000 I4.754286 J4.682266
G03 X53.331450 Y12.955759 Z-1.000000 I1.789979 J5.619143
G03 X54.729655 Y13.061200 Z-1.000000 I0.303317 J5.301080
G03 X56.517623 Y13.978346 Z-1.000000 I-0.787418 J3.736450
G03 X58.379999 Y16.395732 Z-1.000000 I-5.939193 J6.501698
G02 X58.747354 Y17.053810 Z-1.000000 I12.433707 J-6.509229
G01 X58.767684 Y17.048418 Z-1.000000
G02 X58.690336 Y16.491711 Z-1.000000 I-1.812714 J-0.031871
G02 X57.977445 Y14.435498 Z-1.000000 I-26.017631 J7.868650
G02 X57.584987 Y13.707551 Z-1.000000 I-3.197481 J1.254095
G02 X57.300928 Y13.478076 Z-1.000000 I-0.546911 J0.386450
G02 X55.609380 Y12.952772 Z-1.000000 I-3.405503 J7.980009
G02 X53.513466 Y12.714843 Z-1.000000 I-2.430824 J12.062690
G02 X52.346808 Y12.700164 Z-1.000000 I-1.084189 J39.801966
G02 X52.150874 Y12.717665 Z-1.000000 I0.002344 J1.131823
G01 X52.150860 Y12.717645 Z-1.000000
G00 Z3.000000

(End cutting path id: path3365)


(Start cutting path id: path3365)
(Change tool to Cylindrical cutter)

G00 Z3.000000
G00 X89.538393 Y13.870026

G01 Z-1.000000 F100.0(Penetrate)
G03 X83.244977 Y20.934156 Z-1.000000 I-179.764726 J-153.816497 F100.000000
G03 X79.455256 Y24.742245 Z-1.000000 I-55.931471 J-51.871921
G03 X79.245383 Y24.880564 Z-1.000000 I-0.508077 J-0.542531
G03 X79.134150 Y24.882885 Z-1.000000 I-0.058425 J-0.133393
G03 X79.072442 Y24.795523 Z-1.000000 I0.035126 J-0.090286
G03 X79.014033 Y20.905710 Z-1.000000 I128.109790 J-3.869015
G03 X79.047624 Y16.977325 Z-1.000000 I233.289492 J0.030459
G03 X79.092674 Y16.264975 Z-1.000000 I7.728490 J0.131169
G03 X79.381960 Y14.852668 Z-1.000000 I7.740578 J0.849736
G03 X79.705531 Y14.246194 Z-1.000000 I1.694069 J0.514281
G03 X80.272988 Y13.778862 Z-1.000000 I1.458304 J1.192559
G03 X81.468794 Y13.299864 Z-1.000000 I2.735559 J5.097097
G02 X82.086115 Y13.123417 Z-1.000000 I-9.510273 J-34.441078
G02 X82.109029 Y13.110622 Z-1.000000 I-0.016902 J-0.057186
G01 X82.105605 Y13.101637 Z-1.000000
G02 X78.987298 Y13.099446 Z-1.000000 I-1.940088 J542.403772
G02 X76.286314 Y13.150887 Z-1.000000 I0.174728 J80.110625
G01 X76.282461 Y13.196638 Z-1.000000
G03 X77.580420 Y13.892209 Z-1.000000 I-0.525065 J2.538595
G03 X78.346848 Y15.238623 Z-1.000000 I-2.017836 J2.039973
G03 X78.508875 Y16.345494 Z-1.000000 I-5.503474 J1.370905
G03 X78.624640 Y21.199275 Z-1.000000 I-106.721772 J4.973640
G03 X78.427917 Y25.683381 Z-1.000000 I-49.927197 J0.056009
G03 X78.153145 Y26.494805 Z-1.000000 I-1.811931 J-0.161338
G03 X77.351377 Y27.318641 Z-1.000000 I-2.356608 J-1.491421
G03 X76.093552 Y27.877954 Z-1.000000 I-2.229508 J-3.319879
G01 X76.097687 Y27.927336 Z-1.000000
G02 X77.378284 Y27.978795 Z-1.000000 I1.314039 J-16.740885
G01 X79.052325 Y27.982125 Z-1.000000
G01 X80.882093 Y25.988677 Z-1.000000
G03 X89.332639 Y16.806942 Z-1.000000 I3423.100986 J3142.022082
G03 X89.655487 Y16.481809 Z-1.000000 I4.603867 J4.248670
G03 X89.854018 Y16.369925 Z-1.000000 I0.328716 J0.351201
G03 X89.996635 Y16.385902 Z-1.000000 I0.051630 J0.183653
G03 X90.075321 Y16.510956 Z-1.000000 I-0.071921 J0.132536
G03 X90.146661 Y19.405962 Z-1.000000 I-57.857442 J2.874134
G03 X90.033191 Y24.749874 Z-1.000000 I-127.903543 J-0.042684
G03 X89.877306 Y25.799382 Z-1.000000 I-5.041640 J-0.212515
G03 X89.116003 Y27.105517 Z-1.000000 I-2.695725 J-0.696312
G03 X87.733986 Y27.869891 Z-1.000000 I-2.111029 J-2.185264
G01 X87.739079 Y27.922846 Z-1.000000
G02 X89.797338 Y27.974254 Z-1.000000 I2.034285 J-40.218781
G02 X92.011179 Y27.929132 Z-1.000000 I-0.032541 J-55.928974
G01 X92.017219 Y27.885032 Z-1.000000
G03 X91.428337 Y27.504106 Z-1.000000 I0.416280 J-1.289180
G03 X90.932365 Y26.684425 Z-1.000000 I1.875620 J-1.694791
G03 X90.682229 Y25.474664 Z-1.000000 I3.887871 J-1.434615
G03 X90.498101 Y18.692634 Z-1.000000 I124.810210 J-6.782030
G02 X90.497460 Y12.752482 Z-1.000000 I-27508.760467 J0.000021
G01 X90.496690 Y12.751720 Z-1.000000
G01 X90.495420 Y12.752305 Z-1.000000
G02 X89.538405 Y13.870009 Z-1.000000 I1679.832187 J1439.296435
G01 X89.538393 Y13.870026 Z-1.000000
G00 Z3.000000

(End cutting path id: path3365)


(Start cutting path id: path3365)
(Change tool to Cylindrical cutter)

G00 Z3.000000
G00 X123.978939 Y12.807112

G01 Z-1.000000 F100.0(Penetrate)
G02 X122.416361 Y12.988276 Z-1.000000 I1.168575 J16.908571 F100.000000
G02 X121.448411 Y13.220283 Z-1.000000 I1.093520 J6.697444
G02 X120.585921 Y13.658836 Z-1.000000 I0.912573 J2.862122
G02 X119.648039 Y14.538912 Z-1.000000 I3.136166 J4.281939
G02 X118.762195 Y15.742688 Z-1.000000 I9.358049 J7.814298
G02 X117.315520 Y18.153460 Z-1.000000 I36.250763 J23.393106
G03 X116.630178 Y19.309314 Z-1.000000 I-21.498023 J-11.965738
G03 X116.412302 Y19.586093 Z-1.000000 I-1.430185 J-0.901677
G03 X115.924549 Y19.896229 Z-1.000000 I-0.896732 J-0.871683
G03 X114.620710 Y20.206087 Z-1.000000 I-2.198585 J-6.353210
G02 X114.454578 Y20.331746 Z-1.000000 I0.028190 J0.209920
G02 X114.518656 Y20.441444 Z-1.000000 I0.072281 J0.031342
G03 X115.489601 Y20.636152 Z-1.000000 I-0.551577 J5.268763
G03 X116.509039 Y21.038677 Z-1.000000 I-1.865116 J6.215800
G03 X117.827043 Y22.135127 Z-1.000000 I-1.648246 J3.321684
G03 X118.436662 Y23.608214 Z-1.000000 I-2.564874 J1.924128
G03 X117.872649 Y26.040233 Z-1.000000 I-3.426308 J0.486810
G03 X115.684304 Y27.658182 Z-1.000000 I-3.401302 J-2.311517
G03 X114.138124 Y28.001600 Z-1.000000 I-2.892470 J-9.370438
G03 X113.633344 Y27.942436 Z-1.000000 I-0.138625 J-1.000218
G03 X113.545341 Y27.866173 Z-1.000000 I0.062761 J-0.161329
G03 X113.465933 Y27.645747 Z-1.000000 I0.610427 J-0.344422
G03 X113.442837 Y27.394938 Z-1.000000 I1.442907 J-0.259340
G03 X113.444343 Y23.939848 Z-1.000000 I276.163606 J-1.607162
G03 X113.520509 Y20.512480 Z-1.000000 I110.434165 J0.739648
G03 X113.577464 Y20.414040 Z-1.000000 I0.121477 J0.004587
G02 X113.613616 Y20.336551 Z-1.000000 I-0.041739 J-0.066651
G02 X113.548243 Y20.204058 Z-1.000000 I-0.232516 J0.032351
G03 X113.475269 Y20.036451 Z-1.000000 I0.180955 J-0.178475
G03 X113.447405 Y17.848166 Z-1.000000 I36.397050 J-1.557776
G03 X113.687493 Y14.928949 Z-1.000000 I22.630134 J0.391708
G03 X113.999511 Y14.114555 Z-1.000000 I1.984952 J0.293525
G03 X114.548365 Y13.599626 Z-1.000000 I1.362606 J0.902411
G03 X115.608725 Y13.190647 Z-1.000000 I1.855651 J3.232051
G01 X115.603929 Y13.134729 Z-1.000000
G02 X112.952808 Y13.073818 Z-1.000000 I-2.776425 J63.117903
G03 X109.791581 Y13.051241 Z-1.000000 I0.613154 J-307.187193
G03 X109.410066 Y13.030251 Z-1.000000 I0.055022 J-4.477790
G01 X109.404603 Y13.048852 Z-1.000000
G02 X109.535455 Y13.094533 Z-1.000000 I0.230064 J-0.448758
G03 X110.958548 Y13.721111 Z-1.000000 I-0.711413 J3.545134
G03 X111.577257 Y14.587822 Z-1.000000 I-1.001115 J1.368845
G01 X111.754534 Y15.159688 Z-1.000000
G01 X111.754534 Y20.646647 Z-1.000000
G03 X111.690220 Y26.122839 Z-1.000000 I-233.173389 J-0.000000
G03 X111.616198 Y26.535335 Z-1.000000 I-1.365049 J-0.032068
G03 X111.108149 Y27.216898 Z-1.000000 I-1.321829 J-0.455179
G03 X109.846907 Y27.801963 Z-1.000000 I-2.176907 J-3.040844
G01 X109.262938 Y27.949432 Z-1.000000
G01 X112.338503 Y28.011123 Z-1.000000
G02 X116.384040 Y27.950436 Z-1.000000 I1.157516 J-57.709632
G02 X117.636884 Y27.745705 Z-1.000000 I-0.284333 J-5.675691
G02 X118.887215 Y27.234977 Z-1.000000 I-1.607693 J-5.721714
G02 X119.554285 Y26.694088 Z-1.000000 I-1.155571 J-2.106933
G02 X120.224782 Y25.381071 Z-1.000000 I-2.374534 J-2.040270
G02 X120.253849 Y23.765008 Z-1.000000 I-3.659973 J-0.874121
G02 X119.575964 Y22.355885 Z-1.000000 I-3.099250 J0.623336
G02 X118.041926 Y21.129846 Z-1.000000 I-3.818889 J3.205521
G03 X117.753428 Y20.933376 Z-1.000000 I0.658096 J-1.276410
G03 X117.711010 Y20.839789 Z-1.000000 I0.082031 J-0.093587
G03 X117.768928 Y20.601707 Z-1.000000 I0.518293 J0.000000
G03 X118.811182 Y18.712395 Z-1.000000 I35.704910 J18.464763
G03 X122.086003 Y14.483070 Z-1.000000 I18.078614 J10.615974
G03 X124.601835 Y12.937936 Z-1.000000 I4.510119 J4.522764
G01 X125.146871 Y12.758810 Z-1.000000
G01 X124.757559 Y12.769506 Z-1.000000
G02 X124.368441 Y12.784266 Z-1.000000 I0.526052 J19.005508
G02 X123.978934 Y12.807109 Z-1.000000 I0.900548 J18.687314
G01 X123.978939 Y12.807112 Z-1.000000
G00 Z3.000000

(End cutting path id: path3365)


(Start cutting path id: path3365)
(Change tool to Cylindrical cutter)

G00 Z3.000000
G00 X60.978836 Y13.008052

G01 Z-1.000000 F100.0(Penetrate)
G03 X62.343930 Y13.546418 Z-1.000000 I-0.975484 J4.473323 F100.000000
G03 X62.865591 Y14.130328 Z-1.000000 I-0.666387 J1.120323
G03 X63.066609 Y14.967519 Z-1.000000 I-2.094179 J0.945562
G03 X63.186864 Y20.934542 Z-1.000000 I-110.286135 J5.207355
G03 X62.997874 Y26.037436 Z-1.000000 I-84.725699 J-0.582943
G03 X62.794005 Y26.775532 Z-1.000000 I-1.900946 J-0.127855
G03 X62.219274 Y27.357367 Z-1.000000 I-1.203643 J-0.614172
G03 X60.951043 Y27.744638 Z-1.000000 I-1.653380 J-3.144247
G01 X60.952215 Y27.768093 Z-1.000000
G02 X66.265265 Y27.791535 Z-1.000000 I5.313050 J-602.097146
G01 X72.009464 Y27.791535 Z-1.000000
G01 X71.966783 Y27.475737 Z-1.000000
G03 X71.827565 Y26.211341 Z-1.000000 I25.545633 J-3.452615
G03 X71.768367 Y25.146743 Z-1.000000 I18.045125 J-1.537354
G01 X71.741397 Y25.141492 Z-1.000000
G02 X71.630925 Y25.462538 Z-1.000000 I1.969375 J0.857193
G03 X70.774403 Y26.780750 Z-1.000000 I-2.391422 J-0.616477
G03 X69.047005 Y27.512513 Z-1.000000 I-2.185851 J-2.755189
G03 X65.505305 Y27.738673 Z-1.000000 I-3.457287 J-26.296798
G03 X64.935869 Y27.499418 Z-1.000000 I0.002557 J-0.803353
G03 X64.887523 Y27.386186 Z-1.000000 I0.119685 J-0.118038
G03 X64.842433 Y24.232696 Z-1.000000 I110.252805 J-3.153490
G03 X64.899714 Y21.087391 Z-1.000000 I86.383088 J-0.000000
G03 X64.961669 Y20.960385 Z-1.000000 I0.174165 J0.006346
G03 X65.096981 Y20.907345 Z-1.000000 I0.146109 J0.173621
G03 X66.110139 Y20.905674 Z-1.000000 I0.524751 J11.015805
G03 X68.162093 Y21.434021 Z-1.000000 I-0.227499 J5.132330
G03 X69.015329 Y22.344045 Z-1.000000 I-0.790080 J1.595784
G01 X69.213003 Y22.817741 Z-1.000000
G01 X69.169154 Y21.317707 Z-1.000000
G03 X69.130343 Y19.817589 Z-1.000000 I224.612703 J-6.561759
G03 X69.122040 Y19.225560 Z-1.000000 I34.805830 J-0.784213
G01 X69.118766 Y18.633440 Z-1.000000
G01 X69.002044 Y18.906265 Z-1.000000
G03 X68.123193 Y19.792459 Z-1.000000 I-1.558608 J-0.666811
G03 X65.927739 Y20.251897 Z-1.000000 I-2.195455 J-5.015843
G03 X65.041178 Y20.201334 Z-1.000000 I-0.000000 J-7.797654
G03 X64.923121 Y20.136931 Z-1.000000 I0.020333 J-0.177680
G03 X64.874602 Y20.006018 Z-1.000000 I0.166229 J-0.136054
G03 X64.861232 Y17.551350 Z-1.000000 I66.380799 J-1.588938
G03 X65.084703 Y14.692568 Z-1.000000 I22.079999 J0.287869
G03 X65.378023 Y13.961729 Z-1.000000 I1.648472 J0.237328
G03 X65.806980 Y13.577784 Z-1.000000 I1.071423 J0.765438
G03 X66.711128 Y13.216566 Z-1.000000 I1.837689 J3.287655
G03 X68.917399 Y12.947578 Z-1.000000 I2.138760 J8.359837
G03 X71.149287 Y13.251288 Z-1.000000 I-0.069336 J8.862208
G03 X72.888722 Y14.247012 Z-1.000000 I-1.022818 J3.803942
G03 X74.091790 Y16.145632 Z-1.000000 I-3.473947 J3.531753
G01 X74.354002 Y16.896563 Z-1.000000
G01 X74.310715 Y16.304444 Z-1.000000
G02 X74.157457 Y15.034881 Z-1.000000 I-13.526718 J0.988874
G02 X73.844078 Y13.541229 Z-1.000000 I-19.048221 J3.216760
G01 X73.675357 Y12.870161 Z-1.000000
G01 X67.010944 Y12.870161 Z-1.000000
G02 X60.985468 Y12.939048 Z-1.000000 I-0.000000 J263.552884
G01 X60.978834 Y13.008046 Z-1.000000
G01 X60.978836 Y13.008052 Z-1.000000
G00 Z3.000000

(End cutting path id: path3365)


(Start cutting path id: path3365)
(Change tool to Cylindrical cutter)

G00 Z3.000000
G00 X97.269118 Y13.051364

G01 Z-1.000000 F100.0(Penetrate)
G02 X97.296321 Y13.067211 Z-1.000000 I0.042848 J-0.042281 F100.000000
G02 X97.925990 Y13.228162 Z-1.000000 I6.676753 J-24.808436
G03 X99.382363 Y13.994635 Z-1.000000 I-0.792651 J3.272977
G03 X100.039072 Y15.124179 Z-1.000000 I-1.417532 J1.579819
G03 X101.000009 Y23.818324 Z-1.000000 I-41.291378 J8.963983
G03 X100.117784 Y27.429308 Z-1.000000 I-7.631582 J0.048738
G03 X99.986083 Y27.519861 Z-1.000000 I-0.152230 J-0.080355
G03 X98.768243 Y27.591405 Z-1.000000 I-1.195966 J-9.956982
G03 X96.785396 Y27.437576 Z-1.000000 I0.029158 J-13.232165
G03 X95.797549 Y27.134338 Z-1.000000 I0.542993 J-3.529535
G03 X94.996821 Y26.551317 Z-1.000000 I1.146139 J-2.415498
G03 X94.345468 Y25.591612 Z-1.000000 I2.669624 J-2.512768
G02 X94.205122 Y25.614455 Z-1.000000 I-0.066937 J0.031302
G02 X94.196564 Y26.883620 Z-1.000000 I5.848618 J0.674050
G03 X94.347006 Y28.416533 Z-1.000000 I-223.403465 J22.698840
G03 X94.352292 Y28.528445 Z-1.000000 I-1.182012 J0.111912
G01 X94.391376 Y28.550582 Z-1.000000
G02 X94.687013 Y28.327763 Z-1.000000 I-0.901864 J-1.504127
G01 X95.021734 Y28.014928 Z-1.000000
G01 X98.075765 Y27.960721 Z-1.000000
G03 X101.129804 Y27.932792 Z-1.000000 I3.150595 J177.521403
G03 X104.067363 Y27.957476 Z-1.000000 I0.089286 J164.181846
G01 X107.004932 Y28.008414 Z-1.000000
G01 X107.295485 Y28.289600 Z-1.000000
G02 X107.584820 Y28.539468 Z-1.000000 I2.347296 J-2.425604
G01 X107.616386 Y28.536432 Z-1.000000
G02 X107.633727 Y28.496580 Z-1.000000 I-0.052866 J-0.046702
G02 X107.777640 Y26.883634 Z-1.000000 I-97.315350 J-9.495698
G03 X107.916865 Y25.266191 Z-1.000000 I156.652606 J12.669507
G03 X107.946990 Y25.028334 Z-1.000000 I3.416350 J0.311853
G01 X107.920802 Y25.017861 Z-1.000000
G02 X107.792185 Y25.254625 Z-1.000000 I1.088503 J0.744620
G03 X106.891664 Y26.586013 Z-1.000000 I-3.744707 J-1.562596
G03 X105.681273 Y27.329201 Z-1.000000 I-2.220847 J-2.259732
G03 X105.046364 Y27.470594 Z-1.000000 I-0.985313 J-2.928238
G03 X103.522109 Y27.575680 Z-1.000000 I-1.933484 J-16.937873
G01 X101.985844 Y27.612555 Z-1.000000
G01 X101.906463 Y27.400854 Z-1.000000
G03 X101.657974 Y26.032320 Z-1.000000 I3.655161 J-1.370507
G03 X101.900791 Y16.383415 Z-1.000000 I188.055608 J-0.095044
G03 X102.199864 Y14.548250 Z-1.000000 I8.404069 J0.427644
G03 X102.585880 Y13.929552 Z-1.000000 I1.246690 J0.348060
G03 X103.172894 Y13.542705 Z-1.000000 I1.620581 J1.820322
G03 X104.085064 Y13.227522 Z-1.000000 I1.947716 J4.159324
G02 X104.511411 Y13.122002 Z-1.000000 I-3.262381 J-14.095492
G02 X104.651170 Y13.078246 Z-1.000000 I-0.409474 J-1.552984
G01 X104.646919 Y13.053124 Z-1.000000
G02 X101.017559 Y13.028081 Z-1.000000 I-3.629360 J262.979672
G02 X97.273919 Y13.039701 Z-1.000000 I-0.000000 J603.041441
G01 X97.269089 Y13.051364 Z-1.000000
G01 X97.269118 Y13.051364 Z-1.000000
G00 Z3.000000

(End cutting path id: path3365)


(Start cutting path id: path3365)
(Change tool to Cylindrical cutter)

G00 Z3.000000
G00 X116.251097 Y13.043011

G01 Z-1.000000 F100.0(Penetrate)
G02 X116.387355 Y13.060766 Z-1.000000 I0.136258 J-0.513949 F100.000000
G02 X116.523613 Y13.043011 Z-1.000000 I-0.000000 J-0.531705
G01 X116.523616 Y13.024659 Z-1.000000
G02 X116.387353 Y13.006909 Z-1.000000 I-0.136262 J0.514147
G02 X116.251095 Y13.024656 Z-1.000000 I-0.000000 J0.531936
G01 X116.251097 Y13.043011 Z-1.000000
G01 X116.251097 Y13.043011 Z-1.000000
G00 Z3.000000

(End cutting path id: path3365)


(Start cutting path id: path3365)
(Change tool to Cylindrical cutter)

G00 Z3.000000
G00 X127.207133 Y13.304388

G01 Z-1.000000 F100.0(Penetrate)
G03 X127.780520 Y13.541613 Z-1.000000 I-1.356657 J4.090691 F100.000000
G03 X128.133095 Y13.768158 Z-1.000000 I-0.880472 J1.757922
G03 X128.585331 Y14.351964 Z-1.000000 I-0.999459 J1.241277
G03 X130.533234 Y19.067668 Z-1.000000 I-69.295990 J31.384067
G03 X133.623404 Y27.478658 Z-1.000000 I-688.960888 J257.895035
G03 X133.622162 Y27.636138 Z-1.000000 I-0.213757 J0.077059
G02 X133.634072 Y27.748202 Z-1.000000 I0.116901 J0.044241
G02 X133.858498 Y28.001988 Z-1.000000 I0.948834 J-0.612941
G03 X134.228309 Y28.447408 Z-1.000000 I-1.027295 J1.229143
G03 X134.489050 Y29.126034 Z-1.000000 I-2.203232 J1.235927
G01 X134.576607 Y29.513144 Z-1.000000
G01 X135.091349 Y28.099696 Z-1.000000
G03 X139.569841 Y15.948129 Z-1.000000 I1576.530808 J574.133469
G03 X139.985788 Y14.975849 Z-1.000000 I10.482595 J3.909405
G03 X140.930711 Y13.706251 Z-1.000000 I3.803687 J1.844530
G03 X141.921542 Y13.198834 Z-1.000000 I1.414347 J1.540686
G01 X141.917666 Y13.152839 Z-1.000000
G02 X139.358419 Y13.107016 Z-1.000000 I-2.559247 J71.444901
G02 X136.749806 Y13.157009 Z-1.000000 I-0.000000 J68.082838
G01 X136.744477 Y13.207255 Z-1.000000
G03 X137.495323 Y13.551596 Z-1.000000 I-0.568681 J2.230817
G03 X137.902065 Y14.016942 Z-1.000000 I-0.738724 J1.056125
G03 X137.992780 Y14.633691 Z-1.000000 I-0.854583 J0.440742
G03 X137.303396 Y17.232300 Z-1.000000 I-17.582395 J-3.273679
G03 X136.628140 Y19.136673 Z-1.000000 I-153.789337 J-53.458951
G03 X136.555021 Y19.302050 Z-1.000000 I-1.227199 J-0.443733
G03 X136.424387 Y19.386139 Z-1.000000 I-0.139920 J-0.073855
G03 X133.827595 Y19.462412 Z-1.000000 I-2.596793 J-44.166933
G01 X131.184804 Y19.462412 Z-1.000000
G01 X131.073882 Y19.284776 Z-1.000000
G03 X130.802601 Y18.700183 Z-1.000000 I2.214830 J-1.383036
G03 X130.053330 Y16.107077 Z-1.000000 I43.608331 J-14.005318
G03 X129.835496 Y14.631881 Z-1.000000 I6.875659 J-1.768971
G03 X129.967260 Y14.028824 Z-1.000000 I1.215514 J-0.050340
G03 X130.483501 Y13.525327 Z-1.000000 I1.002128 J0.511090
G03 X131.786346 Y13.157660 Z-1.000000 I1.712326 J3.575530
G01 X131.785252 Y13.130616 Z-1.000000
G02 X129.461117 Y13.105136 Z-1.000000 I-2.258049 J99.955685
G01 X126.612013 Y13.107112 Z-1.000000
G01 X127.207133 Y13.304484 Z-1.000000
G01 X127.207133 Y13.304388 Z-1.000000
G00 Z3.000000

(End cutting path id: path3365)


(Start cutting path id: path3365)
(Change tool to Cylindrical cutter)

G00 Z3.000000
G00 X136.132664 Y20.202954

G01 Z-1.000000 F100.0(Penetrate)
G03 X136.142662 Y22.748550 Z-1.000000 I-3.398367 J1.286165 F100.000000
G03 X133.872107 Y26.320635 Z-1.000000 I-9.422827 J-3.481846
G03 X133.750669 Y26.373248 Z-1.000000 I-0.125921 J-0.124187
G03 X133.635142 Y26.326646 Z-1.000000 I-0.003972 J-0.156652
G03 X131.437122 Y22.820003 Z-1.000000 I6.794706 J-6.701229
G03 X131.463809 Y20.214303 Z-1.000000 I3.565112 J-1.266474
G03 X131.549322 Y20.151925 Z-1.000000 I0.090487 J0.034245
G03 X133.800380 Y20.094031 Z-1.000000 I2.251058 J43.733846
G03 X136.055075 Y20.146662 Z-1.000000 I-0.000000 J48.321157
G03 X136.132664 Y20.202980 Z-1.000000 I-0.004074 J0.087220
G01 X136.132664 Y20.202954 Z-1.000000
G00 Z3.000000

(End cutting path id: path3365)


(Start cutting path id: path3365)
(Change tool to Cylindrical cutter)

G00 Z3.000000
G00 X144.150804 Y13.191948

G01 Z-1.000000 F100.0(Penetrate)
G03 X145.223657 Y13.514705 Z-1.000000 I-0.920674 J5.004813 F100.000000
G03 X145.780346 Y13.885777 Z-1.000000 I-0.710878 J1.669589
G03 X146.195200 Y14.738766 Z-1.000000 I-0.980070 J1.004037
G03 X146.516715 Y20.686122 Z-1.000000 I-55.001376 J5.955753
G03 X146.215407 Y26.360902 Z-1.000000 I-53.431437 J0.008396
G03 X145.820820 Y27.211323 Z-1.000000 I-1.446109 J-0.154229
G03 X145.273440 Y27.587907 Z-1.000000 I-1.176648 J-1.124193
G03 X144.030162 Y27.962135 Z-1.000000 I-2.403055 J-5.731184
G01 X144.032945 Y27.995291 Z-1.000000
G02 X147.296997 Y28.028381 Z-1.000000 I3.264053 J-160.965873
G02 X150.445317 Y27.984856 Z-1.000000 I0.000000 J-113.886356
G01 X150.448776 Y27.941206 Z-1.000000
G03 X149.070915 Y27.429397 Z-1.000000 I0.803024 J-4.272462
G03 X148.486985 Y26.803526 Z-1.000000 I0.739636 J-1.275406
G03 X148.279220 Y26.009813 Z-1.000000 I1.852020 J-0.908840
G03 X148.118594 Y20.212429 Z-1.000000 I102.919538 J-5.752462
G03 X148.182139 Y14.930765 Z-1.000000 I227.371112 J0.094341
G03 X148.255718 Y14.409674 Z-1.000000 I2.260654 J0.053466
G03 X148.860930 Y13.776818 Z-1.000000 I0.873437 J0.229469
G03 X151.495457 Y13.401952 Z-1.000000 I2.477078 J7.963636
G03 X153.322956 Y13.495305 Z-1.000000 I-0.537249 J28.451831
G03 X153.805400 Y13.594572 Z-1.000000 I-0.171337 J2.054707
G03 X155.015219 Y14.298308 Z-1.000000 I-1.094356 J3.273138
G03 X156.431046 Y15.949180 Z-1.000000 I-5.563692 J6.204114
G02 X156.833627 Y16.533151 Z-1.000000 I11.637347 J-7.591858
G01 X156.849932 Y16.524780 Z-1.000000
G03 X156.807396 Y16.389194 Z-1.000000 I4.343813 J-1.437200
G03 X156.322825 Y14.748429 Z-1.000000 I632.599681 J-187.718845
G01 X155.840375 Y13.107016 Z-1.000000
G01 X149.764754 Y13.107016 Z-1.000000
G02 X144.154356 Y13.149455 Z-1.000000 I0.000000 J370.863078
G01 X144.150804 Y13.191948 Z-1.000000
G01 X144.150804 Y13.191948 Z-1.000000
G00 Z3.000000

(End cutting path id: path3365)


(Start cutting path id: path3365)
(Change tool to Cylindrical cutter)

G00 Z3.000000
G00 X73.263072 Y34.390664

G01 Z-1.000000 F100.0(Penetrate)
G03 X71.649673 Y38.505846 Z-1.000000 I-178.710050 J-67.691253 F100.000000
G03 X68.086290 Y47.158041 Z-1.000000 I-792.766067 J-321.438632
G03 X67.358316 Y48.577616 Z-1.000000 I-9.480444 J-3.965238
G03 X66.811303 Y49.230405 Z-1.000000 I-2.494434 J-1.534659
G03 X66.221330 Y49.623099 Z-1.000000 I-1.686935 J-1.894874
G03 X65.535004 Y49.842432 Z-1.000000 I-1.133824 J-2.364439
G01 X65.537111 Y49.869868 Z-1.000000
G02 X68.553706 Y49.897262 Z-1.000000 I3.016595 J-166.075003
G02 X71.342624 Y49.867279 Z-1.000000 I-0.000000 J-129.720998
G01 X71.343947 Y49.837270 Z-1.000000
G03 X70.130594 Y49.318578 Z-1.000000 I0.248819 J-2.260566
G03 X69.747766 Y48.497395 Z-1.000000 I0.689321 J-0.821183
G03 X69.840585 Y47.748304 Z-1.000000 I3.069157 J0.000000
G03 X70.382693 Y45.974661 Z-1.000000 I17.968683 J4.522396
G03 X73.423055 Y38.066898 Z-1.000000 I195.703603 J70.705409
G03 X73.919719 Y37.306234 Z-1.000000 I2.215094 J0.903834
G03 X74.108889 Y37.320662 Z-1.000000 I0.088591 J0.085803
G03 X74.703131 Y38.410177 Z-1.000000 I-4.304115 J3.054356
G02 X75.131718 Y39.475559 Z-1.000000 I527.320688 J-211.514227
G02 X76.332403 Y42.448435 Z-1.000000 I4113.406555 J-1659.592668
G03 X78.217223 Y47.772579 Z-1.000000 I-59.573575 J24.085560
G03 X78.233827 Y48.677105 Z-1.000000 I-1.576837 J0.481361
G03 X77.733519 Y49.346666 Z-1.000000 I-1.083143 J-0.287645
G03 X76.325931 Y49.838808 Z-1.000000 I-1.854997 J-3.046510
G01 X76.327414 Y49.868058 Z-1.000000
G02 X78.715998 Y49.897262 Z-1.000000 I2.388584 J-97.667320
G02 X81.201680 Y49.855328 Z-1.000000 I-0.000000 J-73.692368
G01 X81.205774 Y49.813242 Z-1.000000
G03 X80.686191 Y49.620681 Z-1.000000 I0.492871 J-2.127177
G03 X80.111892 Y49.240774 Z-1.000000 I1.563448 J-2.987467
G03 X79.370224 Y48.376818 Z-1.000000 I2.076635 J-2.533019
G03 X78.022643 Y45.712962 Z-1.000000 I19.372895 J-11.473072
G03 X75.687184 Y40.082363 Z-1.000000 I318.350876 J-135.345142
G03 X73.951054 Y35.646962 Z-1.000000 I195.757183 J-79.181900
G02 X73.444946 Y34.352027 Z-1.000000 I-60.395019 J22.858201
G02 X73.396625 Y34.272238 Z-1.000000 I-0.269529 J0.108701
G01 X73.347127 Y34.268773 Z-1.000000
G02 X73.263072 Y34.390664 Z-1.000000 I0.205225 J0.231449
G01 X73.263072 Y34.390664 Z-1.000000
G00 Z3.000000

(End cutting path id: path3365)


(Start cutting path id: path3365)
(Change tool to Cylindrical cutter)

G00 Z3.000000
G00 X26.441776 Y34.626782

G01 Z-1.000000 F100.0(Penetrate)
G02 X24.182185 Y35.385723 Z-1.000000 I0.999297 J6.718409 F100.000000
G02 X22.917500 Y36.554007 Z-1.000000 I1.700241 J3.109199
G02 X22.473546 Y37.782755 Z-1.000000 I2.367986 J1.550143
G02 X22.105276 Y43.660289 Z-1.000000 I57.132744 J6.530083
G03 X21.979705 Y48.223065 Z-1.000000 I-141.174519 J-1.602110
G03 X21.889235 Y48.603166 Z-1.000000 I-1.033505 J-0.045172
G03 X21.343037 Y49.249998 Z-1.000000 I-1.408088 J-0.634993
G03 X20.198572 Y49.739954 Z-1.000000 I-1.863755 J-2.771827
G01 X20.203337 Y49.792483 Z-1.000000
G02 X23.030316 Y49.842282 Z-1.000000 I2.758852 J-76.347140
G02 X25.918115 Y49.804276 Z-1.000000 I-0.105076 J-117.713052
G01 X25.920628 Y49.768789 Z-1.000000
G03 X24.800440 Y49.338079 Z-1.000000 I0.501067 J-2.975216
G03 X24.201692 Y48.673552 Z-1.000000 I0.900593 J-1.413451
G03 X24.000094 Y47.929264 Z-1.000000 I1.747049 J-0.872653
G03 X23.848045 Y43.305017 Z-1.000000 I70.154419 J-4.621351
G03 X24.042801 Y38.636449 Z-1.000000 I56.107771 J0.002267
G03 X24.328250 Y37.556596 Z-1.000000 I3.194931 J0.266897
G03 X24.950117 Y36.659174 Z-1.000000 I2.886895 J1.336297
G03 X25.951372 Y35.910724 Z-1.000000 I2.969195 J2.928152
G03 X27.153455 Y35.473438 Z-1.000000 I2.124266 J3.968643
G03 X28.908929 Y35.291692 Z-1.000000 I1.755474 J8.387156
G03 X30.223055 Y35.352958 Z-1.000000 I0.000000 J14.124360
G03 X30.780861 Y35.466602 Z-1.000000 I-0.246115 J2.633792
G03 X32.552350 Y36.646991 Z-1.000000 I-1.174820 J3.682623
G03 X33.577968 Y38.760113 Z-1.000000 I-3.587195 J3.046525
G03 X34.010839 Y42.885483 Z-1.000000 I-21.406077 J4.331515
G03 X33.658500 Y47.291945 Z-1.000000 I-24.802504 J0.234118
G03 X32.875263 Y48.924708 Z-1.000000 I-3.249401 J-0.554498
G03 X31.487051 Y49.740282 Z-1.000000 I-1.949467 J-1.728998
G01 X31.491482 Y49.792851 Z-1.000000
G02 X33.619604 Y49.844726 Z-1.000000 I2.119661 J-43.278551
G02 X36.028677 Y49.814193 Z-1.000000 I-0.018994 J-96.550732
G01 X36.032836 Y49.784023 Z-1.000000
G03 X35.185719 Y49.261209 Z-1.000000 I0.584309 J-1.894458
G03 X34.682112 Y48.374433 Z-1.000000 I1.502298 J-1.439556
G03 X34.505682 Y47.367797 Z-1.000000 I5.171672 J-1.425199
G03 X34.319343 Y43.739238 Z-1.000000 I67.597385 J-5.290423
G02 X33.963739 Y38.689061 Z-1.000000 I-55.289888 J1.355586
G02 X33.573393 Y37.342155 Z-1.000000 I-4.214838 J0.491483
G02 X32.124646 Y35.675410 Z-1.000000 I-3.765577 J1.810064
G02 X29.548885 Y34.660352 Z-1.000000 I-3.641311 J5.464424
G02 X27.965115 Y34.522383 Z-1.000000 I-1.696731 J10.317876
G02 X26.441776 Y34.626782 Z-1.000000 I-0.104208 J9.645558
G01 X26.441776 Y34.626782 Z-1.000000
G00 Z3.000000

(End cutting path id: path3365)


(Start cutting path id: path3365)
(Change tool to Cylindrical cutter)

G00 Z3.000000
G00 X119.034677 Y34.593404

G01 Z-1.000000 F100.0(Penetrate)
G02 X117.877078 Y34.864164 Z-1.000000 I1.205253 J7.762846 F100.000000
G02 X116.833016 Y35.287761 Z-1.000000 I2.122413 J6.729706
G02 X116.363138 Y35.774944 Z-1.000000 I0.457797 J0.911720
G02 X115.927966 Y37.265419 Z-1.000000 I4.881872 J2.234120
G02 X115.727981 Y38.992557 Z-1.000000 I36.357025 J5.084935
G01 X115.768434 Y39.002296 Z-1.000000
G03 X116.715995 Y37.031870 Z-1.000000 I15.083939 J6.040686
G03 X117.399566 Y36.124019 Z-1.000000 I3.818867 J2.164159
G03 X118.865926 Y35.155170 Z-1.000000 I2.986966 J2.926696
G03 X120.591925 Y34.877903 Z-1.000000 I1.504374 J3.853964
G03 X121.768580 Y35.150788 Z-1.000000 I-0.186558 J3.477676
G03 X122.662093 Y35.758479 Z-1.000000 I-1.091035 J2.564924
G03 X123.270127 Y36.712637 Z-1.000000 I-1.922159 J1.895700
G03 X123.457884 Y37.897009 Z-1.000000 I-2.842162 J1.057633
G03 X123.164358 Y39.108114 Z-1.000000 I-3.197029 J-0.133717
G03 X122.363248 Y40.260355 Z-1.000000 I-3.682244 J-1.705512
G03 X121.756323 Y40.775387 Z-1.000000 I-3.297396 J-3.270605
G03 X120.241544 Y41.768252 Z-1.000000 I-13.927459 J-19.596683
G02 X118.729522 Y42.764885 Z-1.000000 I11.617038 J19.269831
G02 X118.043083 Y43.347816 Z-1.000000 I3.246836 J4.518989
G02 X117.189583 Y44.555000 Z-1.000000 I3.082436 J3.084649
G02 X116.872524 Y45.801783 Z-1.000000 I2.980205 J1.421575
G02 X116.872130 Y46.518948 Z-1.000000 I6.831246 J0.362336
G02 X116.931737 Y46.946544 Z-1.000000 I2.491987 J-0.129431
G02 X117.873918 Y48.685114 Z-1.000000 I3.599915 J-0.826315
G02 X119.748863 Y49.865656 Z-1.000000 I3.336590 J-3.220023
G02 X120.329696 Y49.991552 Z-1.000000 I0.875184 J-2.634929
G02 X121.526273 Y50.055160 Z-1.000000 I1.196577 J-11.223117
G02 X123.132001 Y49.887205 Z-1.000000 I0.000000 J-7.759762
G02 X124.331805 Y49.461768 Z-1.000000 I-0.998296 J-4.719897
G01 X124.768030 Y49.238493 Z-1.000000
G01 X124.711814 Y48.699438 Z-1.000000
G03 X124.663534 Y48.159737 Z-1.000000 I18.300869 J-1.909142
G03 X124.598711 Y47.184116 Z-1.000000 I59.831901 J-4.465402
G01 X124.541823 Y46.207847 Z-1.000000
G01 X124.358099 Y46.947269 Z-1.000000
G03 X123.877332 Y48.261048 Z-1.000000 I-6.340970 J-1.575573
G03 X123.322584 Y49.047502 Z-1.000000 I-2.773387 J-1.367409
G03 X120.427209 Y49.815494 Z-1.000000 I-2.086935 J-2.026008
G03 X118.414059 Y47.627227 Z-1.000000 I0.796571 J-2.752983
G03 X118.521063 Y46.171223 Z-1.000000 I2.666636 J-0.535959
G03 X119.447286 Y44.752684 Z-1.000000 I3.446892 J1.238965
G03 X119.964059 Y44.329623 Z-1.000000 I3.152315 J3.323427
G03 X121.216926 Y43.507799 Z-1.000000 I13.264832 J18.856286
G02 X124.091869 Y41.441530 Z-1.000000 I-12.288474 J-20.130988
G02 X124.870457 Y40.441057 Z-1.000000 I-1.944229 J-2.316229
G02 X124.736267 Y37.008527 Z-1.000000 I-3.290807 J-1.590239
G02 X121.490411 Y34.649614 Z-1.000000 I-4.306835 J2.513591
G02 X120.314052 Y34.509390 Z-1.000000 I-1.318187 J6.054038
G02 X119.034677 Y34.593404 Z-1.000000 I-0.166094 J7.253997
G01 X119.034677 Y34.593404 Z-1.000000
G00 Z3.000000

(End cutting path id: path3365)


(Start cutting path id: path3365)
(Change tool to Cylindrical cutter)

G00 Z3.000000
G00 X51.921126 Y35.740668

G01 Z-1.000000 F100.0(Penetrate)
G03 X44.235101 Y44.399750 Z-1.000000 I-217.577572 J-185.386775 F100.000000
G03 X41.832359 Y46.653307 Z-1.000000 I-16.992024 J-15.709217
G03 X41.647242 Y46.733187 Z-1.000000 I-0.234244 J-0.288407
G03 X41.517300 Y46.695332 Z-1.000000 I-0.022138 J-0.165959
G03 X41.451323 Y46.557379 Z-1.000000 I0.119358 J-0.141837
G03 X41.427282 Y42.399653 Z-1.000000 I137.013283 J-2.871165
G03 X41.590223 Y37.758174 Z-1.000000 I90.353298 J0.848287
G03 X41.768627 Y36.791723 Z-1.000000 I4.038615 J0.245825
G03 X42.351293 Y35.917924 Z-1.000000 I1.789153 J0.561875
G03 X43.660072 Y35.202219 Z-1.000000 I2.433878 J2.896223
G02 X44.324948 Y34.992662 Z-1.000000 I-31.081287 J-99.773323
G02 X44.463849 Y34.945910 Z-1.000000 I-1.390536 J-4.361062
G01 X44.459837 Y34.921400 Z-1.000000
G02 X41.406305 Y34.896948 Z-1.000000 I-3.053533 J190.646401
G02 X38.677202 Y34.944405 Z-1.000000 I0.000000 J78.493711
G01 X38.673194 Y34.992026 Z-1.000000
G03 X39.470538 Y35.260908 Z-1.000000 I-0.692832 J3.371195
G03 X40.031648 Y35.644546 Z-1.000000 I-0.972415 J2.024414
G03 X40.647339 Y36.832784 Z-1.000000 I-1.365805 J1.461328
G03 X41.092855 Y43.344494 Z-1.000000 I-47.132296 J6.495776
G03 X40.913744 Y47.448641 Z-1.000000 I-47.435732 J-0.014172
G03 X40.667204 Y48.230393 Z-1.000000 I-1.883049 J-0.164104
G03 X39.894877 Y49.089582 Z-1.000000 I-2.420213 J-1.398817
G03 X38.641729 Y49.708577 Z-1.000000 I-2.411931 J-3.304935
G01 X38.174555 Y49.846538 Z-1.000000
G01 X39.822600 Y49.852155 Z-1.000000
G01 X41.470643 Y49.857771 Z-1.000000
G01 X41.885953 Y49.396631 Z-1.000000
G03 X42.724891 Y48.474496 Z-1.000000 I92.046321 J82.899104
G03 X50.857238 Y39.634818 Z-1.000000 I8464.237140 J7778.787143
G03 X52.105160 Y38.305328 Z-1.000000 I70.639115 J65.054743
G03 X52.205092 Y38.225917 Z-1.000000 I0.339964 J0.325232
G03 X52.318401 Y38.188705 Z-1.000000 I0.140623 J0.237072
G03 X52.428107 Y38.203706 Z-1.000000 I0.023547 J0.236449
G03 X52.485354 Y38.284800 Z-1.000000 I-0.032589 J0.083759
G03 X52.540107 Y41.980130 Z-1.000000 I-124.523669 J3.693115
G03 X52.168508 Y47.886177 Z-1.000000 I-47.131042 J-0.000695
G03 X51.660223 Y48.945668 Z-1.000000 I-1.843878 J-0.232922
G03 X50.993718 Y49.435949 Z-1.000000 I-1.782128 J-1.724510
G03 X50.009643 Y49.777089 Z-1.000000 I-1.767738 J-3.509400
G01 X50.012373 Y49.809154 Z-1.000000
G02 X52.228723 Y49.845661 Z-1.000000 I2.373858 J-76.822819
G02 X54.439622 Y49.795388 Z-1.000000 I0.091268 J-44.626789
G01 X54.447802 Y49.740141 Z-1.000000
G03 X53.810351 Y49.297946 Z-1.000000 I0.496110 J-1.395734
G03 X53.329474 Y48.410682 Z-1.000000 I1.918191 J-1.613561
G03 X53.120485 Y47.195535 Z-1.000000 I4.784086 J-1.448344
G03 X52.968416 Y40.679966 Z-1.000000 I139.507290 J-6.515569
G02 X52.945268 Y34.643788 Z-1.000000 I-787.039213 J0.000000
G01 X52.921939 Y34.620630 Z-1.000000
G02 X52.883411 Y34.637864 Z-1.000000 I-0.000017 J0.051646
G02 X51.921126 Y35.740654 Z-1.000000 I46.339967 J41.407093
G01 X51.921126 Y35.740668 Z-1.000000
G00 Z3.000000

(End cutting path id: path3365)


(Start cutting path id: path3365)
(Change tool to Cylindrical cutter)

G00 Z3.000000
G00 X113.701100 Y34.671808

G01 Z-1.000000 F100.0(Penetrate)
G02 X111.103624 Y35.048854 Z-1.000000 I1.588475 J20.078565 F100.000000
G02 X110.242913 Y35.406562 Z-1.000000 I0.527895 J2.484582
G02 X109.174113 Y36.387708 Z-1.000000 I2.425177 J3.714553
G02 X107.316384 Y39.147389 Z-1.000000 I18.370054 J14.371253
G03 X105.890424 Y41.408073 Z-1.000000 I-27.853989 J-15.989252
G03 X105.544522 Y41.713247 Z-1.000000 I-0.787116 J-0.543545
G03 X105.159459 Y41.860408 Z-1.000000 I-0.833011 J-1.602300
G03 X104.259793 Y42.042205 Z-1.000000 I-2.220967 J-8.674001
G02 X104.149099 Y42.196186 Z-1.000000 I0.019518 J0.130810
G02 X104.316616 Y42.361522 Z-1.000000 I0.200580 J-0.035694
G03 X106.402381 Y43.121608 Z-1.000000 I-0.971692 J5.908272
G03 X107.547355 Y44.280227 Z-1.000000 I-1.646164 J2.771831
G03 X107.858332 Y45.049625 Z-1.000000 I-2.575254 J1.488419
G03 X107.977061 Y46.005135 Z-1.000000 I-3.885253 J0.967898
G03 X106.834024 Y48.540564 Z-1.000000 I-3.360338 J0.010443
G03 X103.734713 Y49.730548 Z-1.000000 I-3.159556 J-3.597992
G01 X103.033950 Y49.739353 Z-1.000000
G01 X103.013714 Y46.033897 Z-1.000000
G03 X103.041701 Y42.354249 Z-1.000000 I140.745505 J-0.769460
G03 X103.091577 Y42.264079 Z-1.000000 I0.110579 J0.002287
G02 X103.120943 Y42.199863 Z-1.000000 I-0.036384 J-0.055462
G02 X103.072893 Y42.123795 Z-1.000000 I-0.106736 J0.014213
G03 X102.900381 Y41.814073 Z-1.000000 I0.206786 J-0.318083
G03 X102.985896 Y38.176486 Z-1.000000 I39.950942 J-0.880607
G03 X103.248485 Y36.522657 Z-1.000000 I9.459237 J0.654142
G03 X103.569895 Y35.849408 Z-1.000000 I1.825371 J0.458091
G03 X104.049207 Y35.450438 Z-1.000000 I1.085191 J0.816317
G03 X105.139082 Y35.067094 Z-1.000000 I2.079402 J4.170919
G01 X105.133961 Y35.008413 Z-1.000000
G02 X102.294268 Y34.953598 Z-1.000000 I-2.751799 J68.974450
G02 X99.103208 Y34.974244 Z-1.000000 I0.367798 J303.464219
G01 X99.101908 Y34.990868 Z-1.000000
G03 X100.361602 Y35.452020 Z-1.000000 I-0.614591 J3.629919
G03 X100.928476 Y36.071263 Z-1.000000 I-0.734095 J1.241100
G03 X101.129782 Y36.867190 Z-1.000000 I-1.881140 J0.899199
G03 X101.265737 Y42.871907 Z-1.000000 I-111.460294 J5.527514
G03 X101.176182 Y48.146400 Z-1.000000 I-207.714309 J-0.888734
G03 X101.098808 Y48.494900 Z-1.000000 I-0.950621 J-0.028219
G03 X100.923016 Y48.806705 Z-1.000000 I-1.551782 J-0.669422
G03 X100.696416 Y49.059189 Z-1.000000 I-1.236220 J-0.881556
G03 X100.129738 Y49.417724 Z-1.000000 I-1.371422 J-1.540489
G03 X99.255104 Y49.669972 Z-1.000000 I-1.482929 J-3.499391
G01 X99.258131 Y49.765813 Z-1.000000
G02 X101.374791 Y49.877512 Z-1.000000 I2.301976 J-23.510860
G02 X105.619120 Y49.822303 Z-1.000000 I0.798593 J-101.780688
G02 X106.682657 Y49.697612 Z-1.000000 I-0.219028 J-6.466180
G02 X108.875494 Y48.571702 Z-1.000000 I-0.899671 J-4.450565
G02 X109.767862 Y46.827830 Z-1.000000 I-1.953057 J-2.099668
G02 X109.384643 Y44.761569 Z-1.000000 I-3.441707 J-0.430351
G02 X107.801834 Y43.152176 Z-1.000000 I-3.528769 J1.887453
G03 X107.243734 Y42.791089 Z-1.000000 I2.433859 J-4.373650
G03 X107.199600 Y42.703130 Z-1.000000 I0.065587 J-0.087959
G03 X107.540033 Y41.500460 Z-1.000000 I2.294593 J-0.000000
G03 X110.387281 Y37.523632 Z-1.000000 I29.921407 J18.414844
G03 X112.427854 Y35.624985 Z-1.000000 I8.259267 J6.830777
G03 X114.285080 Y34.746901 Z-1.000000 I3.378276 J4.742218
G01 X114.713324 Y34.631004 Z-1.000000
G01 X114.362942 Y34.639076 Z-1.000000
G02 X114.012797 Y34.651758 Z-1.000000 I0.304719 J13.252935
G02 X113.701111 Y34.671794 Z-1.000000 I0.522190 J10.557805
G01 X113.701100 Y34.671808 Z-1.000000
G00 Z3.000000

(End cutting path id: path3365)


(Start cutting path id: path3365)
(Change tool to Cylindrical cutter)

G00 Z3.000000
G00 X83.459662 Y35.030504

G01 Z-1.000000 F100.0(Penetrate)
G03 X84.885142 Y35.644801 Z-1.000000 I-0.870686 J3.981491 F100.000000
G03 X85.454762 Y36.391010 Z-1.000000 I-0.839886 J1.231644
G03 X85.528501 Y36.802476 Z-1.000000 I-1.285395 J0.442696
G03 X85.592769 Y42.397105 Z-1.000000 I-243.479330 J5.594629
G03 X85.525539 Y47.991261 Z-1.000000 I-232.777980 J0.000000
G03 X85.447893 Y48.424172 Z-1.000000 I-1.438447 J-0.034579
G03 X84.914175 Y49.227276 Z-1.000000 I-1.803412 J-0.619592
G03 X83.978669 Y49.735385 Z-1.000000 I-1.547575 J-1.734063
G01 X83.985482 Y49.791706 Z-1.000000
G02 X88.532074 Y49.852592 Z-1.000000 I4.739375 J-184.122789
G01 X93.495804 Y49.857785 Z-1.000000
G01 X93.490526 Y49.680149 Z-1.000000
G02 X93.333066 Y47.262880 Z-1.000000 I-34.273792 J1.018815
G01 X93.245969 Y47.252467 Z-1.000000
G02 X93.207047 Y47.371765 Z-1.000000 I2.579280 J0.907520
G02 X93.076766 Y47.814510 Z-1.000000 I35.389223 J10.654094
G03 X92.403961 Y48.850777 Z-1.000000 I-2.035895 J-0.585276
G03 X91.082070 Y49.491277 Z-1.000000 I-1.926644 J-2.291952
G03 X88.267937 Y49.817378 Z-1.000000 I-3.254883 J-15.782939
G03 X87.437737 Y49.590989 Z-1.000000 I-0.040666 J-1.486297
G03 X87.370722 Y49.472885 Z-1.000000 I0.075912 J-0.121140
G03 X87.337287 Y46.317489 Z-1.000000 I148.186245 J-3.148065
G03 X87.370755 Y43.164257 Z-1.000000 I149.255905 J0.007383
G03 X87.438019 Y43.005009 Z-1.000000 I0.233868 J0.004953
G03 X88.051409 Y42.780116 Z-1.000000 I0.544981 J0.537472
G03 X90.047463 Y43.239157 Z-1.000000 I-0.672346 J7.492812
G03 X90.739510 Y43.708562 Z-1.000000 I-0.641146 J1.690093
G03 X91.202505 Y44.500643 Z-1.000000 I-1.604913 J1.469479
G02 X91.332922 Y44.869020 Z-1.000000 I7.832558 J-2.565683
G01 X91.342965 Y44.869374 Z-1.000000
G02 X91.348556 Y44.843280 Z-1.000000 I-0.054459 J-0.025317
G02 X91.315561 Y42.752372 Z-1.000000 I-368.881106 J4.775430
G01 X91.276631 Y40.660222 Z-1.000000
G01 X91.052990 Y41.122042 Z-1.000000
G03 X90.570087 Y41.736799 Z-1.000000 I-1.649925 J-0.799002
G03 X89.838864 Y42.124278 Z-1.000000 I-1.307811 J-1.584313
G03 X88.220598 Y42.416642 Z-1.000000 I-2.186429 J-7.477289
G03 X87.538135 Y42.292533 Z-1.000000 I-0.101098 J-1.382522
G01 X87.344578 Y42.203117 Z-1.000000
G01 X87.344578 Y39.898634 Z-1.000000
G03 X87.378721 Y37.597054 Z-1.000000 I77.592656 J-0.000000
G03 X87.427250 Y37.112773 Z-1.000000 I3.467506 J0.102900
G03 X87.991234 Y35.938239 Z-1.000000 I2.343074 J0.402417
G03 X89.057552 Y35.273500 Z-1.000000 I1.654678 J1.466675
G03 X91.340615 Y34.963930 Z-1.000000 I2.284857 J8.277188
G03 X93.629995 Y35.272653 Z-1.000000 I0.001803 J8.629598
G03 X95.490058 Y36.388406 Z-1.000000 I-1.069550 J3.891364
G03 X96.692487 Y38.505063 Z-1.000000 I-3.690140 J3.496158
G02 X96.798052 Y38.737243 Z-1.000000 I0.811127 J-0.228705
G01 X96.836818 Y38.726017 Z-1.000000
G02 X96.735532 Y37.401739 Z-1.000000 I-7.287525 J-0.108635
G02 X96.254969 Y35.286485 Z-1.000000 I-19.167301 J3.242391
G01 X96.136961 Y34.874884 Z-1.000000
G01 X89.492896 Y34.885947 Z-1.000000
G02 X83.466034 Y34.963183 Z-1.000000 I0.449874 J270.286622
G01 X83.459569 Y35.030557 Z-1.000000
G01 X83.459662 Y35.030504 Z-1.000000
G00 Z3.000000

(End cutting path id: path3365)


(Start cutting path id: path3365)
(Change tool to Cylindrical cutter)

G00 Z3.000000
G00 X169.723112 Y34.932987

G01 Z-1.000000 F100.0(Penetrate)
G02 X169.138788 Y34.985297 Z-1.000000 I0.698003 J11.086698 F100.000000
G01 X169.139143 Y35.000851 Z-1.000000
G03 X169.780465 Y35.113521 Z-1.000000 I-0.219767 J3.132461
G03 X170.423873 Y35.367184 Z-1.000000 I-0.971507 J3.407024
G03 X170.987591 Y35.818057 Z-1.000000 I-0.822638 J1.606368
G03 X171.375819 Y36.509314 Z-1.000000 I-1.672425 J1.393928
G01 X171.552877 Y37.028569 Z-1.000000
G01 X171.552877 Y42.397105 Z-1.000000
G03 X171.488450 Y47.756039 Z-1.000000 I-222.904448 J0.000000
G03 X171.412709 Y48.225634 Z-1.000000 I-1.755339 J-0.042213
G03 X170.799235 Y49.087398 Z-1.000000 I-1.594514 J-0.485863
G03 X169.333798 Y49.739031 Z-1.000000 I-2.255038 J-3.097680
G01 X169.337658 Y49.787963 Z-1.000000
G02 X172.292570 Y49.887463 Z-1.000000 I4.498718 J-89.674604
G02 X176.487225 Y49.828871 Z-1.000000 I1.157531 J-67.309611
G02 X178.241377 Y49.618819 Z-1.000000 I-0.538685 J-11.928105
G02 X182.811270 Y47.371165 Z-1.000000 I-1.874818 J-9.581388
G02 X184.757098 Y43.892967 Z-1.000000 I-3.947003 J-4.491477
G03 X184.864026 Y43.498477 Z-1.000000 I2.136673 J0.367414
G01 X184.904983 Y43.498996 Z-1.000000
G02 X185.173949 Y43.458728 Z-1.000000 I0.130711 J-0.045326
G02 X184.988614 Y41.212869 Z-1.000000 I-9.492577 J-0.347220
G02 X184.932325 Y41.050608 Z-1.000000 I-0.636145 J0.129786
G01 X184.909086 Y41.054972 Z-1.000000
G01 X184.882296 Y41.058229 Z-1.000000
G03 X184.715341 Y40.502327 Z-1.000000 I6.028659 J-2.113620
G02 X182.599029 Y37.174886 Z-1.000000 I-6.075731 J1.527547
G02 X178.015458 Y35.038321 Z-1.000000 I-6.511551 J7.984376
G02 X177.387834 Y34.968287 Z-1.000000 I-0.766955 J4.025879
G02 X173.966614 Y34.900586 Z-1.000000 I-4.091291 J120.271991
G02 X170.541312 Y34.904132 Z-1.000000 I-1.443632 J259.797309
G02 X169.723112 Y34.932987 Z-1.000000 I0.113046 J14.820183
G01 X169.723112 Y34.932987 Z-1.000000
G00 Z3.000000

(End cutting path id: path3365)


(Start cutting path id: path3365)
(Change tool to Cylindrical cutter)

G00 Z3.000000
G00 X178.249045 Y35.215498

G01 Z-1.000000 F100.0(Penetrate)
G03 X180.764031 Y36.748235 Z-1.000000 I-1.399156 J5.125521 F100.000000
G03 X182.391387 Y39.728344 Z-1.000000 I-5.202388 J4.775263
G03 X182.529500 Y40.510770 Z-1.000000 I-4.673248 J1.228320
G03 X182.594819 Y41.923409 Z-1.000000 I-15.242902 J1.412639
G03 X182.528754 Y43.335967 Z-1.000000 I-15.134265 J-0.000000
G03 X182.387580 Y44.133982 Z-1.000000 I-4.948125 J-0.463859
G03 X180.241640 Y47.584041 Z-1.000000 I-6.654876 J-1.746922
G03 X176.099584 Y49.589482 Z-1.000000 I-5.784580 J-6.667284
G03 X175.364383 Y49.689224 Z-1.000000 I-1.319796 J-6.968780
G03 X174.355925 Y49.733686 Z-1.000000 I-1.082044 J-13.083357
G01 X173.343713 Y49.739359 Z-1.000000
G01 X173.343713 Y43.541857 Z-1.000000
G03 X173.423004 Y37.356378 Z-1.000000 I241.302959 J0.000000
G03 X173.516396 Y36.791717 Z-1.000000 I2.075476 J0.053220
G03 X173.717047 Y36.252538 Z-1.000000 I5.143511 J1.607192
G03 X173.877358 Y35.960471 Z-1.000000 I1.657506 J0.719750
G03 X174.390122 Y35.497703 Z-1.000000 I1.192405 J0.805763
G03 X175.433362 Y35.126801 Z-1.000000 I1.746515 J3.259822
G03 X176.884096 Y35.010611 Z-1.000000 I1.244692 J6.426133
G03 X178.249045 Y35.215492 Z-1.000000 I-0.185298 J5.883675
G01 X178.249045 Y35.215498 Z-1.000000
G00 Z3.000000

(End cutting path id: path3365)


(Start cutting path id: path3365)
(Change tool to Cylindrical cutter)

G00 Z3.000000
G00 X57.289469 Y35.023217

G01 Z-1.000000 F100.0(Penetrate)
G03 X58.396572 Y35.449789 Z-1.000000 I-0.675718 J3.403670 F100.000000
G03 X58.898170 Y35.986577 Z-1.000000 I-0.683608 J1.141544
G03 X59.105646 Y36.737753 Z-1.000000 I-1.727153 J0.881283
G03 X59.294774 Y41.883935 Z-1.000000 I-84.477145 J5.681200
G03 X59.182089 Y47.770655 Z-1.000000 I-115.643086 J0.730769
G03 X58.995280 Y48.594722 Z-1.000000 I-2.379436 J-0.106191
G03 X58.460435 Y49.250181 Z-1.000000 I-1.393716 J-0.591308
G03 X57.330194 Y49.741763 Z-1.000000 I-1.823022 J-2.646362
G01 X57.334895 Y49.793601 Z-1.000000
G02 X60.170690 Y49.845234 Z-1.000000 I2.835795 J-77.847547
G02 X63.000278 Y49.792973 Z-1.000000 I-0.000000 J-76.627216
G01 X63.005020 Y49.740490 Z-1.000000
G03 X62.001566 Y49.361575 Z-1.000000 I0.805402 J-3.651032
G03 X61.537058 Y48.928989 Z-1.000000 I0.633456 J-1.145886
G03 X61.276093 Y48.162739 Z-1.000000 I1.383353 J-0.898698
G03 X61.046014 Y42.832785 Z-1.000000 I71.423006 J-5.753075
G03 X61.057177 Y37.981368 Z-1.000000 I295.546459 J-1.745644
G03 X61.104022 Y37.318488 Z-1.000000 I5.536919 J0.058187
G03 X61.763866 Y35.774411 Z-1.000000 I3.083561 J0.404700
G03 X62.924569 Y35.054253 Z-1.000000 I1.603900 J1.289607
G01 X62.919834 Y35.001684 Z-1.000000
G02 X60.170690 Y34.951352 Z-1.000000 I-2.696007 J72.151034
G02 X57.292461 Y34.988296 Z-1.000000 I0.080284 J118.392116
G01 X57.289469 Y35.023217 Z-1.000000
G01 X57.289469 Y35.023217 Z-1.000000
G00 Z3.000000

(End cutting path id: path3365)


(Start cutting path id: path3365)
(Change tool to Cylindrical cutter)

G00 Z3.000000
G00 X127.882293 Y35.054253

G01 Z-1.000000 F100.0(Penetrate)
G03 X128.884960 Y35.468796 Z-1.000000 I-0.671002 J3.042832 F100.000000
G03 X129.370976 Y36.002232 Z-1.000000 I-0.740398 J1.162703
G03 X129.574321 Y36.737486 Z-1.000000 I-1.673119 J0.858471
G03 X129.759790 Y41.923409 Z-1.000000 I-86.831063 J5.701708
G03 X129.644678 Y47.699904 Z-1.000000 I-111.756518 J0.662348
G03 X129.457426 Y48.523655 Z-1.000000 I-2.386446 J-0.109320
G03 X128.926857 Y49.172359 Z-1.000000 I-1.375265 J-0.583491
G03 X127.795687 Y49.662814 Z-1.000000 I-1.828257 J-2.666958
G01 X127.800388 Y49.714652 Z-1.000000
G02 X130.636178 Y49.766286 Z-1.000000 I2.835789 J-77.847123
G02 X133.471966 Y49.714656 Z-1.000000 I-0.000000 J-77.904217
G01 X133.476668 Y49.662814 Z-1.000000
G03 X132.237615 Y48.912932 Z-1.000000 I0.486115 J-2.201825
G03 X131.569515 Y47.396770 Z-1.000000 I2.257719 J-1.900150
G03 X131.522611 Y46.733892 Z-1.000000 I5.507179 J-0.722774
G03 X131.510051 Y41.882475 Z-1.000000 I296.000504 J-3.192082
G03 X131.614248 Y37.041148 Z-1.000000 I152.186466 J0.853646
G03 X131.711645 Y36.499281 Z-1.000000 I1.965520 J0.073602
G03 X132.319389 Y35.590222 Z-1.000000 I1.939642 J0.639051
G03 X133.391626 Y35.053928 Z-1.000000 I1.600971 J1.860863
G01 X133.386906 Y35.001341 Z-1.000000
G02 X130.636178 Y34.948973 Z-1.000000 I-2.750729 J72.216754
G02 X127.887022 Y35.001504 Z-1.000000 I-0.000000 J71.962093
G01 X127.882293 Y35.054253 Z-1.000000
G01 X127.882293 Y35.054253 Z-1.000000
G00 Z3.000000

(End cutting path id: path3365)


(Start cutting path id: path3365)
(Change tool to Cylindrical cutter)

G00 Z3.000000
G00 X135.891889 Y35.053124

G01 Z-1.000000 F100.0(Penetrate)
G03 X137.395577 Y35.694069 Z-1.000000 I-0.736894 J3.813120 F100.000000
G03 X138.045107 Y36.573983 Z-1.000000 I-1.003073 J1.420132
G03 X138.143009 Y37.120109 Z-1.000000 I-1.909139 J0.624085
G03 X138.249021 Y41.823731 Z-1.000000 I-144.317056 J5.605660
G03 X137.942202 Y48.294905 Z-1.000000 I-60.433750 J0.377511
G03 X137.506624 Y49.149091 Z-1.000000 I-1.317101 J-0.133484
G03 X136.766200 Y49.614864 Z-1.000000 I-1.750476 J-1.961272
G03 X135.981021 Y49.783995 Z-1.000000 I-0.851572 J-2.046235
G01 X135.954724 Y49.814380 Z-1.000000
G02 X135.989798 Y49.860616 Z-1.000000 I0.056551 J-0.006478
G02 X137.906366 Y50.236150 Z-1.000000 I1.916905 J-4.704630
G02 X143.755997 Y49.861180 Z-1.000000 I0.003033 J-45.768106
G02 X149.014001 Y47.734884 Z-1.000000 I-1.429738 J-11.099786
G02 X151.365304 Y44.190139 Z-1.000000 I-3.761759 J-5.047460
G02 X151.585625 Y42.371297 Z-1.000000 I-7.400417 J-1.819198
G02 X151.365304 Y40.534317 Z-1.000000 I-7.765266 J-0.000362
G02 X149.369782 Y37.286997 Z-1.000000 I-6.024207 J1.465159
G02 X145.079448 Y35.160557 Z-1.000000 I-6.358593 J7.437847
G02 X144.293180 Y35.062069 Z-1.000000 I-0.948940 J4.387964
G02 X139.823736 Y34.969990 Z-1.000000 I-5.177550 J142.795598
G02 X135.896052 Y35.001778 Z-1.000000 I-0.746046 J150.485275
G01 X135.891683 Y35.053129 Z-1.000000
G01 X135.891889 Y35.053124 Z-1.000000
G00 Z3.000000

(End cutting path id: path3365)


(Start cutting path id: path3365)
(Change tool to Cylindrical cutter)

G00 Z3.000000
G00 X144.635233 Y35.216991

G01 Z-1.000000 F100.0(Penetrate)
G03 X147.328709 Y36.696413 Z-1.000000 I-1.036992 J5.079593 F100.000000
G03 X149.050390 Y39.791937 Z-1.000000 I-4.956247 J4.783135
G03 X149.306349 Y42.595691 Z-1.000000 I-8.757132 J2.213011
G03 X148.692979 Y45.244939 Z-1.000000 I-8.408248 J-0.551100
G03 X147.700905 Y46.923392 Z-1.000000 I-6.273901 J-2.575863
G03 X146.251260 Y48.276401 Z-1.000000 I-5.463581 J-4.400712
G03 X145.156972 Y48.905505 Z-1.000000 I-4.138358 J-5.932136
G03 X143.872790 Y49.379887 Z-1.000000 I-3.580837 J-7.718195
G03 X141.277152 Y49.897680 Z-1.000000 I-4.679375 J-16.692450
G03 X140.180061 Y49.826980 Z-1.000000 I-0.359485 J-2.969103
G01 X139.974333 Y49.774622 Z-1.000000
G01 X139.996797 Y43.520093 Z-1.000000
G01 X140.019262 Y37.265568 Z-1.000000
G01 X140.197661 Y36.731327 Z-1.000000
G03 X140.822568 Y35.786215 Z-1.000000 I2.075183 J0.692958
G03 X141.907558 Y35.217456 Z-1.000000 I1.695377 J1.914910
G03 X143.149383 Y35.066996 Z-1.000000 I1.242704 J5.056720
G03 X144.635241 Y35.216610 Z-1.000000 I0.001256 J7.440586
G01 X144.635233 Y35.216991 Z-1.000000
G00 Z3.000000

(End cutting path id: path3365)


(Start cutting path id: path3365)
(Change tool to Cylindrical cutter)

G00 Z3.000000
G00 X151.970479 Y35.050702

G01 Z-1.000000 F100.0(Penetrate)
G03 X153.075573 Y35.635170 Z-1.000000 I-0.829001 J2.904422 F100.000000
G03 X153.806188 Y36.581103 Z-1.000000 I-1.767899 J2.120602
G03 X158.134511 Y46.854941 Z-1.000000 I-123.791998 J58.201702
G03 X158.588785 Y49.365849 Z-1.000000 I-6.712135 J2.510908
G02 X158.644844 Y49.564915 Z-1.000000 I0.381471 J0.000000
G02 X158.936471 Y49.934202 Z-1.000000 I1.684556 J-1.030506
G03 X159.381149 Y50.566489 Z-1.000000 I-1.566671 J1.574325
G03 X159.526691 Y51.194398 Z-1.000000 I-1.398395 J0.654955
G01 X159.563460 Y51.201223 Z-1.000000
G02 X160.387554 Y49.068449 Z-1.000000 I-66.167991 J-26.792581
G02 X162.246143 Y44.011897 Z-1.000000 I-5316.737820 J-1957.093757
G02 X163.169251 Y41.489343 Z-1.000000 I-1325.356298 J-486.433641
G03 X163.558188 Y40.423550 Z-1.000000 I9402.788877 J3436.271369
G03 X164.120171 Y38.884022 Z-1.000000 R21033.904638
G03 X165.687297 Y35.823669 Z-1.000000 I13.139535 J4.796989
G03 X166.725407 Y35.047005 Z-1.000000 I1.645414 J1.117190
G01 X166.718619 Y34.996751 Z-1.000000
G02 X164.272740 Y34.944429 Z-1.000000 I-2.504632 J59.888505
G01 X161.508625 Y34.941607 Z-1.000000
G01 X161.935794 Y35.091102 Z-1.000000
G03 X162.679465 Y35.563079 Z-1.000000 I-0.641277 J1.832305
G03 X162.994841 Y36.169318 Z-1.000000 I-0.833650 J0.818830
G03 X163.014785 Y36.471722 Z-1.000000 I-1.274989 J0.235946
G03 X162.955192 Y36.941667 Z-1.000000 I-3.162777 J-0.162316
G03 X162.007071 Y40.359614 Z-1.000000 I-24.973627 J-5.087081
G03 X161.450160 Y41.193159 Z-1.000000 I-1.919037 J-0.679339
G03 X161.271993 Y41.266908 Z-1.000000 I-0.193137 J-0.214501
G03 X158.789693 Y41.331321 Z-1.000000 I-2.482299 J-47.798698
G03 X156.298085 Y41.284656 Z-1.000000 I-0.000000 J-66.540863
G03 X156.149222 Y41.232374 Z-1.000000 I0.009986 J-0.266506
G03 X155.705344 Y40.609128 Z-1.000000 I0.737813 J-0.995163
G03 X154.885050 Y37.215810 Z-1.000000 I24.601815 J-7.743000
G03 X154.878683 Y36.160325 Z-1.000000 I3.197467 J-0.547050
G03 X155.137026 Y35.628027 Z-1.000000 I1.006733 J0.159764
G03 X155.605460 Y35.276052 Z-1.000000 I1.200809 J1.110421
G03 X156.351776 Y35.019669 Z-1.000000 I1.328474 J2.652680
G01 X156.349007 Y34.986555 Z-1.000000
G02 X154.150629 Y34.952162 Z-1.000000 I-2.244339 J73.178837
G02 X151.976336 Y35.000521 Z-1.000000 I-0.030857 J47.515921
G01 X151.970479 Y35.050578 Z-1.000000
G01 X151.970479 Y35.050702 Z-1.000000
G00 Z3.000000

(End cutting path id: path3365)


(Start cutting path id: path3365)
(Change tool to Cylindrical cutter)

G00 Z3.000000
G00 X161.076280 Y41.997490

G01 Z-1.000000 F100.0(Penetrate)
G03 X161.099625 Y42.122503 Z-1.000000 I-0.102409 J0.083810 F100.000000
G03 X160.048035 Y45.135713 Z-1.000000 I-79.189123 J-25.946387
G03 X158.868040 Y48.075836 Z-1.000000 I-55.555671 J-20.589977
G03 X158.739099 Y48.160534 Z-1.000000 I-0.128940 J-0.055797
G03 X158.611162 Y48.075459 Z-1.000000 I0.000000 J-0.138734
G03 X157.471808 Y45.139004 Z-1.000000 I53.771663 J-22.552832
G03 X156.462985 Y42.129691 Z-1.000000 I76.063687 J-27.172865
G03 X156.487917 Y42.000780 Z-1.000000 I0.131907 J-0.041355
G03 X158.783543 Y40.912313 Z-1.000000 I2.297518 J1.880544
G03 X161.076280 Y41.997450 Z-1.000000 I0.001886 J2.960693
G01 X161.076280 Y41.997490 Z-1.000000
G00 Z3.000000

(End cutting path id: path3365)


(Start cutting path id: path3365)
(Change tool to Cylindrical cutter)

G00 Z3.000000
G00 X19.299067 Y49.903841

G01 Z-1.000000 F100.0(Penetrate)
G02 X19.321914 Y49.956476 Z-1.000000 I0.079493 J-0.003230 F100.000000
G01 X19.346108 Y49.951539 Z-1.000000
G02 X19.362810 Y49.852856 Z-1.000000 I-0.225147 J-0.088859
G02 X19.339962 Y49.800220 Z-1.000000 I-0.079493 J0.003229
G01 X19.315767 Y49.805161 Z-1.000000
G02 X19.299067 Y49.903841 Z-1.000000 I0.225137 J0.088855
G01 X19.299067 Y49.903841 Z-1.000000
G00 Z3.000000

(End cutting path id: path3365)


(Start cutting path id: path3367)
(Change tool to Cylindrical cutter)

G00 Z3.000000
G00 X52.150860 Y12.638674

G01 Z-1.000000 F100.0(Penetrate)
G02 X44.294122 Y20.346628 Z-1.000000 I-0.056559 J7.800523 F100.000000
G02 X51.813187 Y28.305998 Z-1.000000 I7.873353 J0.093438
G02 X56.842981 Y27.858857 Z-1.000000 I1.904501 J-7.089782
G02 X58.024159 Y24.021717 Z-1.000000 I-1.155561 J-2.456083
G03 X49.249913 Y26.900757 Z-1.000000 I-5.383511 J-1.597103
G03 X47.814891 Y16.939148 Z-1.000000 I4.323069 J-5.706926
G03 X54.038316 Y12.950498 Z-1.000000 I5.666356 J1.991644
G03 X58.883015 Y17.153154 Z-1.000000 I-0.510695 J5.482455
G02 X56.399069 Y13.371029 Z-1.000000 I-4.217596 J0.063205
G02 X52.150860 Y12.638674 Z-1.000000 I-3.541349 J7.854907
G01 X52.150860 Y12.638674 Z-1.000000
G00 Z3.000000

(End cutting path id: path3367)


(Start cutting path id: path3367)
(Change tool to Cylindrical cutter)

G00 Z3.000000
G00 X89.437660 Y13.876768

G01 Z-1.000000 F100.0(Penetrate)
G02 X83.200139 Y21.954841 Z-1.000000 I15.379721 J18.322723 F100.000000
G03 X79.107282 Y23.671440 Z-1.000000 I-3.003376 J-1.423333
G03 X79.786186 Y13.182476 Z-1.000000 I13.541448 J-4.389976
G03 X81.201854 Y13.038283 Z-1.000000 I0.751470 J0.356322
G03 X78.254286 Y12.992601 Z-1.000000 I-1.228536 J-15.847028
G02 X76.885057 Y13.004234 Z-1.000000 I-0.635067 J5.837538
G02 X76.696441 Y13.383303 Z-1.000000 I0.031791 J0.252278
G02 X78.271563 Y15.211386 Z-1.000000 I5.561468 J-3.199276
G02 X79.128806 Y23.542347 Z-1.000000 I1154.437528 J-114.580340
G03 X75.963499 Y28.047649 Z-1.000000 I-4.158315 J0.443059
G02 X79.894298 Y27.046609 Z-1.000000 I1.188214 J-3.552307
G03 X82.570818 Y24.251370 Z-1.000000 I98.183974 J91.334876
G02 X85.485982 Y20.903104 Z-1.000000 I-37.795122 J-35.849458
G03 X88.229591 Y18.177072 Z-1.000000 I13.184704 J10.526053
G03 X89.351064 Y18.387486 Z-1.000000 I0.468831 J0.595051
G03 X90.023409 Y22.171398 Z-1.000000 I-4.740918 J2.794080
G03 X90.012040 Y25.139861 Z-1.000000 I-2.438524 J1.474914
G03 X88.581209 Y26.957721 Z-1.000000 I-8.570943 J-5.274128
G02 X87.739166 Y27.824176 Z-1.000000 I39.300009 J39.035129
G02 X87.687772 Y28.102188 Z-1.000000 I0.187677 J0.178451
G02 X87.884083 Y28.231900 Z-1.000000 I0.194540 J-0.081016
G02 X89.879798 Y28.068259 Z-1.000000 I-0.114739 J-13.650736
G02 X91.118048 Y25.884839 Z-1.000000 I0.309634 J-1.267227
G03 X90.577572 Y20.670213 Z-1.000000 I2.984596 J-2.944664
G03 X90.399698 Y14.414415 Z-1.000000 I5.696012 J-3.292385
G02 X89.437660 Y13.876768 Z-1.000000 I-0.492418 J-0.248428
G01 X89.437660 Y13.876768 Z-1.000000
G00 Z3.000000

(End cutting path id: path3367)


(Start cutting path id: path3367)
(Change tool to Cylindrical cutter)

G00 Z3.000000
G00 X124.017872 Y12.728090

G01 Z-1.000000 F100.0(Penetrate)
G02 X120.608739 Y13.571989 Z-1.000000 I-1.080361 J2.943576 F100.000000
G02 X117.853994 Y17.077380 Z-1.000000 I24.490321 J22.081074
G03 X115.688840 Y19.111865 Z-1.000000 I-5.672590 J-3.867571
G03 X113.506099 Y18.440697 Z-1.000000 I-0.787231 J-1.324694
G03 X113.835288 Y15.151732 Z-1.000000 I3.105835 J-1.350097
G03 X115.151919 Y13.675562 Z-1.000000 I6.843663 J4.778773
G02 X115.072527 Y13.254165 Z-1.000000 I-0.165273 J-0.187040
G02 X112.844615 Y12.980501 Z-1.000000 I-1.700902 J4.641537
G03 X110.256025 Y12.958448 Z-1.000000 I-1.141633 J-17.930590
G02 X109.740225 Y13.013937 Z-1.000000 I-0.111897 J1.384920
G02 X109.701047 Y13.199199 Z-1.000000 I0.031420 J0.103418
G02 X111.530608 Y14.646487 Z-1.000000 I17.932854 J-20.789418
G03 X112.301504 Y24.680911 Z-1.000000 I-232.572466 J22.914223
G03 X110.197641 Y28.032646 Z-1.000000 I-3.420986 J0.188827
G02 X117.754131 Y26.958249 Z-1.000000 I2.740555 J-7.835515
G02 X118.017074 Y20.277156 Z-1.000000 I-2.451886 J-3.442218
G03 X118.615699 Y18.206615 Z-1.000000 I2.334297 J-0.446926
G03 X121.741619 Y15.169727 Z-1.000000 I33.311515 J31.160897
G03 X124.183982 Y13.014270 Z-1.000000 I13040.089421 J14773.343776
G02 X124.017872 Y12.728090 Z-1.000000 I-0.111627 J-0.126506
G01 X124.017872 Y12.728090 Z-1.000000
G00 Z3.000000

(End cutting path id: path3367)


(Start cutting path id: path3367)
(Change tool to Cylindrical cutter)

G00 Z3.000000
G00 X115.243603 Y20.662201

G01 Z-1.000000 F100.0(Penetrate)
G03 X117.945644 Y23.706062 Z-1.000000 I-0.529540 J3.191308 F100.000000
G03 X116.991553 Y26.355746 Z-1.000000 I-3.688935 J0.168314
G03 X115.477910 Y27.537590 Z-1.000000 I-4.178071 J-3.790835
G03 X114.347311 Y27.667302 Z-1.000000 I-0.728789 J-1.360155
G03 X113.711824 Y27.058123 Z-1.000000 I0.238697 J-0.885060
G03 X113.500821 Y24.194818 Z-1.000000 I5.950625 J-1.877940
G02 X113.564342 Y22.044818 Z-1.000000 I-3.929547 J-1.192035
G03 X115.243603 Y20.662201 Z-1.000000 I1.176440 J-0.282236
G01 X115.243603 Y20.662201 Z-1.000000
G00 Z3.000000

(End cutting path id: path3367)


(Start cutting path id: path3367)
(Change tool to Cylindrical cutter)

G00 Z3.000000
G00 X60.275211 Y12.850992

G01 Z-1.000000 F100.0(Penetrate)
G03 X64.004612 Y19.598146 Z-1.000000 I-2.309942 J5.681056 F100.000000
G03 X62.056849 Y27.356235 Z-1.000000 I-55.322410 J-9.765820
G02 X62.276843 Y28.220736 Z-1.000000 I0.146300 J0.423012
G03 X70.694489 Y27.846684 Z-1.000000 I5.747068 J34.429577
G02 X72.016908 Y27.215657 Z-1.000000 I0.340773 J-0.987040
G02 X72.098933 Y25.875605 Z-1.000000 I-2.230934 J-0.809092
G02 X71.704497 Y25.665678 Z-1.000000 I-0.288306 J0.066183
G02 X70.823171 Y26.756668 Z-1.000000 I0.502548 J1.307443
G03 X64.815908 Y25.214616 Z-1.000000 I-2.423330 J-3.031667
G03 X65.757801 Y21.006774 Z-1.000000 I3.454904 J-1.435985
G03 X68.222231 Y21.804642 Z-1.000000 I-0.086389 J4.471797
G02 X68.985649 Y22.258379 Z-1.000000 I3.588091 J-5.167906
G02 X69.259120 Y22.101031 Z-1.000000 I0.084845 J-0.168859
G02 X69.196767 Y19.241288 Z-1.000000 I-17.271764 J-1.053959
G02 X68.756669 Y19.044893 Z-1.000000 I-0.223073 J-0.091420
G03 X64.939069 Y17.556850 Z-1.000000 I-1.850010 J-0.894850
G03 X66.458069 Y13.900583 Z-1.000000 I3.412585 J-0.725907
G03 X69.440935 Y13.289211 Z-1.000000 I2.275987 J3.522137
G03 X74.022059 Y15.013228 Z-1.000000 I-2.178025 J12.736115
G03 X74.408564 Y16.443613 Z-1.000000 I-0.564687 J0.919996
G02 X71.713250 Y12.998893 Z-1.000000 I-2.824136 J-0.567093
G03 X67.730134 Y12.783188 Z-1.000000 I9.524296 J-212.754924
G03 X64.002317 Y12.791522 Z-1.000000 I-3.284966 J-635.650950
G02 X60.275211 Y12.850992 Z-1.000000 I-0.077983 J111.934936
G01 X60.275211 Y12.850992 Z-1.000000
G00 Z3.000000

(End cutting path id: path3367)


(Start cutting path id: path3367)
(Change tool to Cylindrical cutter)

G00 Z3.000000
G00 X97.107686 Y13.002873

G01 Z-1.000000 F100.0(Penetrate)
G03 X99.697160 Y15.409991 Z-1.000000 I-1.101345 J3.781160 F100.000000
G03 X100.528762 Y20.007216 Z-1.000000 I-12.402812 J4.617400
G03 X99.846399 Y25.392910 Z-1.000000 I-21.338312 J0.032528
G03 X98.722520 Y27.512456 Z-1.000000 I-5.008505 J-1.297997
G03 X96.117855 Y27.037089 Z-1.000000 I-0.860354 J-2.659401
G03 X94.691862 Y25.773254 Z-1.000000 I11.604078 J-14.529349
G02 X94.309069 Y25.877007 Z-1.000000 I-0.161025 J0.163934
G02 X94.228396 Y28.011482 Z-1.000000 I4.575738 J1.241702
G02 X97.995815 Y28.169320 Z-1.000000 I2.219896 J-7.945455
G03 X104.430332 Y28.044474 Z-1.000000 I3.582437 J18.758704
G02 X107.511397 Y27.191226 Z-1.000000 I0.951634 J-2.553127
G02 X107.817896 Y24.968957 Z-1.000000 I-1.714635 J-1.368756
G03 X103.724392 Y26.701860 Z-1.000000 I-2.987871 J-1.356682
G03 X101.918111 Y22.490583 Z-1.000000 I1.053908 J-2.945047
G03 X102.028908 Y14.293118 Z-1.000000 I17.802301 J-3.858864
G03 X103.633951 Y13.000892 Z-1.000000 I1.648114 J0.404178
G03 X100.370683 Y12.957582 Z-1.000000 I45.179263 J-3527.090477
G02 X97.107686 Y13.002867 Z-1.000000 I-0.811656 J59.095759
G01 X97.107686 Y13.002873 Z-1.000000
G00 Z3.000000

(End cutting path id: path3367)


(Start cutting path id: path3367)
(Change tool to Cylindrical cutter)

G00 Z3.000000
G00 X126.509499 Y13.119812

G01 Z-1.000000 F100.0(Penetrate)
G03 X131.275938 Y20.702070 Z-1.000000 I-6.273099 J9.232755 F100.000000
G02 X134.451436 Y29.441276 Z-1.000000 I23.130360 J-3.458168
G02 X138.316179 Y18.739005 Z-1.000000 I-51.801242 J-24.755114
G03 X141.479432 Y13.055267 Z-1.000000 I12.239966 J3.089972
G03 X138.986424 Y13.036812 Z-1.000000 I-1.170316 J-10.300757
G02 X137.571522 Y12.992613 Z-1.000000 I-0.935256 J7.270462
G02 X137.226225 Y13.397310 Z-1.000000 I0.024287 J0.370379
G02 X137.904698 Y14.996979 Z-1.000000 I2.848727 J-0.264525
G03 X133.676711 Y19.600369 Z-1.000000 I-4.060236 J0.514168
G03 X129.940415 Y14.380786 Z-1.000000 I0.166818 J-4.066466
G02 X131.271437 Y13.253074 Z-1.000000 I-1.273923 J-2.852942
G02 X131.099752 Y12.935696 Z-1.000000 I-0.170478 J-0.112906
G02 X128.751920 Y13.083078 Z-1.000000 I0.122262 J20.722031
G03 X126.509499 Y13.119812 Z-1.000000 I-1.298716 J-10.817656
G01 X126.509499 Y13.119812 Z-1.000000
G00 Z3.000000

(End cutting path id: path3367)


(Start cutting path id: path3367)
(Change tool to Cylindrical cutter)

G00 Z3.000000
G00 X135.960526 Y20.195826

G01 Z-1.000000 F100.0(Penetrate)
G03 X135.188564 Y23.228876 Z-1.000000 I-34.389081 J-7.137830 F100.000000
G03 X134.227321 Y25.173212 Z-1.000000 I-6.306503 J-1.908036
G03 X133.532381 Y25.203074 Z-1.000000 I-0.359237 J-0.258905
G03 X132.223291 Y22.355398 Z-1.000000 I4.306697 J-3.704543
G03 X133.410062 Y20.267494 Z-1.000000 I1.169657 J-0.716398
G02 X135.960526 Y20.195826 Z-1.000000 I0.392456 J-31.451309
G01 X135.960526 Y20.195826 Z-1.000000
G00 Z3.000000

(End cutting path id: path3367)


(Start cutting path id: path3367)
(Change tool to Cylindrical cutter)

G00 Z3.000000
G00 X143.671780 Y13.060963

G01 Z-1.000000 F100.0(Penetrate)
G03 X147.508763 Y20.059052 Z-1.000000 I-2.377070 J5.854259 F100.000000
G03 X145.167941 Y27.550853 Z-1.000000 I-32.026881 J-5.895240
G02 X145.154920 Y27.977045 Z-1.000000 I0.027900 J0.214147
G02 X147.869483 Y28.249631 Z-1.000000 I2.858170 J-14.810371
G02 X149.793371 Y28.173346 Z-1.000000 I0.186551 J-19.593337
G02 X150.407764 Y27.949843 Z-1.000000 I-0.112695 J-1.265999
G02 X150.408859 Y27.690445 Z-1.000000 I-0.090727 J-0.130084
G02 X148.553058 Y26.752728 Z-1.000000 I-4.038966 J5.688138
G02 X147.803041 Y18.870826 Z-1.000000 I-26.706683 J-1.435311
G03 X153.216276 Y13.543374 Z-1.000000 I4.281605 J-1.063378
G02 X156.084219 Y15.788350 Z-1.000000 I27.970331 J-32.777550
G02 X156.608646 Y15.924215 Z-1.000000 I0.438206 J-0.611379
G02 X156.769905 Y15.656646 Z-1.000000 I-0.022617 J-0.196009
G02 X155.490583 Y13.030522 Z-1.000000 I-16.582182 J6.453370
G03 X149.580798 Y13.027721 Z-1.000000 I-2.357365 J-1260.770376
G02 X143.671780 Y13.060963 Z-1.000000 I-0.986011 J349.938572
G01 X143.671780 Y13.060963 Z-1.000000
G00 Z3.000000

(End cutting path id: path3367)


(Start cutting path id: path3367)
(Change tool to Cylindrical cutter)

G00 Z3.000000
G00 X73.306729 Y34.120317

G01 Z-1.000000 F100.0(Penetrate)
G03 X68.740618 Y45.603766 Z-1.000000 I-163.589891 J-58.397970 F100.000000
G03 X66.247093 Y49.934448 Z-1.000000 I-21.146959 J-9.292821
G03 X69.320430 Y49.955479 Z-1.000000 I1.460806 J11.096285
G02 X70.613572 Y50.042579 Z-1.000000 I1.208633 J-8.301183
G02 X70.872632 Y49.689109 Z-1.000000 I-0.002757 J-0.273689
G02 X69.897157 Y47.897864 Z-1.000000 I-4.841339 J1.475258
G02 X70.957862 Y44.959575 Z-1.000000 I-14.397317 J-6.857940
G03 X72.583130 Y40.143189 Z-1.000000 I31.979852 J8.109049
G03 X73.535402 Y38.412595 Z-1.000000 I9.058776 J3.857362
G03 X74.159575 Y38.083031 Z-1.000000 I0.627463 J0.432521
G03 X74.673427 Y38.385500 Z-1.000000 I0.002518 J0.583437
G03 X75.701709 Y41.094587 Z-1.000000 I-9.120548 J5.011563
G02 X77.916308 Y45.845316 Z-1.000000 I18.595145 J-5.776767
G03 X76.037232 Y49.922806 Z-1.000000 I-2.239845 J1.439510
G03 X78.988353 Y50.002060 Z-1.000000 I1.016191 J17.144745
G02 X80.562160 Y49.998582 Z-1.000000 I0.771863 J-6.807596
G02 X80.766464 Y49.591464 Z-1.000000 I-0.031922 J-0.270841
G02 X79.089403 Y47.727185 Z-1.000000 I-5.226388 J3.015072
G03 X76.138802 Y40.920897 Z-1.000000 I54.114549 J-27.501958
G02 X73.306729 Y34.120317 Z-1.000000 I-74.193194 J26.907454
G01 X73.306729 Y34.120317 Z-1.000000
G00 Z3.000000

(End cutting path id: path3367)


(Start cutting path id: path3367)
(Change tool to Cylindrical cutter)

G00 Z3.000000
G00 X51.995136 Y35.543254

G01 Z-1.000000 F100.0(Penetrate)
G02 X49.601060 Y37.983720 Z-1.000000 I10.747555 J12.937776 F100.000000
G03 X46.345852 Y41.909074 Z-1.000000 I-108.622850 J-86.766067
G03 X43.024854 Y45.255219 Z-1.000000 I-25.203623 J-21.693115
G03 X41.540211 Y45.369303 Z-1.000000 I-0.818690 J-0.936789
G03 X41.686652 Y36.034133 Z-1.000000 I15.946922 J-4.418573
G03 X43.614764 Y34.847663 Z-1.000000 I1.643869 J0.511519
G03 X40.523667 Y34.807331 Z-1.000000 I-1.342047 J-15.616564
G02 X39.333075 Y34.827944 Z-1.000000 I-0.515926 J4.594598
G02 X39.151245 Y35.198681 Z-1.000000 I0.036564 J0.247892
G02 X40.719449 Y37.182471 Z-1.000000 I7.068520 J-3.975997
G03 X41.578731 Y45.551314 Z-1.000000 I-97.280180 J14.216901
G03 X38.363554 Y49.916710 Z-1.000000 I-4.228985 J0.252002
G02 X42.306135 Y48.920273 Z-1.000000 I1.192849 J-3.578261
G03 X44.990908 Y46.117601 Z-1.000000 I141.457806 J132.819908
G02 X47.651364 Y43.171634 Z-1.000000 I-15.108554 J-16.318584
G03 X50.477434 Y40.056102 Z-1.000000 I18.377566 J13.830605
G03 X51.762203 Y39.203865 Z-1.000000 I3.337422 J3.636718
G03 X52.374355 Y39.327451 Z-1.000000 I0.220985 J0.483272
G03 X52.648622 Y39.999072 Z-1.000000 I-0.766523 J0.704833
G03 X52.427861 Y43.322190 Z-1.000000 I-16.970292 J0.541523
G03 X50.501193 Y49.813005 Z-1.000000 I-3.262652 J2.562901
G02 X50.537088 Y49.926986 Z-1.000000 I0.019245 J0.056582
G03 X53.376564 Y49.996906 Z-1.000000 I0.986508 J17.628456
G02 X54.271120 Y49.927617 Z-1.000000 I0.259498 J-2.458973
G02 X54.447358 Y49.557099 Z-1.000000 I-0.069107 J-0.260044
G02 X53.185405 Y47.528780 Z-1.000000 I-8.184133 J3.685165
G03 X53.576174 Y36.608997 Z-1.000000 I11.029039 J-5.072205
G02 X51.995136 Y35.543254 Z-1.000000 I-0.838889 J-0.461115
G01 X51.995136 Y35.543254 Z-1.000000
G00 Z3.000000

(End cutting path id: path3367)


(Start cutting path id: path3367)
(Change tool to Cylindrical cutter)

G00 Z3.000000
G00 X26.441776 Y34.547833

G01 Z-1.000000 F100.0(Penetrate)
G02 X23.050424 Y37.207918 Z-1.000000 I0.539418 J4.179572 F100.000000
G02 X21.717998 Y42.811948 Z-1.000000 I19.895222 J7.690744
G02 X21.557175 Y49.667010 Z-1.000000 I45.822634 J4.504441
G03 X21.080937 Y49.962278 Z-1.000000 I-0.319525 J0.016334
G03 X23.886840 Y49.931208 Z-1.000000 I1.542769 J12.611379
G02 X25.563054 Y49.987477 Z-1.000000 I1.263601 J-12.647123
G02 X25.707374 Y49.679517 Z-1.000000 I-0.006194 J-0.190699
G02 X24.129750 Y48.322962 Z-1.000000 I-4.156358 J3.238056
G03 X24.336131 Y38.911090 Z-1.000000 I10.212731 J-4.484256
G03 X33.138528 Y37.652218 Z-1.000000 I4.831486 J2.379260
G03 X33.909122 Y40.987923 Z-1.000000 I-8.502863 J3.721138
G03 X33.672193 Y45.265570 Z-1.000000 I-22.128612 J0.919734
G03 X32.515591 Y49.180375 Z-1.000000 I-14.981886 J-2.298036
G03 X31.337287 Y49.917283 Z-1.000000 I-1.139960 J-0.512278
G03 X34.383577 Y49.977879 Z-1.000000 I1.230144 J14.760039
G02 X35.614367 Y49.950628 Z-1.000000 I0.522128 J-4.225975
G02 X35.863287 Y49.520671 Z-1.000000 I-0.053692 J-0.318118
G02 X34.559918 Y47.315425 Z-1.000000 I-6.718307 J2.482939
G02 X33.664811 Y39.504408 Z-1.000000 I-50.184124 J1.794078
G02 X26.441776 Y34.547833 Z-1.000000 I-6.132191 J1.194998
G01 X26.441776 Y34.547833 Z-1.000000
G00 Z3.000000

(End cutting path id: path3367)


(Start cutting path id: path3367)
(Change tool to Cylindrical cutter)

G00 Z3.000000
G00 X118.567503 Y34.613100

G01 Z-1.000000 F100.0(Penetrate)
G02 X116.394504 Y35.505543 Z-1.000000 I-0.515251 J1.837148 F100.000000
G02 X115.691643 Y37.624134 Z-1.000000 I4.938329 J2.814219
G02 X115.710911 Y38.731898 Z-1.000000 I3.937648 J0.485560
G02 X115.909882 Y38.896545 Z-1.000000 I0.192962 J-0.030641
G02 X116.131196 Y38.760361 Z-1.000000 I-0.008030 J-0.260972
G02 X116.962536 Y36.772755 Z-1.000000 I-9.278602 J-5.048549
G03 X120.961824 Y35.398738 Z-1.000000 I3.197003 J2.798090
G03 X122.722016 Y36.872908 Z-1.000000 I-0.446286 J2.320815
G03 X122.640769 Y39.640525 Z-1.000000 I-3.352984 J1.286569
G03 X119.006915 Y42.459267 Z-1.000000 I-4.485029 J-2.030280
G02 X117.708525 Y47.172288 Z-1.000000 I2.534652 J3.233628
G02 X119.919005 Y49.272964 Z-1.000000 I3.321786 J-1.282070
G02 X123.562725 Y49.324825 Z-1.000000 I1.904751 J-5.797940
G02 X124.223451 Y47.162038 Z-1.000000 I-0.386574 J-1.300416
G03 X120.019542 Y48.105650 Z-1.000000 I-2.367245 J-0.710094
G03 X121.295779 Y43.548157 Z-1.000000 I2.081842 J-1.874460
G02 X124.049797 Y37.719712 Z-1.000000 I-1.658601 J-4.348588
G02 X118.567503 Y34.613100 Z-1.000000 I-4.471027 J1.499445
G01 X118.567503 Y34.613100 Z-1.000000
G00 Z3.000000

(End cutting path id: path3367)


(Start cutting path id: path3367)
(Change tool to Cylindrical cutter)

G00 Z3.000000
G00 X113.584308 Y34.597352

G01 Z-1.000000 F100.0(Penetrate)
G02 X109.982230 Y35.534859 Z-1.000000 I-1.125252 J3.065257 F100.000000
G02 X106.998181 Y39.343502 Z-1.000000 I40.668959 J34.937194
G03 X105.557306 Y41.222012 Z-1.000000 I-27.657400 J-19.722233
G03 X104.691416 Y41.794715 Z-1.000000 I-1.367641 J-1.126849
G03 X104.046577 Y41.574502 Z-1.000000 I-0.166928 J-0.565425
G03 X103.011259 Y39.258342 Z-1.000000 I5.046434 J-3.645217
G03 X103.344251 Y36.629802 Z-1.000000 I2.113003 J-1.067681
G03 X104.764860 Y35.435122 Z-1.000000 I4.618279 J4.049684
G02 X104.746774 Y35.135095 Z-1.000000 I-0.088546 J-0.145221
G02 X103.223809 Y34.858726 Z-1.000000 I-1.308091 J2.873975
G03 X100.598477 Y34.855437 Z-1.000000 I-1.295886 J-13.394634
G02 X99.457528 Y34.849437 Z-1.000000 I-0.602400 J6.067906
G02 X99.356925 Y35.106691 Z-1.000000 I0.013621 J0.153625
G02 X101.028323 Y36.500918 Z-1.000000 I5.827042 J-5.286505
G02 X101.198289 Y42.558781 Z-1.000000 I574.753852 J-13.094561
G03 X100.978841 Y48.544348 Z-1.000000 I-42.814284 J1.427115
G02 X99.837943 Y49.457717 Z-1.000000 I0.866519 J2.251615
G02 X99.948029 Y49.871015 Z-1.000000 I0.237200 J0.158130
G02 X100.968038 Y50.166820 Z-1.000000 I1.323193 J-2.656170
G02 X103.407184 Y50.231435 Z-1.000000 I1.644627 J-16.013007
G02 X108.299035 Y49.302548 Z-1.000000 I-0.891528 J-18.040660
G02 X109.845098 Y46.832738 Z-1.000000 I-0.736802 J-2.180038
G03 X108.575349 Y42.675022 Z-1.000000 I20.191588 J-8.439170
G03 X110.319234 Y37.743904 Z-1.000000 I5.014816 J-1.000437
G03 X110.692936 Y36.828326 Z-1.000000 I0.787686 J-0.212552
G03 X113.165107 Y35.415599 Z-1.000000 I55.465451 J94.191135
G02 X113.770665 Y34.892050 Z-1.000000 I-0.945242 J-1.705288
G02 X113.584308 Y34.597352 Z-1.000000 I-0.147931 J-0.112726
G01 X113.584308 Y34.597352 Z-1.000000
G00 Z3.000000

(End cutting path id: path3367)


(Start cutting path id: path3367)
(Change tool to Cylindrical cutter)

G00 Z3.000000
G00 X104.085092 Y42.393803

G01 Z-1.000000 F100.0(Penetrate)
G03 X107.380041 Y44.605106 Z-1.000000 I0.155317 J3.329039 F100.000000
G03 X107.205873 Y47.297039 Z-1.000000 I-3.212678 J1.143741
G03 X105.150497 Y49.182892 Z-1.000000 I-3.554630 J-1.811168
G03 X103.072882 Y48.102752 Z-1.000000 I-0.578256 J-1.425926
G02 X102.676290 Y44.315508 Z-1.000000 I-5.727670 J-1.314598
G03 X104.085092 Y42.393803 Z-1.000000 I1.234211 J-0.572449
G01 X104.085092 Y42.393803 Z-1.000000
G00 Z3.000000

(End cutting path id: path3367)


(Start cutting path id: path3367)
(Change tool to Cylindrical cutter)

G00 Z3.000000
G00 X82.775147 Y34.891879

G01 Z-1.000000 F100.0(Penetrate)
G03 X85.490456 Y38.037261 Z-1.000000 I-0.143280 J2.868400 F100.000000
G02 X85.514906 Y41.903470 Z-1.000000 I18.728998 J1.814737
G02 X85.609185 Y45.738536 Z-1.000000 I10.205802 J1.667800
G03 X84.656477 Y49.376901 Z-1.000000 I-4.082253 J0.874975
G02 X84.641199 Y49.762342 Z-1.000000 I0.026576 J0.194077
G02 X87.653579 Y50.131526 Z-1.000000 I3.477363 J-15.899318
G02 X92.576545 Y49.954916 Z-1.000000 I1.092893 J-38.237419
G02 X93.512285 Y48.884530 Z-1.000000 I-0.104181 J-1.035285
G02 X92.389127 Y48.564330 Z-1.000000 I-0.577563 J-0.104033
G03 X87.444381 Y48.985611 Z-1.000000 I-2.577319 J-1.021146
G03 X88.710566 Y44.196917 Z-1.000000 I4.457947 J-1.383012
G03 X91.403016 Y44.384246 Z-1.000000 I1.259256 J1.343655
G03 X91.464133 Y41.616725 Z-1.000000 I57.430977 J-0.116135
G02 X91.284819 Y41.105278 Z-1.000000 I-0.723650 J-0.033444
G02 X90.872678 Y41.021712 Z-1.000000 I-0.261017 J0.229209
G02 X88.622148 Y42.223863 Z-1.000000 I13.704137 J28.362997
G03 X87.858418 Y36.438608 Z-1.000000 I2.056359 J-3.214505
G03 X95.340738 Y36.266033 Z-1.000000 I3.823541 J3.485481
G02 X96.690837 Y38.715174 Z-1.000000 I14.443874 J-6.365549
G02 X96.875755 Y38.668096 Z-1.000000 I0.084047 J-0.056580
G02 X96.832652 Y37.777832 Z-1.000000 I-3.128583 J-0.294704
G02 X96.201824 Y34.797950 Z-1.000000 I-83.355513 J16.089296
G03 X89.487396 Y34.803271 Z-1.000000 I-3.828756 J-595.041212
G02 X82.775147 Y34.891879 Z-1.000000 I-0.901822 J185.962352
G01 X82.775147 Y34.891879 Z-1.000000
G00 Z3.000000

(End cutting path id: path3367)


(Start cutting path id: path3367)
(Change tool to Cylindrical cutter)

G00 Z3.000000
G00 X169.664714 Y34.834040

G01 Z-1.000000 F100.0(Penetrate)
G03 X170.577308 Y35.745725 Z-1.000000 I-0.421488 J1.334502 F100.000000
G03 X171.625820 Y40.835671 Z-1.000000 I-23.913752 J7.579118
G03 X171.646932 Y45.871336 Z-1.000000 I-26.358380 J2.628389
G03 X170.419388 Y49.285147 Z-1.000000 I-7.183818 J-0.655564
G02 X170.464625 Y49.808646 Z-1.000000 I0.101950 J0.254894
G02 X173.245755 Y50.080788 Z-1.000000 I2.616511 J-12.392390
G02 X177.816303 Y49.820591 Z-1.000000 I-0.678369 J-52.188745
G02 X179.861339 Y49.259832 Z-1.000000 I-0.641886 J-6.350304
G02 X185.201779 Y41.404282 Z-1.000000 I-1.775437 J-6.950067
G02 X178.015458 Y34.958133 Z-1.000000 I-7.319759 J0.931426
G02 X173.841613 Y34.813873 Z-1.000000 I-3.674631 J45.864427
G03 X169.664714 Y34.834035 Z-1.000000 I-3.762191 J-346.731589
G01 X169.664714 Y34.834040 Z-1.000000
G00 Z3.000000

(End cutting path id: path3367)


(Start cutting path id: path3367)
(Change tool to Cylindrical cutter)

G00 Z3.000000
G00 X178.249045 Y35.295522

G01 Z-1.000000 F100.0(Penetrate)
G03 X182.877495 Y44.055223 Z-1.000000 I-2.388516 J6.864684 F100.000000
G03 X174.433787 Y49.651661 Z-1.000000 I-7.401296 J-1.998810
G03 X173.113358 Y47.344295 Z-1.000000 I0.116572 J-1.598213
G02 X173.421575 Y43.541860 Z-1.000000 I-4.639994 J-2.289817
G03 X173.663287 Y38.516663 Z-1.000000 I761.995895 J34.133679
G03 X178.249045 Y35.295522 Z-1.000000 I3.552456 J0.182618
G01 X178.249045 Y35.295522 Z-1.000000
G00 Z3.000000

(End cutting path id: path3367)


(Start cutting path id: path3367)
(Change tool to Cylindrical cutter)

G00 Z3.000000
G00 X56.433292 Y34.920347

G01 Z-1.000000 F100.0(Penetrate)
G03 X60.311983 Y41.667148 Z-1.000000 I-1.828224 J5.539351 F100.000000
G03 X58.146265 Y49.363868 Z-1.000000 I-59.494930 J-12.587738
G02 X58.124453 Y49.837512 Z-1.000000 I0.029872 J0.238700
G02 X60.742602 Y50.132624 Z-1.000000 I2.718787 J-12.359006
G02 X62.730722 Y50.039552 Z-1.000000 I0.144668 J-18.190492
G02 X63.363355 Y49.777408 Z-1.000000 I-0.120808 J-1.185987
G02 X63.358199 Y49.475767 Z-1.000000 I-0.121346 J-0.148790
G02 X61.341069 Y48.381108 Z-1.000000 I-4.563647 J6.003627
G03 X60.627483 Y37.180256 Z-1.000000 I43.254096 J-8.378793
G03 X62.810224 Y34.875942 Z-1.000000 I2.475434 J0.158885
G02 X59.621498 Y34.854858 Z-1.000000 I-12.450019 J1641.778164
G02 X56.433292 Y34.920347 Z-1.000000 I-0.343597 J60.911243
G01 X56.433292 Y34.920347 Z-1.000000
G00 Z3.000000

(End cutting path id: path3367)


(Start cutting path id: path3367)
(Change tool to Cylindrical cutter)

G00 Z3.000000
G00 X126.898782 Y34.920347

G01 Z-1.000000 F100.0(Penetrate)
G03 X129.352986 Y37.284253 Z-1.000000 I-1.238573 J3.741813 F100.000000
G03 X130.087220 Y41.562819 Z-1.000000 I-10.927916 J4.077595
G03 X129.399555 Y46.549618 Z-1.000000 I-21.056876 J-0.362867
G03 X128.237142 Y49.467294 Z-1.000000 I-12.450516 J-3.269940
G02 X128.233336 Y49.789769 Z-1.000000 I0.017576 J0.161468
G02 X131.250692 Y49.993403 Z-1.000000 I3.081423 J-23.202434
G02 X133.245082 Y49.923857 Z-1.000000 I0.072667 J-26.547763
G02 X133.871309 Y49.744546 Z-1.000000 I-0.115028 J-1.584902
G02 X133.874288 Y49.540382 Z-1.000000 I-0.054263 J-0.102896
G02 X132.044241 Y48.802703 Z-1.000000 I-3.707686 J6.559241
G03 X131.465818 Y45.187290 Z-1.000000 I15.043678 J-4.260788
G03 X131.573152 Y40.358233 Z-1.000000 I38.019813 J-1.570663
G03 X132.407440 Y35.693968 Z-1.000000 I25.900480 J2.226021
G03 X133.292961 Y34.877172 Z-1.000000 I1.097813 J0.301771
G02 X130.095613 Y34.854781 Z-1.000000 I-8.240691 J948.434449
G02 X126.898782 Y34.920347 Z-1.000000 I-0.329230 J61.915439
G01 X126.898782 Y34.920347 Z-1.000000
G00 Z3.000000

(End cutting path id: path3367)


(Start cutting path id: path3367)
(Change tool to Cylindrical cutter)

G00 Z3.000000
G00 X135.353635 Y34.925314

G01 Z-1.000000 F100.0(Penetrate)
G03 X139.210864 Y41.794009 Z-1.000000 I-2.222763 J5.765622 F100.000000
G03 X137.018701 Y49.373136 Z-1.000000 I-38.090939 J-6.910714
G02 X137.065487 Y49.865399 Z-1.000000 I0.096126 J0.239219
G02 X139.862315 Y50.116475 Z-1.000000 I2.612440 J-13.397976
G02 X144.340001 Y49.870478 Z-1.000000 I-0.732246 J-54.203313
G02 X146.386659 Y49.358347 Z-1.000000 I-0.683251 J-7.076179
G02 X151.934011 Y41.689551 Z-1.000000 I-1.621916 J-7.014024
G02 X145.079157 Y35.082029 Z-1.000000 I-7.250262 J0.662170
G02 X140.220214 Y34.862517 Z-1.000000 I-4.457843 J44.788599
G02 X135.353635 Y34.925305 Z-1.000000 I5.435272 J609.902205
G01 X135.353635 Y34.925314 Z-1.000000
G00 Z3.000000

(End cutting path id: path3367)


(Start cutting path id: path3367)
(Change tool to Cylindrical cutter)

G00 Z3.000000
G00 X144.635233 Y35.296936

G01 Z-1.000000 F100.0(Penetrate)
G03 X149.406163 Y44.443342 Z-1.000000 I-2.136395 J6.931887 F100.000000
G03 X140.161155 Y49.738574 Z-1.000000 I-7.519852 J-2.410899
G02 X139.989202 Y42.838333 Z-1.000000 I-86.502412 J-1.296639
G03 X140.715016 Y35.936400 Z-1.000000 I20.515883 J-1.331660
G03 X142.629828 Y35.174501 Z-1.000000 I1.843106 J1.845000
G03 X144.635233 Y35.296936 Z-1.000000 I-0.825233 J30.001754
G01 X144.635233 Y35.296936 Z-1.000000
G00 Z3.000000

(End cutting path id: path3367)


(Start cutting path id: path3367)
(Change tool to Cylindrical cutter)

G00 Z3.000000
G00 X151.503305 Y34.934940

G01 Z-1.000000 F100.0(Penetrate)
G03 X156.314250 Y42.676364 Z-1.000000 I-7.124100 J9.792910 F100.000000
G02 X159.524038 Y51.584590 Z-1.000000 I26.706959 J-4.590596
G02 X163.378101 Y40.328090 Z-1.000000 I-155.801034 J-59.632056
G03 X166.555060 Y34.876989 Z-1.000000 I13.049322 J3.953950
G03 X163.986979 Y34.861635 Z-1.000000 I-1.221605 J-10.450275
G02 X162.424359 Y34.813984 Z-1.000000 I-1.024041 J7.936111
G02 X162.071893 Y35.244794 Z-1.000000 I0.025675 J0.380595
G02 X162.877329 Y36.941634 Z-1.000000 I3.040833 J-0.403810
G03 X157.708387 Y41.178816 Z-1.000000 I-4.036623 J0.347111
G03 X155.817885 Y35.267971 Z-1.000000 I1.045607 J-3.592171
G02 X155.731268 Y34.630621 Z-1.000000 I-0.050679 J-0.317674
G03 X151.503305 Y34.934940 Z-1.000000 I-5.907004 J-52.544899
G01 X151.503305 Y34.934940 Z-1.000000
G00 Z3.000000

(End cutting path id: path3367)


(Start cutting path id: path3367)
(Change tool to Cylindrical cutter)

G00 Z3.000000
G00 X161.024478 Y42.064960

G01 Z-1.000000 F100.0(Penetrate)
G03 X160.053447 Y45.386575 Z-1.000000 I-43.223312 J-10.833043 F100.000000
G03 X159.137095 Y47.017815 Z-1.000000 I-4.732123 J-1.585277
G03 X158.455780 Y47.002095 Z-1.000000 I-0.334336 J-0.281829
G03 X157.150879 Y43.982801 Z-1.000000 I5.352205 J-4.104784
G03 X158.466501 Y42.035962 Z-1.000000 I1.083532 J-0.685729
G02 X161.024478 Y42.064960 Z-1.000000 I1.363119 J-7.406810
G01 X161.024478 Y42.064960 Z-1.000000
G00 Z3.000000

(End cutting path id: path3367)


(Start cutting path id: path3367)
(Change tool to Cylindrical cutter)

G00 Z3.000000
G00 X101.804657 Y55.446188

G01 Z-1.000000 F100.0(Penetrate)
G02 X99.240372 Y58.254552 Z-1.000000 I1.280590 J3.744184 F100.000000
G02 X98.321741 Y62.275785 Z-1.000000 I141.516337 J34.444287
G03 X97.062542 Y63.912614 Z-1.000000 I-2.344363 J-0.500738
G03 X93.984725 Y63.488641 Z-1.000000 I-1.233427 J-2.429617
G02 X90.659933 Y64.807721 Z-1.000000 I-0.884223 J2.620957
G02 X90.353667 Y68.263644 Z-1.000000 I3.915219 J2.088501
G02 X93.127756 Y73.651247 Z-1.000000 I17.844531 J-5.780195
G02 X96.704947 Y75.982026 Z-1.000000 I4.926736 J-3.650907
G03 X99.385194 Y76.725018 Z-1.000000 I-0.562130 J7.233628
G03 X99.704499 Y77.267960 Z-1.000000 I-0.258443 J0.517354
G03 X99.319793 Y78.019031 Z-1.000000 I-1.013121 J-0.044870
G03 X97.702889 Y78.941058 Z-1.000000 I-3.857361 J-4.885679
G03 X94.524720 Y79.218321 Z-1.000000 I-2.069089 J-5.363487
G03 X92.549840 Y76.546118 Z-1.000000 I0.475247 J-2.417094
G02 X90.519017 Y72.959818 Z-1.000000 I-5.441820 J0.713404
G02 X86.158669 Y70.586465 Z-1.000000 I-9.003650 J11.349476
G02 X84.133083 Y70.263604 Z-1.000000 I-1.963423 J5.802707
G02 X83.186387 Y70.729596 Z-1.000000 I0.012379 J1.219784
G02 X82.962473 Y71.670153 Z-1.000000 I0.906986 J0.712854
G02 X84.176388 Y74.777189 Z-1.000000 I9.456783 J-1.904099
G02 X89.274042 Y79.943174 Z-1.000000 I12.944264 J-7.674941
G03 X90.203329 Y87.492449 Z-1.000000 I-2.531941 J4.143505
G02 X85.094243 Y78.729974 Z-1.000000 I-12.907592 J1.655255
G02 X75.944082 Y77.626651 Z-1.000000 I-5.532813 J7.391075
G02 X76.435841 Y80.606000 Z-1.000000 I4.494104 J0.788480
G03 X77.667413 Y83.228348 Z-1.000000 I-20.583258 J11.267197
G03 X77.388521 Y84.476673 Z-1.000000 I-1.057481 J0.419062
G03 X74.641750 Y85.360466 Z-1.000000 I-2.305744 J-2.455815
G02 X70.945175 Y86.764524 Z-1.000000 I1.716704 J10.087864
G02 X69.128483 Y88.762704 Z-1.000000 I2.625827 J4.212266
G02 X69.248863 Y90.565101 Z-1.000000 I1.601663 J0.798245
G02 X72.604710 Y92.951236 Z-1.000000 I4.876980 J-3.306068
G02 X75.906039 Y93.714791 Z-1.000000 I11.125851 J-40.585442
G03 X77.472496 Y94.393013 Z-1.000000 I-0.722077 J3.815844
G03 X77.869633 Y95.415433 Z-1.000000 I-0.598764 J0.820917
G03 X76.444673 Y98.495020 Z-1.000000 I-7.179800 J-1.452707
G02 X78.187419 Y101.459156 Z-1.000000 I2.529960 J0.506912
G02 X82.103828 Y101.298098 Z-1.000000 I1.738371 J-5.426183
G02 X87.369641 Y98.034357 Z-1.000000 I-7.313811 J-17.680187
G02 X89.330305 Y94.221340 Z-1.000000 I-3.815367 J-4.372470
G03 X90.219707 Y92.347275 Z-1.000000 I4.092970 J0.794378
G03 X90.739117 Y92.259527 Z-1.000000 I0.310861 J0.258935
G03 X91.352070 Y92.948311 Z-1.000000 I-0.798919 J1.328088
G03 X91.956753 Y94.894805 Z-1.000000 I-7.507178 J3.399296
G03 X91.612595 Y98.179841 Z-1.000000 I-5.849850 J1.047685
G03 X88.428588 Y99.836417 Z-1.000000 I-2.565322 J-1.042472
G02 X85.356853 Y101.978392 Z-1.000000 I1.496731 J5.419936
G02 X83.311029 Y106.143824 Z-1.000000 I11.419573 J8.193761
G02 X83.075075 Y108.022076 Z-1.000000 I5.497070 J1.644512
G02 X83.531769 Y108.904243 Z-1.000000 I1.172717 J-0.047813
G02 X84.418981 Y109.112974 Z-1.000000 I0.674160 J-0.875608
G02 X87.255453 Y108.016755 Z-1.000000 I-1.685743 J-8.579671
G02 X92.623126 Y102.805111 Z-1.000000 I-5.176378 J-10.701360
G03 X99.977003 Y101.821830 Z-1.000000 I4.022717 J2.094411
G02 X91.672785 Y107.038633 Z-1.000000 I1.884455 J12.217534
G02 X90.365369 Y116.252513 Z-1.000000 I8.619932 J5.922835
G02 X94.232423 Y115.089345 Z-1.000000 I-3.916539 J-20.030639
G03 X96.348715 Y114.615851 Z-1.000000 I2.427823 J5.885056
G03 X97.560245 Y115.267318 Z-1.000000 I0.065211 J1.330999
G03 X98.621727 Y118.980033 Z-1.000000 I-6.543367 J3.878877
G02 X100.551454 Y122.443747 Z-1.000000 I7.008123 J-1.635002
G02 X102.388790 Y123.146832 Z-1.000000 I1.710270 J-1.717113
G02 X104.191388 Y122.269930 Z-1.000000 I-0.134847 J-2.568399
G02 X105.994709 Y118.560177 Z-1.000000 I-5.926246 J-5.173940
G02 X106.403146 Y116.001504 Z-1.000000 I-14.586139 J-3.640296
G03 X106.793774 Y114.428624 Z-1.000000 I4.738143 J0.341783
G03 X107.517457 Y114.036442 Z-1.000000 I0.614852 J0.270783
G03 X109.836352 Y115.170874 Z-1.000000 I-0.725668 J4.420586
G02 X113.565497 Y114.721433 Z-1.000000 I1.549650 J-2.837726
G02 X114.437100 Y112.198024 Z-1.000000 I-1.881997 J-2.062288
G02 X112.679513 Y107.118362 Z-1.000000 I-15.928333 J2.667379
G02 X109.757818 Y104.295610 Z-1.000000 I-5.986223 J3.272623
G02 X107.546953 Y103.015534 Z-1.000000 I-4.352275 J4.967698
G03 X105.356770 Y102.027291 Z-1.000000 I4.164937 J-12.151611
G03 X105.231695 Y101.358890 Z-1.000000 I0.220395 J-0.387144
G03 X107.360224 Y100.028780 Z-1.000000 I3.012403 J2.452482
G03 X113.522486 Y103.935186 Z-1.000000 I1.194038 J4.930046
G02 X121.317968 Y109.067415 Z-1.000000 I6.463985 J-1.331823
G02 X116.445460 Y100.765705 Z-1.000000 I-6.330358 J-1.865296
G03 X113.138380 Y92.914073 Z-1.000000 I1.157362 J-5.109758
G03 X114.541872 Y92.854015 Z-1.000000 I0.723788 J0.485080
G03 X116.032195 Y95.289843 Z-1.000000 I-8.800890 J7.058515
G02 X117.860825 Y98.758830 Z-1.000000 I28.434783 J-12.772557
G02 X120.513273 Y100.297077 Z-1.000000 I2.743518 J-1.674762
G02 X124.995883 Y102.081187 Z-1.000000 I5.637403 J-7.640707
G02 X127.536676 Y101.486273 Z-1.000000 I0.460343 J-3.757081
G02 X128.411492 Y99.705410 Z-1.000000 I-1.074450 J-1.633104
G02 X126.467301 Y95.169647 Z-1.000000 I-7.608572 J0.576751
G03 X127.240370 Y94.201614 Z-1.000000 I1.015907 J0.018600
G02 X132.705210 Y92.334773 Z-1.000000 I-7.865539 J-31.957028
G02 X134.817389 Y90.336556 Z-1.000000 I-1.762517 J-3.978467
G02 X134.062127 Y87.344985 Z-1.000000 I-2.083889 J-1.065018
G02 X131.016317 Y85.741823 Z-1.000000 I-3.925030 J3.762161
G03 X128.023018 Y85.060428 Z-1.000000 I4.045311 J-24.685963
G03 X127.062834 Y83.957269 Z-1.000000 I0.381670 J-1.301652
G03 X127.974594 Y80.845288 Z-1.000000 I3.831985 J-0.566847
G02 X126.941724 Y77.660804 Z-1.000000 I-2.567905 J-0.926859
G02 X124.047868 Y77.142602 Z-1.000000 I-2.027222 J2.981498
G02 X119.182038 Y79.203194 Z-1.000000 I4.040400 J16.316220
G02 X116.707402 Y81.986914 Z-1.000000 I3.501344 J5.604376
G02 X115.441697 Y84.513830 Z-1.000000 I8.969232 J6.073037
G03 X114.517697 Y86.436700 Z-1.000000 I-8.827729 J-3.058563
G03 X113.882407 Y86.505101 Z-1.000000 I-0.344720 J-0.217264
G03 X112.560567 Y84.082199 Z-1.000000 I3.592713 J-3.532067
G03 X116.851385 Y77.812220 Z-1.000000 I4.946461 J-1.218109
G02 X120.986136 Y69.833113 Z-1.000000 I-0.704166 J-5.425759
G02 X113.630342 Y74.981726 Z-1.000000 I-0.691197 J6.841389
G03 X108.511192 Y79.225276 Z-1.000000 I-5.470186 J-1.389401
G03 X105.982277 Y78.643526 Z-1.000000 I0.547072 J-8.165740
G03 X104.855616 Y77.802035 Z-1.000000 I1.042888 J-2.571290
G03 X104.929770 Y77.159434 Z-1.000000 I0.356719 J-0.284415
G03 X107.346449 Y76.200537 Z-1.000000 I2.813878 J3.566941
G02 X111.864061 Y73.235735 Z-1.000000 I-1.167628 J-6.703424
G02 X114.281517 Y67.397220 Z-1.000000 I-14.041302 J-9.233583
G02 X114.382157 Y64.682065 Z-1.000000 I-8.033999 J-1.657231
G02 X113.611855 Y63.337259 Z-1.000000 I-2.016995 J0.262314
G02 X112.276650 Y63.013448 Z-1.000000 I-1.028367 J1.325675
G02 X108.543833 Y64.517525 Z-1.000000 I1.860464 J10.001389
G03 X106.860445 Y64.180912 Z-1.000000 I-0.697467 J-0.889578
G03 X106.052540 Y61.748584 Z-1.000000 I5.904177 J-3.311429
G02 X105.349762 Y58.025590 Z-1.000000 I-33.356931 J4.368853
G02 X103.288285 Y55.983413 Z-1.000000 I-2.706727 J0.670739
G01 X102.328315 Y55.136907 Z-1.000000
G01 X101.804485 Y55.446197 Z-1.000000
G01 X101.804657 Y55.446188 Z-1.000000
G01 X101.804657 Y55.446188 Z-1.000000
G00 Z3.000000

(End cutting path id: path3367)


(Start cutting path id: path3367)
(Change tool to Cylindrical cutter)

G00 Z3.000000
G00 X85.542776 Y71.844652

G01 Z-1.000000 F100.0(Penetrate)
G03 X88.571350 Y73.247989 Z-1.000000 I-0.209874 J4.422622 F100.000000
G03 X90.880549 Y76.525076 Z-1.000000 I-10.770346 J10.041455
G03 X91.392745 Y78.044136 Z-1.000000 I-4.699533 J2.430464
G03 X91.163105 Y78.553688 Z-1.000000 I-0.490007 J0.085690
G03 X90.612471 Y78.597932 Z-1.000000 I-0.318795 J-0.518979
G03 X88.094567 Y77.163304 Z-1.000000 I4.340733 J-10.545278
G03 X87.370851 Y76.707329 Z-1.000000 I0.376358 J-1.399672
G03 X85.392928 Y74.014362 Z-1.000000 I16.801892 J-14.413461
G03 X84.845934 Y72.378687 Z-1.000000 I3.138918 J-1.959001
G03 X85.542776 Y71.844652 Z-1.000000 I0.518217 J-0.045458
G01 X85.542776 Y71.844652 Z-1.000000
G00 Z3.000000

(End cutting path id: path3367)


(Start cutting path id: path3367)
(Change tool to Cylindrical cutter)

G00 Z3.000000
G00 X120.009272 Y71.904305

G01 Z-1.000000 F100.0(Penetrate)
G03 X118.486357 Y75.509499 Z-1.000000 I-4.986359 J0.017904 F100.000000
G03 X115.238971 Y77.802988 Z-1.000000 I-9.064039 J-9.388152
G03 X113.695913 Y78.268946 Z-1.000000 I-2.139201 J-4.296179
G03 X113.194100 Y77.990778 Z-1.000000 I-0.060427 J-0.482707
G03 X113.196222 Y77.384909 Z-1.000000 I0.648822 J-0.300665
G03 X114.875909 Y74.729352 Z-1.000000 I11.576824 J5.463554
G03 X117.325549 Y72.286358 Z-1.000000 I62.393760 J60.113833
G03 X120.009272 Y71.904305 Z-1.000000 I1.607938 J1.678021
G01 X120.009272 Y71.904305 Z-1.000000
G00 Z3.000000

(End cutting path id: path3367)


(Start cutting path id: path3367)
(Change tool to Cylindrical cutter)

G00 Z3.000000
G00 X102.711818 Y78.248254

G01 Z-1.000000 F100.0(Penetrate)
G02 X108.019857 Y80.900662 Z-1.000000 I7.343009 J-8.057472 F100.000000
G03 X111.560642 Y85.809216 Z-1.000000 I-0.821600 J4.324011
G03 X112.339777 Y92.951102 Z-1.000000 I-4.061928 J4.056573
G02 X109.868477 Y98.119693 Z-1.000000 I19.946184 J12.712132
G02 X103.812222 Y99.677935 Z-1.000000 I1.859060 J19.773641
G03 X97.433927 Y98.561210 Z-1.000000 I-2.342915 J-5.391715
G03 X92.940771 Y94.604178 Z-1.000000 I-0.591584 J-3.857740
G02 X91.265164 Y88.944660 Z-1.000000 I-9.572734 J-0.243619
G02 X93.645606 Y83.730466 Z-1.000000 I-7.144313 J-6.412072
G03 X98.071029 Y80.316187 Z-1.000000 I3.909092 J0.491626
G02 X100.524671 Y79.009471 Z-1.000000 I-0.141183 J-3.222081
G03 X102.711818 Y78.248254 Z-1.000000 I1.649913 J1.217880
G01 X102.711818 Y78.248254 Z-1.000000
G00 Z3.000000

(End cutting path id: path3367)


(Start cutting path id: path3367)
(Change tool to Cylindrical cutter)

G00 Z3.000000
G00 X91.681120 Y100.538188

G01 Z-1.000000 F100.0(Penetrate)
G03 X90.396145 Y103.836150 Z-1.000000 I-4.311060 J0.219606 F100.000000
G03 X86.954345 Y106.400301 Z-1.000000 I-11.052213 J-11.243127
G03 X85.334752 Y106.998980 Z-1.000000 I-2.794635 J-5.070197
G03 X84.812845 Y106.770570 Z-1.000000 I-0.099934 J-0.482125
G03 X84.775679 Y106.203989 Z-1.000000 I0.531137 J-0.319350
G03 X86.383205 Y103.480154 Z-1.000000 I11.836517 J5.149285
G03 X86.993957 Y102.792588 Z-1.000000 I3.479711 J2.475919
G03 X89.090075 Y101.135270 Z-1.000000 I13.288880 J14.653104
G03 X90.978991 Y100.174568 Z-1.000000 I4.592424 J6.692215
G03 X91.681120 Y100.538188 Z-1.000000 I0.180545 J0.511074
G01 X91.681120 Y100.538188 Z-1.000000
G00 Z3.000000

(End cutting path id: path3367)


(Start cutting path id: path3367)
(Change tool to Cylindrical cutter)

G00 Z3.000000
G00 X113.280708 Y100.233774

G01 Z-1.000000 F100.0(Penetrate)
G03 X116.717535 Y101.848643 Z-1.000000 I-0.286642 J5.074673 F100.000000
G03 X118.912295 Y105.066995 Z-1.000000 I-9.535539 J8.860312
G03 X119.334139 Y106.557819 Z-1.000000 I-4.065870 J1.955575
G03 X119.046015 Y107.045793 Z-1.000000 I-0.474127 J0.049101
G03 X118.432928 Y107.033516 Z-1.000000 I-0.292830 J-0.690933
G03 X115.801522 Y105.378313 Z-1.000000 I5.515122 J-11.687098
G03 X115.254586 Y104.920963 Z-1.000000 I1.141632 J-1.920963
G03 X113.466091 Y102.542356 Z-1.000000 I16.207120 J-14.047975
G03 X112.739915 Y100.817786 Z-1.000000 I4.464654 J-2.895132
G03 X113.280708 Y100.233774 Z-1.000000 I0.471029 J-0.106220
G01 X113.280708 Y100.233774 Z-1.000000
G00 Z3.000000

(End cutting path id: path3367)


(Start cutting path id: path3369)
(Change tool to Cylindrical cutter)

G00 Z3.000000
G00 X52.150860 Y12.638674

G01 Z-1.000000 F100.0(Penetrate)
G03 X51.955858 Y12.671185 Z-1.000000 I-1.590148 J-8.936633 F100.000000
G03 X51.372235 Y12.759806 Z-1.000000 I-12.541533 J-80.627267
G02 X48.699529 Y13.617951 Z-1.000000 I1.262895 J8.524475
G02 X46.565462 Y15.227413 Z-1.000000 I3.568463 J6.951165
G02 X45.180738 Y17.469206 Z-1.000000 I4.853824 J4.546700
G02 X44.650765 Y20.409801 Z-1.000000 I8.022027 J2.963835
G02 X44.699563 Y21.548377 Z-1.000000 I12.491254 J0.034977
G02 X44.811728 Y22.225627 Z-1.000000 I4.522939 J-0.401168
G02 X47.260796 Y26.240487 Z-1.000000 I7.535825 J-1.842463
G02 X51.813187 Y28.305998 Z-1.000000 I5.747642 J-6.618323
G02 X53.899070 Y28.417038 Z-1.000000 I1.705500 J-12.390567
G02 X55.732531 Y28.186753 Z-1.000000 I-0.297696 J-9.784046
G02 X56.878154 Y27.875853 Z-1.000000 I-2.839617 J-12.729765
G02 X57.932143 Y27.480901 Z-1.000000 I-3.583500 J-11.166956
G01 X58.224127 Y27.355199 Z-1.000000
G01 X58.224127 Y25.579903 Z-1.000000
G02 X58.186759 Y23.841974 Z-1.000000 I-40.432673 J0.000000
G01 X58.147750 Y23.804607 Z-1.000000
G02 X58.095741 Y23.834846 Z-1.000000 I0.000000 J0.059845
G02 X58.024159 Y24.021717 Z-1.000000 I0.575461 J0.327578
G03 X57.040637 Y26.322189 Z-1.000000 I-6.476019 J-1.408219
G03 X55.643611 Y27.547257 Z-1.000000 I-3.029421 J-2.045551
G03 X54.478109 Y27.937448 Z-1.000000 I-1.968292 J-3.943529
G03 X52.968416 Y28.042820 Z-1.000000 I-1.217120 J-6.570415
G03 X51.079029 Y27.671190 Z-1.000000 I0.281252 J-6.418586
G03 X49.620848 Y26.841163 Z-1.000000 I1.648063 J-4.591165
G03 X48.280373 Y25.349739 Z-1.000000 I4.320271 J-5.231125
G03 X47.377929 Y23.446086 Z-1.000000 I6.247939 J-4.127624
G03 X46.952531 Y20.606976 Z-1.000000 I9.004363 J-2.800594
G03 X47.400479 Y17.922907 Z-1.000000 I8.472705 J0.034606
G03 X48.389281 Y15.909561 Z-1.000000 I8.202565 J2.778990
G03 X49.692358 Y14.473022 Z-1.000000 I5.393239 J3.582903
G03 X50.698789 Y13.802886 Z-1.000000 I3.971681 J4.873983
G03 X51.878327 Y13.303857 Z-1.000000 I3.327197 J6.220851
G03 X53.329793 Y13.035496 Z-1.000000 I1.780694 J5.571707
G03 X54.740752 Y13.142494 Z-1.000000 I0.302550 J5.366832
G03 X56.537901 Y14.091945 Z-1.000000 I-0.762657 J3.619156
G03 X58.429563 Y16.679458 Z-1.000000 I-6.365789 J6.639085
G02 X58.793552 Y17.200406 Z-1.000000 I1.863170 J-0.914174
G02 X58.883015 Y17.153154 Z-1.000000 I0.037998 J-0.036374
G02 X58.049369 Y14.126571 Z-1.000000 I-25.408618 J5.370477
G02 X57.653090 Y13.553613 Z-1.000000 I-1.210248 J0.413531
G02 X57.205210 Y13.308422 Z-1.000000 I-0.865006 J1.048415
G02 X55.418765 Y12.833173 Z-1.000000 I-5.466077 J16.951567
G02 X53.422252 Y12.564486 Z-1.000000 I-2.802392 J13.271545
G02 X52.150846 Y12.638674 Z-1.000000 I-0.322091 J5.411713
G01 X52.150860 Y12.638674 Z-1.000000
G00 Z3.000000

(End cutting path id: path3369)


(Start cutting path id: path3369)
(Change tool to Cylindrical cutter)

G00 Z3.000000
G00 X89.437660 Y13.876768

G01 Z-1.000000 F100.0(Penetrate)
G03 X85.670294 Y18.095359 Z-1.000000 I-120.431358 J-103.758402 F100.000000
G03 X79.815129 Y24.273463 Z-1.000000 I-264.243656 J-244.567621
G03 X79.244908 Y24.782328 Z-1.000000 I-3.821911 J-3.708809
G03 X79.162363 Y24.776724 Z-1.000000 I-0.038107 J-0.049428
G03 X79.120424 Y24.676103 Z-1.000000 I0.103704 J-0.102275
G03 X79.112198 Y20.360418 Z-1.000000 I228.265706 J-2.592929
G03 X79.316330 Y15.500256 Z-1.000000 I70.654639 J0.533197
G03 X79.548048 Y14.667151 Z-1.000000 I2.226267 J0.170433
G03 X80.203082 Y13.941640 Z-1.000000 I1.647315 J0.828835
G03 X81.639637 Y13.331893 Z-1.000000 I2.529458 J3.962239
G02 X82.165518 Y13.164819 Z-1.000000 I-0.879899 J-3.680734
G02 X82.205752 Y13.105387 Z-1.000000 I-0.023778 J-0.059432
G02 X82.147040 Y13.045564 Z-1.000000 I-0.059834 J0.000000
G02 X78.991181 Y13.016394 Z-1.000000 I-3.113104 J166.073817
G02 X75.829805 Y13.047062 Z-1.000000 I0.043089 J167.400849
G02 X75.755634 Y13.107081 Z-1.000000 I0.001487 J0.077678
G01 X75.782039 Y13.155574 Z-1.000000
G02 X76.145639 Y13.246947 Z-1.000000 I0.645812 J-1.800762
G03 X77.324394 Y13.689759 Z-1.000000 I-0.442838 J2.969141
G03 X77.980894 Y14.424954 Z-1.000000 I-0.993595 J1.547952
G03 X78.310111 Y15.611468 Z-1.000000 I-2.970589 J1.463168
G03 X78.548857 Y21.199357 Z-1.000000 I-68.080667 J5.707839
G03 X78.367971 Y25.651367 Z-1.000000 I-52.607985 J0.092199
G03 X78.115003 Y26.414767 Z-1.000000 I-1.706668 J-0.141926
G03 X77.246465 Y27.298242 Z-1.000000 I-2.409544 J-1.500141
G03 X75.918363 Y27.834895 Z-1.000000 I-2.060043 J-3.186457
G02 X75.462715 Y27.956065 Z-1.000000 I0.691766 J3.518636
G01 X75.431721 Y27.999245 Z-1.000000
G01 X75.465404 Y28.034223 Z-1.000000
G02 X77.242025 Y28.067590 Z-1.000000 I1.768119 J-46.828390
G01 X79.052325 Y28.067590 Z-1.000000
