%
(Header)
(Generated by gcodetools from Inkscape.)
(Using default header. To add your own header create file "header" in the output dir.)
M3
(Header end.)
G21 (All units in mm)

(Start cutting path id: path4640)
(Change tool to Cylindrical cutter)

G00 Z3.000000
G00 X122.858694 Y10.538461

G01 Z-1.000000 F100.0(Penetrate)
G01 X122.366736 Y5.946818 Z-1.000000 F100.000000
G01 X110.752628 Y5.946818 Z-1.000000
G01 X110.752628 Y6.303745 Z-1.000000
G01 X111.186711 Y6.303745 Z-1.000000
G03 X111.739518 Y6.364118 Z-1.000000 I0.000000 J2.561074
G03 X112.103107 Y6.506324 Z-1.000000 I-0.272468 J1.232550
G03 X112.313267 Y6.678013 Z-1.000000 I-0.338746 J0.629119
G03 X112.488958 Y6.969338 Z-1.000000 I-0.862642 J0.718881
G03 X112.552602 Y7.210112 Z-1.000000 I-0.663908 J0.304290
G03 X112.595065 Y8.184756 Z-1.000000 I-11.164191 J0.974644
G01 X112.595065 Y16.789232 Z-1.000000
G03 X112.553058 Y17.783921 Z-1.000000 I-11.797634 J-0.000000
G03 X112.488958 Y18.043247 Z-1.000000 I-0.846336 J-0.071612
G03 X112.343663 Y18.258930 Z-1.000000 I-0.625696 J-0.264721
G03 X112.054875 Y18.477327 Z-1.000000 I-0.931219 J-0.931226
G03 X111.720187 Y18.611693 Z-1.000000 I-0.575601 J-0.949733
G03 X111.186711 Y18.670254 Z-1.000000 I-0.533476 J-2.400617
G01 X110.752628 Y18.670254 Z-1.000000
G01 X110.752628 Y19.027164 Z-1.000000
G01 X117.726881 Y19.027164 Z-1.000000
G01 X117.726881 Y18.670254 Z-1.000000
G01 X117.157752 Y18.670254 Z-1.000000
G03 X116.604941 Y18.609882 Z-1.000000 I-0.000000 J-2.561166
G03 X116.241354 Y18.467681 Z-1.000000 I0.272464 J-1.232566
G03 X116.029433 Y18.296689 Z-1.000000 I0.350955 J-0.651780
G03 X115.845859 Y18.004661 Z-1.000000 I0.903201 J-0.771482
G03 X115.782213 Y17.763884 Z-1.000000 I0.663908 J-0.304295
G03 X115.739749 Y16.789232 Z-1.000000 I11.164091 J-0.974652
G01 X115.739749 Y8.454842 Z-1.000000
G03 X115.784514 Y7.460551 Z-1.000000 I11.064736 J-0.000000
G03 X115.855505 Y7.171888 Z-1.000000 I0.983007 J0.088693
G03 X116.016393 Y6.948052 Z-1.000000 I0.584913 J0.250682
G03 X116.308878 Y6.766758 Z-1.000000 I0.660773 J0.739458
G03 X116.555997 Y6.714116 Z-1.000000 I0.316408 J0.878957
G03 X117.476076 Y6.679947 Z-1.000000 I0.920079 J12.370635
G01 X118.566106 Y6.679947 Z-1.000000
G03 X119.581642 Y6.785972 Z-1.000000 I-0.000000 J4.916561
G03 X120.302433 Y7.046497 Z-1.000000 I-0.572190 J2.710429
G03 X120.921191 Y7.495100 Z-1.000000 I-1.262955 J2.393021
G03 X121.498570 Y8.204060 Z-1.000000 I-2.693163 J2.782909
G03 X121.931929 Y9.030745 Z-1.000000 I-4.314171 J2.788472
G03 X122.463197 Y10.538461 Z-1.000000 I-13.925568 J5.754358
G01 X122.858694 Y10.538461 Z-1.000000
G01 X122.858694 Y10.538461 Z-1.000000
G00 Z3.000000

(End cutting path id: path4640)


(Start cutting path id: path4638)
(Change tool to Cylindrical cutter)

G00 Z3.000000
G00 X104.328215 Y9.670289

G01 Z-1.000000 F100.0(Penetrate)
G01 X99.707653 Y9.670289 Z-1.000000 F100.000000
G01 X99.157816 Y8.396987 Z-1.000000
G03 X98.938831 Y7.749929 Z-1.000000 I4.202514 J-1.782850
G03 X98.887721 Y7.345540 Z-1.000000 I1.574237 J-0.404389
G03 X99.010438 Y6.865953 Z-1.000000 I0.998489 J-0.000000
G03 X99.331448 Y6.535252 Z-1.000000 I0.759084 J0.415687
G03 X99.608043 Y6.432165 Z-1.000000 I0.424434 J0.716198
G03 X100.614402 Y6.303745 Z-1.000000 I1.746353 J9.677858
G01 X100.614402 Y5.946818 Z-1.000000
G01 X96.263935 Y5.946818 Z-1.000000
G01 X96.263935 Y6.303745 Z-1.000000
G03 X96.916130 Y6.510226 Z-1.000000 I-0.325898 J2.162648
G03 X97.421486 Y6.882526 Z-1.000000 I-0.823436 J1.646856
G03 X97.808912 Y7.408655 Z-1.000000 I-1.991911 J1.872494
G03 X98.540455 Y8.860001 Z-1.000000 I-14.722442 J8.330803
G01 X103.218895 Y19.297261 Z-1.000000
G01 X103.402173 Y19.297261 Z-1.000000
G01 X108.119198 Y8.570610 Z-1.000000
G03 X108.867589 Y7.099214 Z-1.000000 I14.118740 J6.255132
G03 X109.228518 Y6.650991 Z-1.000000 I1.624865 J0.938986
G03 X109.590261 Y6.429703 Z-1.000000 I0.755422 J0.828583
G03 X110.154560 Y6.303745 Z-1.000000 I0.731856 J1.951724
G01 X110.154560 Y5.946818 Z-1.000000
G01 X103.826610 Y5.946818 Z-1.000000
G01 X103.826610 Y6.303745 Z-1.000000
G01 X104.087059 Y6.303745 Z-1.000000
G03 X104.826573 Y6.376319 Z-1.000000 I0.000000 J3.804017
G03 X105.157793 Y6.515948 Z-1.000000 I-0.173047 J0.873159
G03 X105.311168 Y6.700259 Z-1.000000 I-0.287349 J0.395090
G03 X105.370013 Y6.959686 Z-1.000000 I-0.542444 J0.259426
G03 X105.356197 Y7.131179 Z-1.000000 I-1.071308 J0.000000
G03 X105.312134 Y7.316584 Z-1.000000 I-1.297407 J-0.210400
G03 X105.285985 Y7.401231 Z-1.000000 I-0.535205 J-0.118973
G03 X105.022747 Y8.040060 Z-1.000000 I-30.962425 J-12.384849
G01 X104.328215 Y9.670289 Z-1.000000
G01 X104.328215 Y9.670289 Z-1.000000
G00 Z3.000000

(End cutting path id: path4638)


(Start cutting path id: path4638)
(Change tool to Cylindrical cutter)

G00 Z3.000000
G00 X104.000241 Y10.384114

G01 Z-1.000000 F100.0(Penetrate)
G01 X102.051694 Y14.888916 Z-1.000000 F100.000000
G01 X100.045272 Y10.384114 Z-1.000000
G01 X104.000241 Y10.384114 Z-1.000000
G01 X104.000241 Y10.384114 Z-1.000000
G00 Z3.000000

(End cutting path id: path4638)


(Start cutting path id: path4636)
(Change tool to Cylindrical cutter)

G00 Z3.000000
G00 X87.080689 Y11.908226

G01 Z-1.000000 F100.0(Penetrate)
G01 X87.080689 Y8.242640 Z-1.000000 F100.000000
G03 X87.129711 Y7.192026 Z-1.000000 I11.282461 J0.000000
G03 X87.206091 Y6.901802 Z-1.000000 I0.914603 J0.085539
G03 X87.379130 Y6.669707 Z-1.000000 I0.735326 J0.367671
G03 X87.669111 Y6.467716 Z-1.000000 I0.837886 J0.893734
G03 X88.010974 Y6.362589 Z-1.000000 I0.486061 J0.972213
G03 X88.894187 Y6.303745 Z-1.000000 I0.883212 J6.598737
G01 X88.894187 Y5.946818 Z-1.000000
G01 X82.199678 Y5.946818 Z-1.000000
G01 X82.199678 Y6.303745 Z-1.000000
G03 X83.092015 Y6.363197 Z-1.000000 I-0.000000 J6.726360
G03 X83.424754 Y6.467716 Z-1.000000 I-0.135713 J1.013953
G03 X83.713498 Y6.678598 Z-1.000000 I-0.583518 J1.102084
G03 X83.878127 Y6.911454 Z-1.000000 I-0.554865 J0.566914
G03 X83.960123 Y7.194065 Z-1.000000 I-0.729932 J0.364981
G03 X84.013176 Y8.242640 Z-1.000000 I-10.335862 J1.048575
G01 X84.013176 Y16.731353 Z-1.000000
G03 X83.960124 Y17.779917 Z-1.000000 I-10.388809 J0.000000
G03 X83.878127 Y18.062539 Z-1.000000 I-0.811994 J-0.082377
G03 X83.711001 Y18.302281 Z-1.000000 I-0.715820 J-0.320881
G03 X83.424754 Y18.506266 Z-1.000000 I-0.793726 J-0.810981
G03 X83.082888 Y18.611403 Z-1.000000 I-0.486068 J-0.972128
G03 X82.199678 Y18.670254 Z-1.000000 I-0.883210 J-6.598036
G01 X82.199678 Y19.027164 Z-1.000000
G01 X88.276826 Y19.027164 Z-1.000000
G02 X90.633600 Y18.916119 Z-1.000000 I-0.000000 J-25.065334
G02 X91.749483 Y18.699193 Z-1.000000 I-0.547099 J-5.792857
G02 X92.749587 Y18.225148 Z-1.000000 I-1.039237 J-3.484494
G02 X93.543688 Y17.483761 Z-1.000000 I-1.964960 J-2.900648
G02 X94.054436 Y16.542038 Z-1.000000 I-2.448679 J-1.937419
G02 X94.238220 Y15.419460 Z-1.000000 I-3.336545 J-1.122578
G02 X93.962286 Y14.094730 Z-1.000000 I-3.317910 J0.000000
G02 X93.196422 Y13.027181 Z-1.000000 I-2.867800 J1.248879
G02 X92.471303 Y12.541129 Z-1.000000 I-2.068761 J2.302376
G02 X91.334692 Y12.130081 Z-1.000000 I-2.575775 J5.345443
G01 X94.479376 Y7.702438 Z-1.000000
G03 X95.121218 Y6.866967 Z-1.000000 I13.518050 J9.720820
G03 X95.357186 Y6.631715 Z-1.000000 I1.287932 J1.055884
G03 X95.778775 Y6.403832 Z-1.000000 I0.955333 J1.263473
G03 X96.273581 Y6.303745 Z-1.000000 I0.592267 J1.654877
G01 X96.273581 Y5.946818 Z-1.000000
G01 X92.154627 Y5.946818 Z-1.000000
G01 X87.939206 Y11.908226 Z-1.000000
G01 X87.080689 Y11.908226 Z-1.000000
G01 X87.080689 Y11.908226 Z-1.000000
G00 Z3.000000

(End cutting path id: path4636)


(Start cutting path id: path4636)
(Change tool to Cylindrical cutter)

G00 Z3.000000
G00 X87.080689 Y18.322988

G01 Z-1.000000 F100.0(Penetrate)
G01 X87.080689 Y12.593095 Z-1.000000 F100.000000
G01 X87.630525 Y12.593095 Z-1.000000
G03 X88.957407 Y12.672550 Z-1.000000 I0.000000 J11.119018
G03 X89.636950 Y12.834254 Z-1.000000 I-0.366411 J3.048513
G03 X90.222871 Y13.179899 Z-1.000000 I-0.698333 J1.853211
G03 X90.678746 Y13.721730 Z-1.000000 I-1.391455 J1.633409
G03 X90.951039 Y14.399339 Z-1.000000 I-2.016146 J1.203692
G03 X91.064597 Y15.400168 Z-1.000000 I-4.353564 J1.000829
G03 X90.845996 Y16.805661 Z-1.000000 I-4.627611 J0.000000
G03 X90.360419 Y17.609163 Z-1.000000 I-1.920774 J-0.612300
G03 X89.570495 Y18.097075 Z-1.000000 I-1.367438 J-1.330475
G03 X88.112840 Y18.322988 Z-1.000000 I-1.457655 J-4.589632
G01 X87.080689 Y18.322988 Z-1.000000
G01 X87.080689 Y18.322988 Z-1.000000
G00 Z3.000000

(End cutting path id: path4636)


(Start cutting path id: path4634)
(Change tool to Cylindrical cutter)

G00 Z3.000000
G00 X81.100002 Y19.027164

G01 Z-1.000000 F100.0(Penetrate)
G01 X81.100002 Y15.486985 Z-1.000000 F100.000000
G01 X80.752736 Y15.486985 Z-1.000000
G03 X80.371780 Y16.678755 Z-1.000000 I-9.703064 J-2.444867
G03 X80.067853 Y17.242605 Z-1.000000 I-2.443298 J-0.953152
G03 X79.633952 Y17.715283 Z-1.000000 I-1.965781 J-1.369023
G03 X79.035702 Y18.101122 Z-1.000000 I-1.885664 J-2.267039
G03 X78.655469 Y18.213947 Z-1.000000 I-0.553704 J-1.168921
G03 X77.752748 Y18.274756 Z-1.000000 I-0.902721 J-6.670048
G01 X76.778474 Y18.274756 Z-1.000000
G01 X76.778474 Y8.184756 Z-1.000000
G03 X76.820483 Y7.190062 Z-1.000000 I11.797216 J0.000000
G03 X76.884584 Y6.930758 Z-1.000000 I0.846169 J0.071601
G03 X77.035674 Y6.711514 Z-1.000000 I0.710346 J0.327845
G03 X77.318667 Y6.487020 Z-1.000000 I1.029306 J1.006911
G03 X77.661144 Y6.359431 Z-1.000000 I0.585035 J1.046928
G03 X78.206123 Y6.303745 Z-1.000000 I0.544979 J2.638904
G01 X78.640204 Y6.303745 Z-1.000000
G01 X78.640204 Y5.946818 Z-1.000000
G01 X71.791353 Y5.946818 Z-1.000000
G01 X71.791353 Y6.303745 Z-1.000000
G01 X72.225437 Y6.303745 Z-1.000000
G03 X72.778244 Y6.364118 Z-1.000000 I-0.000000 J2.561074
G03 X73.141832 Y6.506324 Z-1.000000 I-0.272468 J1.232550
G03 X73.353753 Y6.677313 Z-1.000000 I-0.350949 J0.651782
G03 X73.537330 Y6.969338 Z-1.000000 I-0.903193 J0.771490
G03 X73.600974 Y7.210112 Z-1.000000 I-0.663908 J0.304290
G03 X73.643437 Y8.184756 Z-1.000000 I-11.164191 J0.974644
G01 X73.643437 Y18.274756 Z-1.000000
G01 X72.698105 Y18.274756 Z-1.000000
G03 X71.447080 Y18.096162 Z-1.000000 I-0.000000 J-4.470912
G03 X70.778497 Y17.715273 Z-1.000000 I0.463822 J-1.591390
G03 X70.131078 Y16.832447 Z-1.000000 I1.992230 J-2.139804
G03 X69.717407 Y15.486985 Z-1.000000 I4.363810 J-2.078007
G01 X69.350848 Y15.486985 Z-1.000000
G01 X69.350848 Y19.027164 Z-1.000000
G01 X81.100002 Y19.027164 Z-1.000000
G01 X81.100002 Y19.027164 Z-1.000000
G00 Z3.000000

(End cutting path id: path4634)


(Start cutting path id: path4632)
(Change tool to Cylindrical cutter)

G00 Z3.000000
G00 X59.280146 Y19.027164

G01 Z-1.000000 F100.0(Penetrate)
G01 X65.733499 Y10.914663 Z-1.000000 F100.000000
G01 X65.733499 Y16.538429 Z-1.000000
G03 X65.614493 Y17.672963 Z-1.000000 I-5.467508 J-0.000000
G03 X65.395879 Y18.130061 Z-1.000000 I-1.055172 J-0.223825
G03 X64.849979 Y18.509250 Z-1.000000 I-0.951762 J-0.787659
G03 X63.842830 Y18.670254 Z-1.000000 I-0.955670 J-2.747540
G01 X63.842830 Y19.027164 Z-1.000000
G01 X68.164358 Y19.027164 Z-1.000000
G01 X68.164358 Y18.670254 Z-1.000000
G03 X67.351083 Y18.517133 Z-1.000000 I0.892124 J-6.974717
G03 X67.045392 Y18.390513 Z-1.000000 I0.272619 J-1.090478
G03 X66.809860 Y18.187654 Z-1.000000 I0.437156 J-0.745729
G03 X66.601662 Y17.840673 Z-1.000000 I1.139922 J-0.919936
G03 X66.501379 Y17.453814 Z-1.000000 I1.366794 J-0.560734
G03 X66.447323 Y16.538429 Z-1.000000 I7.723614 J-0.915384
G01 X66.447323 Y5.647804 Z-1.000000
G01 X66.119350 Y5.647804 Z-1.000000
G01 X57.273724 Y16.538429 Z-1.000000
G01 X57.273724 Y8.223336 Z-1.000000
G03 X57.444305 Y7.178433 Z-1.000000 I3.285585 J-0.000000
G03 X57.784975 Y6.699223 Z-1.000000 I0.960687 J0.322254
G03 X58.340345 Y6.406157 Z-1.000000 I1.164138 J1.533326
G03 X58.971465 Y6.303745 Z-1.000000 I0.631121 J1.893452
G01 X59.280146 Y6.303745 Z-1.000000
G01 X59.280146 Y5.946818 Z-1.000000
G01 X54.640291 Y5.946818 Z-1.000000
G01 X54.640291 Y6.303745 Z-1.000000
G03 X55.660069 Y6.455583 Z-1.000000 I-0.033062 J3.722486
G03 X56.145109 Y6.747454 Z-1.000000 I-0.317389 J1.076406
G03 X56.430697 Y7.238141 Z-1.000000 I-0.829942 J0.811493
G03 X56.569545 Y8.223336 Z-1.000000 I-3.425786 J0.985194
G01 X56.569545 Y17.454825 Z-1.000000
G01 X56.289804 Y17.802088 Z-1.000000
G03 X55.843721 Y18.284841 Z-1.000000 I-3.502930 J-2.789366
G03 X55.556687 Y18.486973 Z-1.000000 I-0.872012 J-0.933422
G03 X55.225838 Y18.602723 Z-1.000000 I-0.578652 J-1.123255
G03 X54.640291 Y18.670254 Z-1.000000 I-0.700749 J-3.503715
G01 X54.640291 Y19.027164 Z-1.000000
G01 X59.280146 Y19.027164 Z-1.000000
G01 X59.280146 Y19.027164 Z-1.000000
G00 Z3.000000

(End cutting path id: path4632)


(Start cutting path id: path4630)
(Change tool to Cylindrical cutter)

G00 Z3.000000
G00 X46.547072 Y18.274756

G01 Z-1.000000 F100.0(Penetrate)
G01 X46.547072 Y12.950022 Z-1.000000 F100.000000
G01 X46.807521 Y12.950022 Z-1.000000
G03 X47.932110 Y13.183114 Z-1.000000 I-0.000000 J2.829420
G03 X48.611375 Y13.731354 Z-1.000000 I-0.649644 J1.499828
G03 X49.026403 Y14.567280 Z-1.000000 I-2.373007 J1.699161
G03 X49.325197 Y16.036822 Z-1.000000 I-7.198246 J2.228730
G01 X49.691756 Y16.036822 Z-1.000000
G01 X49.691756 Y9.187971 Z-1.000000
G01 X49.325197 Y9.187971 Z-1.000000
G03 X49.123322 Y10.280845 Z-1.000000 I-6.952972 J-0.719270
G03 X48.833239 Y11.020750 Z-1.000000 I-3.452319 J-0.926679
G03 X48.393066 Y11.659577 Z-1.000000 I-2.683812 J-1.378174
G03 X47.974722 Y11.975734 Z-1.000000 I-1.025048 J-0.921504
G03 X47.463570 Y12.146651 Z-1.000000 I-0.825717 J-1.619630
G03 X46.547072 Y12.226545 Z-1.000000 I-0.916497 J-5.216827
G01 X46.547072 Y8.541682 Z-1.000000
G03 X46.582320 Y7.467430 Z-1.000000 I16.387887 J0.000000
G03 X46.633889 Y7.220120 Z-1.000000 I0.903394 J0.059347
G03 X46.764345 Y7.007611 Z-1.000000 I0.684164 J0.273698
G03 X46.981155 Y6.824642 Z-1.000000 I0.716721 J0.629347
G03 X47.246517 Y6.721732 Z-1.000000 I0.412707 J0.670618
G03 X47.791441 Y6.670295 Z-1.000000 I0.544923 J2.860713
G01 X48.572790 Y6.670295 Z-1.000000
G03 X50.321016 Y6.918237 Z-1.000000 I0.000000 J6.287290
G03 X51.505254 Y7.519163 Z-1.000000 I-0.988864 J3.416090
G03 X52.401999 Y8.511687 Z-1.000000 I-2.234836 J2.920541
G03 X53.096888 Y10.104375 Z-1.000000 I-5.284820 J3.253699
G01 X53.453801 Y10.104375 Z-1.000000
G01 X52.865379 Y5.946818 Z-1.000000
G01 X41.559952 Y5.946818 Z-1.000000
G01 X41.559952 Y6.303745 Z-1.000000
G01 X41.994035 Y6.303745 Z-1.000000
G03 X42.546842 Y6.364118 Z-1.000000 I0.000000 J2.561074
G03 X42.910430 Y6.506324 Z-1.000000 I-0.272468 J1.232550
G03 X43.120590 Y6.678013 Z-1.000000 I-0.338746 J0.629119
G03 X43.296281 Y6.969338 Z-1.000000 I-0.862642 J0.718881
G03 X43.359926 Y7.210112 Z-1.000000 I-0.663908 J0.304290
G03 X43.402389 Y8.184756 Z-1.000000 I-11.164191 J0.974644
G01 X43.402389 Y16.789232 Z-1.000000
G03 X43.382816 Y17.674390 Z-1.000000 I-20.025116 J0.000000
G03 X43.354160 Y17.879259 Z-1.000000 I-1.092098 J-0.048321
G03 X43.211018 Y18.183699 Z-1.000000 I-1.007640 J-0.287900
G03 X42.997247 Y18.400159 Z-1.000000 I-0.706983 J-0.484413
G03 X42.604169 Y18.589557 Z-1.000000 I-0.699747 J-0.949659
G03 X41.994035 Y18.670254 Z-1.000000 I-0.610134 J-2.266218
G01 X41.559952 Y18.670254 Z-1.000000
G01 X41.559952 Y19.027164 Z-1.000000
G01 X52.508466 Y19.027164 Z-1.000000
G01 X52.508466 Y15.159012 Z-1.000000
G01 X52.141908 Y15.159012 Z-1.000000
G03 X51.745997 Y16.521864 Z-1.000000 I-7.926537 J-1.563738
G03 X51.350915 Y17.194373 Z-1.000000 I-2.274606 J-0.883969
G03 X50.777000 Y17.705057 Z-1.000000 I-1.856111 J-1.508095
G03 X49.923266 Y18.101122 Z-1.000000 I-1.924304 J-3.029759
G03 X49.373179 Y18.211630 Z-1.000000 I-0.763034 J-2.373859
G03 X47.897551 Y18.274756 Z-1.000000 I-1.475629 J-17.215499
G01 X46.547072 Y18.274756 Z-1.000000
G01 X46.547072 Y18.274756 Z-1.000000
G00 Z3.000000

(End cutting path id: path4630)


(Start cutting path id: path4628)
(Change tool to Cylindrical cutter)

G00 Z3.000000
G00 X40.074427 Y19.326201

G01 Z-1.000000 F100.0(Penetrate)
G01 X40.074427 Y14.792453 Z-1.000000 F100.000000
G01 X39.698222 Y14.792453 Z-1.000000
G03 X39.045194 Y16.423938 Z-1.000000 I-5.873491 J-1.404525
G03 X38.116236 Y17.512700 Z-1.000000 I-3.462682 J-2.013756
G03 X36.872752 Y18.216962 Z-1.000000 I-2.679249 J-3.280719
G03 X35.492450 Y18.458034 Z-1.000000 I-1.380301 J-3.831042
G03 X34.323019 Y18.279128 Z-1.000000 I0.000000 J-3.911486
G03 X33.244869 Y17.753859 Z-1.000000 I1.201800 J-3.835894
G03 X32.361304 Y16.937178 Z-1.000000 I2.394430 J-3.476833
G03 X31.749698 Y15.911422 Z-1.000000 I3.229501 J-2.620799
G03 X31.304810 Y14.422226 Z-1.000000 I6.845880 J-2.856218
G03 X31.141983 Y12.670283 Z-1.000000 I9.343675 J-1.751943
G03 X31.261791 Y10.932621 Z-1.000000 I12.661209 J-0.000000
G03 X31.585713 Y9.467710 Z-1.000000 I9.304862 J1.289227
G03 X32.197362 Y8.145817 Z-1.000000 I5.211251 J1.608829
G03 X32.974774 Y7.287656 Z-1.000000 I2.906981 J1.852236
G03 X33.991926 Y6.764322 Z-1.000000 I1.911094 J2.464264
G03 X35.424926 Y6.554527 Z-1.000000 I1.433000 J4.789156
G03 X36.624555 Y6.696077 Z-1.000000 I-0.000000 J5.154190
G03 X37.682153 Y7.094729 Z-1.000000 I-1.050238 J4.388410
G03 X38.632102 Y7.738482 Z-1.000000 I-2.350990 J4.491986
G03 X39.852564 Y8.956464 Z-1.000000 I-7.452581 J8.688215
G01 X39.852564 Y7.827858 Z-1.000000
G02 X38.671467 Y6.796748 Z-1.000000 I-6.357916 J6.090744
G02 X37.556751 Y6.159049 Z-1.000000 I-3.473255 J4.778227
G02 X36.340856 Y5.790352 Z-1.000000 I-2.240717 J5.200220
G02 X34.778626 Y5.647804 Z-1.000000 I-1.562230 J8.489209
G02 X32.740349 Y5.874658 Z-1.000000 I-0.000000 J9.270341
G02 X31.055166 Y6.487020 Z-1.000000 I1.557931 J6.912277
G02 X29.618336 Y7.516716 Z-1.000000 I2.832610 J5.469922
G02 X28.547139 Y8.898580 Z-1.000000 I4.176880 J4.343962
G02 X27.890762 Y10.528550 Z-1.000000 I6.087471 J3.398525
G02 X27.669328 Y12.245849 Z-1.000000 I6.548397 J1.717298
G02 X27.912644 Y14.051708 Z-1.000000 I6.823067 J-0.000000
G02 X28.643600 Y15.795665 Z-1.000000 I7.085773 J-1.944741
G02 X29.807301 Y17.290494 Z-1.000000 I6.242927 J-3.659646
G02 X31.286679 Y18.400159 Z-1.000000 I4.840323 J-4.912032
G02 X33.015784 Y19.093249 Z-1.000000 I3.614010 J-6.512741
G02 X34.826857 Y19.326201 Z-1.000000 I1.811073 J-6.923579
G02 X36.180413 Y19.188693 Z-1.000000 I0.000000 J-6.730609
G02 X37.740031 Y18.728129 Z-1.000000 I-1.933804 J-9.419461
G03 X38.634141 Y18.416128 Z-1.000000 I4.633720 J11.841809
G03 X38.868644 Y18.380866 Z-1.000000 I0.234503 J0.762139
G03 X39.153636 Y18.438056 Z-1.000000 I-0.000000 J0.738693
G03 X39.399188 Y18.602730 Z-1.000000 I-0.294849 J0.705075
G03 X39.572911 Y18.862936 Z-1.000000 I-0.565917 J0.565923
G03 X39.698222 Y19.326201 Z-1.000000 I-1.740290 J0.719319
G01 X40.074427 Y19.326201 Z-1.000000
G01 X40.074427 Y19.326201 Z-1.000000
G00 Z3.000000

(End cutting path id: path4628)


(Start cutting path id: path4626)
(Change tool to Cylindrical cutter)

G00 Z3.000000
G00 X130.980852 Y30.641271

G01 Z-1.000000 F100.0(Penetrate)
G01 X130.980852 Y30.998184 Z-1.000000 F100.000000
G01 X131.414933 Y30.998184 Z-1.000000
G03 X131.969282 Y31.053074 Z-1.000000 I0.000000 J2.826663
G03 X132.283099 Y31.171815 Z-1.000000 I-0.201114 J1.005582
G03 X132.552852 Y31.390403 Z-1.000000 I-0.612590 J1.031722
G03 X132.736472 Y31.663776 Z-1.000000 I-0.793797 J0.731534
G03 X132.787424 Y31.873709 Z-1.000000 I-0.597992 J0.256286
G03 X132.823289 Y32.879206 Z-1.000000 I-14.076829 J1.005497
G01 X132.823289 Y41.483676 Z-1.000000
G03 X132.781281 Y42.478365 Z-1.000000 I-11.797317 J0.000000
G03 X132.717180 Y42.737691 Z-1.000000 I-0.846319 J-0.071612
G03 X132.571884 Y42.953375 Z-1.000000 I-0.625702 J-0.264723
G03 X132.283099 Y43.171771 Z-1.000000 I-0.931218 J-0.931218
G03 X131.948411 Y43.306137 Z-1.000000 I-0.575600 J-0.949731
G03 X131.414933 Y43.364699 Z-1.000000 I-0.533479 J-2.400638
G01 X130.980852 Y43.364699 Z-1.000000
G01 X130.980852 Y43.721608 Z-1.000000
G01 X136.836137 Y43.721608 Z-1.000000
G02 X139.139095 Y43.528607 Z-1.000000 I0.000000 J-13.836342
G02 X140.607828 Y43.084957 Z-1.000000 I-1.015036 J-6.013343
G02 X142.153267 Y42.083041 Z-1.000000 I-2.446059 J-5.465871
G02 X143.250904 Y40.721620 Z-1.000000 I-3.598561 J-4.024508
G02 X143.916630 Y39.075455 Z-1.000000 I-5.674898 J-3.252684
G02 X144.157653 Y37.142856 Z-1.000000 I-7.627599 J-1.932599
G02 X144.040239 Y35.785004 Z-1.000000 I-7.910284 J0.000000
G02 X143.713923 Y34.596240 Z-1.000000 I-6.375263 J1.110844
G02 X143.178801 Y33.495481 Z-1.000000 I-6.618724 J2.537170
G02 X142.566018 Y32.676633 Z-1.000000 I-4.247954 J2.540231
G02 X141.806894 Y31.997859 Z-1.000000 I-4.186211 J3.917877
G02 X140.935798 Y31.461203 Z-1.000000 I-3.459482 J4.640102
G02 X139.994116 Y31.083420 Z-1.000000 I-2.890599 J5.842718
G02 X138.688220 Y30.757025 Z-1.000000 I-3.430099 J10.948103
G02 X138.095966 Y30.680602 Z-1.000000 I-0.875036 J4.448168
G02 X136.836137 Y30.641271 Z-1.000000 I-1.259829 J20.157579
G01 X130.980852 Y30.641271 Z-1.000000
G01 X130.980852 Y30.641271 Z-1.000000
G00 Z3.000000

(End cutting path id: path4626)


(Start cutting path id: path4626)
(Change tool to Cylindrical cutter)

G00 Z3.000000
G00 X135.967973 Y42.978847

G01 Z-1.000000 F100.0(Penetrate)
G01 X135.967973 Y32.773096 Z-1.000000 F100.000000
G03 X135.999148 Y31.969106 Z-1.000000 I10.382838 J-0.000000
G03 X136.045141 Y31.779530 Z-1.000000 I0.608501 J0.047261
G03 X136.148275 Y31.620074 Z-1.000000 I0.500960 J0.210934
G03 X136.305590 Y31.499788 Z-1.000000 I0.432618 J0.402782
G03 X136.577895 Y31.400840 Z-1.000000 I0.445570 J0.802042
G03 X137.058000 Y31.355096 Z-1.000000 I0.480105 J2.496577
G03 X138.516075 Y31.666182 Z-1.000000 I0.000000 J3.572574
G03 X139.517798 Y32.454769 Z-1.000000 I-1.066169 J2.384855
G03 X140.304774 Y34.067627 Z-1.000000 I-3.427701 J2.670935
G03 X140.675350 Y37.065685 Z-1.000000 I-11.942270 J2.998058
G03 X140.435912 Y39.524265 Z-1.000000 I-12.742239 J-0.000000
G03 X139.884357 Y41.088178 Z-1.000000 I-5.634785 J-1.108037
G03 X139.120463 Y42.116384 Z-1.000000 I-3.796620 J-2.022791
G03 X138.273430 Y42.689459 Z-1.000000 I-1.933196 J-1.944842
G03 X137.557733 Y42.884239 Z-1.000000 I-1.044722 J-2.426454
G03 X135.967973 Y42.978847 Z-1.000000 I-1.516832 J-12.084098
G01 X135.967973 Y42.978847 Z-1.000000
G00 Z3.000000

(End cutting path id: path4626)


(Start cutting path id: path4624)
(Change tool to Cylindrical cutter)

G00 Z3.000000
G00 X124.662546 Y34.364731

G01 Z-1.000000 F100.0(Penetrate)
G01 X120.041984 Y34.364731 Z-1.000000 F100.000000
G01 X119.492147 Y33.091423 Z-1.000000
G03 X119.273163 Y32.444376 Z-1.000000 I4.202277 J-1.782781
G03 X119.222052 Y32.039979 Z-1.000000 I1.574264 J-0.404397
G03 X119.344766 Y31.560405 Z-1.000000 I0.998459 J0.000000
G03 X119.665779 Y31.229693 Z-1.000000 I0.759134 J0.415715
G03 X119.942376 Y31.126609 Z-1.000000 I0.424446 J0.716253
G03 X120.948733 Y30.998184 Z-1.000000 I1.746479 J9.678438
G01 X120.948733 Y30.641271 Z-1.000000
G01 X116.598266 Y30.641271 Z-1.000000
G01 X116.598266 Y30.998184 Z-1.000000
G03 X117.250460 Y31.204658 Z-1.000000 I-0.325865 J2.162598
G03 X117.755820 Y31.576959 Z-1.000000 I-0.823421 J1.646845
G03 X118.143248 Y32.103107 Z-1.000000 I-1.992204 J1.872670
G03 X118.874786 Y33.554442 Z-1.000000 I-14.723349 J8.331260
G01 X123.553226 Y43.991706 Z-1.000000
G01 X123.736504 Y43.991706 Z-1.000000
G01 X128.453530 Y33.265055 Z-1.000000
G03 X129.201921 Y31.793663 Z-1.000000 I14.118376 J6.254983
G03 X129.562849 Y31.345450 Z-1.000000 I1.624781 J0.938944
G03 X129.924596 Y31.124147 Z-1.000000 I0.755441 J0.828549
G03 X130.488891 Y30.998184 Z-1.000000 I0.731840 J1.951572
G01 X130.488891 Y30.641271 Z-1.000000
G01 X124.160941 Y30.641271 Z-1.000000
G01 X124.160941 Y30.998184 Z-1.000000
G01 X124.421390 Y30.998184 Z-1.000000
G03 X125.160904 Y31.070763 Z-1.000000 I-0.000000 J3.803785
G03 X125.492127 Y31.210401 Z-1.000000 I-0.173052 J0.873132
G03 X125.645500 Y31.394707 Z-1.000000 I-0.287333 J0.395077
G03 X125.704344 Y31.654130 Z-1.000000 I-0.542434 J0.259423
G03 X125.690528 Y31.825632 Z-1.000000 I-1.071394 J-0.000000
G03 X125.646466 Y32.011040 Z-1.000000 I-1.297421 J-0.210396
G03 X125.620320 Y32.095665 Z-1.000000 I-0.535240 J-0.119012
G03 X125.357078 Y32.734511 Z-1.000000 I-30.981436 J-12.392550
G01 X124.662546 Y34.364731 Z-1.000000
G01 X124.662546 Y34.364731 Z-1.000000
G00 Z3.000000

(End cutting path id: path4624)


(Start cutting path id: path4624)
(Change tool to Cylindrical cutter)

G00 Z3.000000
G00 X124.334573 Y35.078553

G01 Z-1.000000 F100.0(Penetrate)
G01 X122.386029 Y39.583361 Z-1.000000 F100.000000
G01 X120.379604 Y35.078553 Z-1.000000
G01 X124.334573 Y35.078553 Z-1.000000
G01 X124.334573 Y35.078553 Z-1.000000
G00 Z3.000000

(End cutting path id: path4624)


(Start cutting path id: path4622)
(Change tool to Cylindrical cutter)

G00 Z3.000000
G00 X102.427899 Y30.641271

G01 Z-1.000000 F100.0(Penetrate)
G01 X102.427899 Y30.998184 Z-1.000000 F100.000000
G01 X102.861983 Y30.998184 Z-1.000000
G03 X103.416331 Y31.053075 Z-1.000000 I0.000000 J2.826653
G03 X103.730146 Y31.171815 Z-1.000000 I-0.201111 J1.005564
G03 X103.999899 Y31.390402 Z-1.000000 I-0.612597 J1.031733
G03 X104.183522 Y31.663776 Z-1.000000 I-0.793810 J0.731550
G03 X104.234472 Y31.873708 Z-1.000000 I-0.598010 J0.256285
G03 X104.270336 Y32.879206 Z-1.000000 I-14.077293 J1.005498
G01 X104.270336 Y41.483676 Z-1.000000
G03 X104.228329 Y42.478366 Z-1.000000 I-11.797634 J-0.000000
G03 X104.164229 Y42.737691 Z-1.000000 I-0.846336 J-0.071612
G03 X104.018934 Y42.953374 Z-1.000000 I-0.625696 J-0.264721
G03 X103.730146 Y43.171771 Z-1.000000 I-0.931219 J-0.931226
G03 X103.395458 Y43.306137 Z-1.000000 I-0.575601 J-0.949733
G03 X102.861983 Y43.364699 Z-1.000000 I-0.533476 J-2.400617
G01 X102.427899 Y43.364699 Z-1.000000
G01 X102.427899 Y43.721608 Z-1.000000
G01 X108.283184 Y43.721608 Z-1.000000
G02 X110.586144 Y43.528607 Z-1.000000 I0.000000 J-13.836358
G02 X112.054875 Y43.084957 Z-1.000000 I-1.015031 J-6.013315
G02 X113.600314 Y42.083041 Z-1.000000 I-2.446059 J-5.465871
G02 X114.697951 Y40.721620 Z-1.000000 I-3.598561 J-4.024508
G02 X115.363679 Y39.075455 Z-1.000000 I-5.674885 J-3.252687
G02 X115.604703 Y37.142856 Z-1.000000 I-7.627574 J-1.932599
G02 X115.487289 Y35.785004 Z-1.000000 I-7.910284 J0.000000
G02 X115.160973 Y34.596240 Z-1.000000 I-6.375263 J1.110844
G02 X114.625849 Y33.495481 Z-1.000000 I-6.618807 J2.537218
G02 X114.013068 Y32.676633 Z-1.000000 I-4.247988 J2.540251
G02 X113.253944 Y31.997859 Z-1.000000 I-4.186211 J3.917877
G02 X112.382848 Y31.461203 Z-1.000000 I-3.459482 J4.640102
G02 X111.441166 Y31.083420 Z-1.000000 I-2.890592 J5.842705
G02 X110.135267 Y30.757025 Z-1.000000 I-3.430102 J10.948124
G02 X109.543013 Y30.680602 Z-1.000000 I-0.875036 J4.448168
G02 X108.283184 Y30.641271 Z-1.000000 I-1.259829 J20.157579
G01 X102.427899 Y30.641271 Z-1.000000
G01 X102.427899 Y30.641271 Z-1.000000
G00 Z3.000000

(End cutting path id: path4622)


(Start cutting path id: path4622)
(Change tool to Cylindrical cutter)

G00 Z3.000000
G00 X107.415020 Y42.978847

G01 Z-1.000000 F100.0(Penetrate)
G01 X107.415020 Y32.773096 Z-1.000000 F100.000000
G03 X107.446196 Y31.969106 Z-1.000000 I10.382455 J0.000000
G03 X107.492191 Y31.779530 Z-1.000000 I0.608485 J0.047261
G03 X107.595325 Y31.620074 Z-1.000000 I0.500960 J0.210934
G03 X107.752640 Y31.499788 Z-1.000000 I0.432618 J0.402782
G03 X108.024942 Y31.400841 Z-1.000000 I0.445564 J0.802021
G03 X108.505050 Y31.355096 Z-1.000000 I0.480108 J2.496590
G03 X109.963123 Y31.666182 Z-1.000000 I-0.000000 J3.572568
G03 X110.964848 Y32.454769 Z-1.000000 I-1.066175 J2.384867
G03 X111.751824 Y34.067627 Z-1.000000 I-3.427701 J2.670935
G03 X112.122399 Y37.065685 Z-1.000000 I-11.942270 J2.998058
G03 X111.882961 Y39.524265 Z-1.000000 I-12.742193 J-0.000000
G03 X111.331404 Y41.088178 Z-1.000000 I-5.634772 J-1.108039
G03 X110.567510 Y42.116384 Z-1.000000 I-3.796632 J-2.022797
G03 X109.720479 Y42.689459 Z-1.000000 I-1.933194 J-1.944837
G03 X109.004783 Y42.884239 Z-1.000000 I-1.044721 J-2.426453
G03 X107.415020 Y42.978847 Z-1.000000 I-1.516835 J-12.084135
G01 X107.415020 Y42.978847 Z-1.000000
G00 Z3.000000

(End cutting path id: path4622)


(Start cutting path id: path4620)
(Change tool to Cylindrical cutter)

G00 Z3.000000
G00 X101.723724 Y30.998184

G01 Z-1.000000 F100.0(Penetrate)
G01 X101.723724 Y30.641271 Z-1.000000 F100.000000
G01 X94.884520 Y30.641271 Z-1.000000
G01 X94.884520 Y30.998184 Z-1.000000
G01 X95.318600 Y30.998184 Z-1.000000
G03 X95.871409 Y31.058554 Z-1.000000 I0.000000 J2.561182
G03 X96.234996 Y31.200754 Z-1.000000 I-0.272463 J1.232578
G03 X96.445156 Y31.372449 Z-1.000000 I-0.338768 J0.629134
G03 X96.620847 Y31.663776 Z-1.000000 I-0.862673 J0.718893
G03 X96.684493 Y31.904554 Z-1.000000 I-0.663908 J0.304295
G03 X96.726957 Y32.879206 Z-1.000000 I-11.164091 J0.974652
G01 X96.726957 Y41.483676 Z-1.000000
G03 X96.684949 Y42.478365 Z-1.000000 I-11.797317 J0.000000
G03 X96.620847 Y42.737691 Z-1.000000 I-0.846319 J-0.071612
G03 X96.475552 Y42.953374 Z-1.000000 I-0.625696 J-0.264721
G03 X96.186764 Y43.171771 Z-1.000000 I-0.931219 J-0.931226
G03 X95.852076 Y43.306137 Z-1.000000 I-0.575601 J-0.949733
G03 X95.318600 Y43.364699 Z-1.000000 I-0.533476 J-2.400617
G01 X94.884520 Y43.364699 Z-1.000000
G01 X94.884520 Y43.721608 Z-1.000000
G01 X101.723724 Y43.721608 Z-1.000000
G01 X101.723724 Y43.364699 Z-1.000000
G01 X101.289641 Y43.364699 Z-1.000000
G03 X100.736833 Y43.304327 Z-1.000000 I0.000000 J-2.561146
G03 X100.373245 Y43.162125 Z-1.000000 I0.272465 J-1.232569
G03 X100.161324 Y42.991134 Z-1.000000 I0.350959 J-0.651787
G03 X99.977748 Y42.699106 Z-1.000000 I0.903213 J-0.771498
G03 X99.914104 Y42.458329 Z-1.000000 I0.663923 J-0.304294
G03 X99.871641 Y41.483676 Z-1.000000 I11.164393 J-0.974652
G01 X99.871641 Y32.879206 Z-1.000000
G03 X99.913648 Y31.884514 Z-1.000000 I11.797666 J0.000000
G03 X99.977748 Y31.625191 Z-1.000000 I0.846317 J0.071610
G03 X100.128836 Y31.405953 Z-1.000000 I0.710328 J0.327844
G03 X100.411831 Y31.181462 Z-1.000000 I1.029306 J1.006929
G03 X100.754207 Y31.053484 Z-1.000000 I0.589260 J1.054473
G03 X101.289641 Y30.998184 Z-1.000000 I0.535433 J2.564459
G01 X101.723724 Y30.998184 Z-1.000000
G01 X101.723724 Y30.998184 Z-1.000000
G00 Z3.000000

(End cutting path id: path4620)


(Start cutting path id: path4618)
(Change tool to Cylindrical cutter)

G00 Z3.000000
G00 X92.771988 Y44.020645

G01 Z-1.000000 F100.0(Penetrate)
G01 X92.878095 Y39.660532 Z-1.000000 F100.000000
G01 X92.482597 Y39.660532 Z-1.000000
G03 X91.971624 Y41.173320 Z-1.000000 I-5.040587 J-0.859865
G03 X91.103182 Y42.293962 Z-1.000000 I-3.570979 J-1.870512
G03 X89.919515 Y43.057160 Z-1.000000 I-2.798272 J-3.040432
G03 X88.739848 Y43.297174 Z-1.000000 I-1.179667 J-2.779020
G03 X87.815312 Y43.144511 Z-1.000000 I-0.000000 J-2.875847
G03 X87.177152 Y42.766630 Z-1.000000 I0.579146 J-1.705851
G03 X86.747742 Y42.184202 Z-1.000000 I1.265099 J-1.382238
G03 X86.608020 Y41.560844 Z-1.000000 I1.320670 J-0.623358
G03 X86.662111 Y41.141746 Z-1.000000 I1.650637 J-0.000000
G03 X86.810594 Y40.789144 Z-1.000000 I1.308710 J0.343540
G03 X87.135698 Y40.378047 Z-1.000000 I1.922293 J1.186091
G03 X87.707696 Y39.892042 Z-1.000000 I3.275750 J3.275750
G03 X88.177694 Y39.601731 Z-1.000000 I2.699446 J3.844652
G03 X89.800936 Y38.763429 Z-1.000000 I24.382988 J45.223175
G02 X91.978537 Y37.487753 Z-1.000000 I-7.630435 J-15.521722
G02 X92.897388 Y36.631602 Z-1.000000 I-2.428842 J-3.527861
G02 X93.483829 Y35.557450 Z-1.000000 I-2.874812 J-2.266688
G02 X93.688383 Y34.335792 Z-1.000000 I-3.545779 J-1.221658
G02 X93.364275 Y32.837649 Z-1.000000 I-3.624526 J0.000000
G02 X92.405429 Y31.509435 Z-1.000000 I-3.769691 J1.711157
G02 X91.005365 Y30.656490 Z-1.000000 I-2.816082 J3.046911
G02 X89.164282 Y30.332591 Z-1.000000 I-1.841083 J5.070528
G02 X88.550622 Y30.365461 Z-1.000000 I-0.000000 J5.744705
G02 X87.997084 Y30.457991 Z-1.000000 I0.511789 J4.763631
G02 X87.456366 Y30.611826 Z-1.000000 I1.181172 J5.178934
G02 X86.617667 Y30.930659 Z-1.000000 I4.386274 J12.800731
G03 X86.147375 Y31.087225 Z-1.000000 I-1.299491 J-3.118787
G03 X85.855613 Y31.123583 Z-1.000000 I-0.291763 J-1.152466
G03 X85.617854 Y31.081696 Z-1.000000 I0.000000 J-0.695727
G03 X85.325069 Y30.930659 Z-1.000000 I0.442750 J-1.217567
G03 X85.086148 Y30.704019 Z-1.000000 I0.604445 J-0.876449
G03 X84.871693 Y30.342237 Z-1.000000 I1.375502 J-1.059816
G01 X84.514781 Y30.342237 Z-1.000000
G01 X84.514781 Y35.281126 Z-1.000000
G01 X84.871693 Y35.281126 Z-1.000000
G03 X85.551259 Y33.342316 Z-1.000000 I7.414733 J1.510413
G03 X86.501913 Y32.097857 Z-1.000000 I3.913358 J2.004114
G03 X87.816858 Y31.267845 Z-1.000000 I3.104424 J3.461574
G03 X89.116050 Y31.007830 Z-1.000000 I1.299192 J3.115764
G03 X90.130308 Y31.176798 Z-1.000000 I-0.000000 J3.128611
G03 X90.833087 Y31.596252 Z-1.000000 I-0.642589 J1.875099
G03 X91.320085 Y32.255074 Z-1.000000 I-1.418293 J1.557799
G03 X91.479387 Y32.966020 Z-1.000000 I-1.506779 J0.710946
G03 X91.418134 Y33.412619 Z-1.000000 I-1.658706 J0.000000
G03 X91.228585 Y33.863123 Z-1.000000 I-1.877946 J-0.525016
G03 X90.944278 Y34.260037 Z-1.000000 I-1.868170 J-1.037879
G03 X90.485821 Y34.683058 Z-1.000000 I-2.585583 J-2.342233
G03 X89.959520 Y35.039390 Z-1.000000 I-2.716070 J-3.444782
G03 X88.710909 Y35.705560 Z-1.000000 I-10.856626 J-18.845492
G02 X86.963826 Y36.642767 Z-1.000000 I12.420964 J25.251373
G02 X86.145001 Y37.200734 Z-1.000000 I3.538904 J6.073209
G02 X85.433622 Y37.877645 Z-1.000000 I3.317392 J4.198568
G02 X84.939218 Y38.580149 Z-1.000000 I3.083184 J2.695093
G02 X84.632630 Y39.369745 Z-1.000000 I2.911940 J1.584981
G02 X84.524427 Y40.258600 Z-1.000000 I3.596758 J0.888855
G02 X84.820848 Y41.694772 Z-1.000000 I3.627366 J-0.000000
G02 X85.672335 Y42.920969 Z-1.000000 I3.451975 J-1.488355
G02 X86.940162 Y43.722109 Z-1.000000 I2.605957 J-2.720248
G02 X88.566213 Y44.020645 Z-1.000000 I1.626051 J-4.279073
G02 X89.197875 Y43.981319 Z-1.000000 I-0.000000 J-5.092570
G02 X89.800936 Y43.866303 Z-1.000000 I-0.594394 J-4.755111
G02 X90.244097 Y43.722894 Z-1.000000 I-0.915256 J-3.584731
G02 X90.900612 Y43.432220 Z-1.000000 I-3.227653 J-8.176712
G03 X91.565760 Y43.164718 Z-1.000000 I2.657353 J5.646853
G03 X91.817007 Y43.123540 Z-1.000000 I0.251247 J0.745888
G03 X92.048901 Y43.167185 Z-1.000000 I-0.000000 J0.637864
G03 X92.212502 Y43.277881 Z-1.000000 I-0.162506 J0.416416
G03 X92.319453 Y43.451946 Z-1.000000 I-0.371079 J0.347893
G03 X92.482597 Y44.020645 Z-1.000000 I-4.009102 J1.457851
G01 X92.771988 Y44.020645 Z-1.000000
G01 X92.771988 Y44.020645 Z-1.000000
G00 Z3.000000

(End cutting path id: path4618)


(Start cutting path id: path4616)
(Change tool to Cylindrical cutter)

G00 Z3.000000
G00 X74.463371 Y36.602665

G01 Z-1.000000 F100.0(Penetrate)
G01 X74.463371 Y32.937081 Z-1.000000 F100.000000
G03 X74.512393 Y31.886478 Z-1.000000 I11.282527 J-0.000000
G03 X74.588771 Y31.596252 Z-1.000000 I0.914638 J0.085541
G03 X74.761814 Y31.364151 Z-1.000000 I0.735325 J0.367666
G03 X75.051793 Y31.162169 Z-1.000000 I0.837804 J0.893658
G03 X75.393659 Y31.057033 Z-1.000000 I0.486067 J0.972143
G03 X76.276869 Y30.998184 Z-1.000000 I0.883210 J6.598153
G01 X76.276869 Y30.641271 Z-1.000000
G01 X69.582361 Y30.641271 Z-1.000000
G01 X69.582361 Y30.998184 Z-1.000000
G03 X70.474695 Y31.057641 Z-1.000000 I0.000000 J6.725774
G03 X70.807436 Y31.162169 Z-1.000000 I-0.135717 J1.013897
G03 X71.096178 Y31.373038 Z-1.000000 I-0.583395 J1.101959
G03 X71.260810 Y31.605898 Z-1.000000 I-0.554838 J0.566896
G03 X71.342806 Y31.888518 Z-1.000000 I-0.729982 J0.364995
G03 X71.395859 Y32.937081 Z-1.000000 I-10.335733 J1.048564
G01 X71.395859 Y41.425798 Z-1.000000
G03 X71.342806 Y42.474362 Z-1.000000 I-10.388809 J-0.000000
G03 X71.260810 Y42.756984 Z-1.000000 I-0.811994 J-0.082377
G03 X71.093684 Y42.996725 Z-1.000000 I-0.715820 J-0.320881
G03 X70.807436 Y43.200711 Z-1.000000 I-0.793726 J-0.810981
G03 X70.465570 Y43.305848 Z-1.000000 I-0.486068 J-0.972128
G03 X69.582361 Y43.364699 Z-1.000000 I-0.883210 J-6.598036
G01 X69.582361 Y43.721608 Z-1.000000
G01 X75.659508 Y43.721608 Z-1.000000
G02 X78.016283 Y43.610564 Z-1.000000 I-0.000000 J-25.065334
G02 X79.132165 Y43.393638 Z-1.000000 I-0.547099 J-5.792857
G02 X80.132269 Y42.919592 Z-1.000000 I-1.039237 J-3.484494
G02 X80.926370 Y42.178205 Z-1.000000 I-1.964960 J-2.900648
G02 X81.437119 Y41.236483 Z-1.000000 I-2.448679 J-1.937419
G02 X81.620902 Y40.113905 Z-1.000000 I-3.336545 J-1.122578
G02 X81.344969 Y38.789183 Z-1.000000 I-3.317884 J0.000000
G02 X80.579104 Y37.721631 Z-1.000000 I-2.867820 J1.248891
G02 X79.853983 Y37.235572 Z-1.000000 I-2.068737 J2.302307
G02 X78.717375 Y36.824529 Z-1.000000 I-2.575674 J5.345218
G01 X81.862058 Y32.396891 Z-1.000000
G03 X82.503898 Y31.561420 Z-1.000000 I13.519454 J9.721861
G03 X82.739868 Y31.326157 Z-1.000000 I1.288150 J1.056052
G03 X83.161456 Y31.098277 Z-1.000000 I0.955361 J1.263545
G03 X83.656264 Y30.998184 Z-1.000000 I0.592313 J1.654992
G01 X83.656264 Y30.641271 Z-1.000000
G01 X79.537306 Y30.641271 Z-1.000000
G01 X75.321889 Y36.602665 Z-1.000000
G01 X74.463371 Y36.602665 Z-1.000000
G01 X74.463371 Y36.602665 Z-1.000000
G00 Z3.000000

(End cutting path id: path4616)


(Start cutting path id: path4616)
(Change tool to Cylindrical cutter)

G00 Z3.000000
G00 X74.463371 Y43.017433

G01 Z-1.000000 F100.0(Penetrate)
G01 X74.463371 Y37.287548 Z-1.000000 F100.000000
G01 X75.013208 Y37.287548 Z-1.000000
G03 X76.340090 Y37.367003 Z-1.000000 I0.000000 J11.119018
G03 X77.019633 Y37.528707 Z-1.000000 I-0.366411 J3.048513
G03 X77.605552 Y37.874344 Z-1.000000 I-0.698312 J1.853211
G03 X78.061428 Y38.416163 Z-1.000000 I-1.391422 J1.633406
G03 X78.333722 Y39.093783 Z-1.000000 I-2.016223 J1.203717
G03 X78.447280 Y40.094612 Z-1.000000 I-4.353596 J1.000830
G03 X78.228679 Y41.500106 Z-1.000000 I-4.627611 J-0.000000
G03 X77.743101 Y42.303608 Z-1.000000 I-1.920774 J-0.612300
G03 X76.953175 Y42.791519 Z-1.000000 I-1.367443 J-1.330485
G03 X75.495520 Y43.017433 Z-1.000000 I-1.457655 J-4.589639
G01 X74.463371 Y43.017433 Z-1.000000
G01 X74.463371 Y43.017433 Z-1.000000
G00 Z3.000000

(End cutting path id: path4616)


(Start cutting path id: path4614)
(Change tool to Cylindrical cutter)

G00 Z3.000000
G00 X61.402324 Y42.969201

G01 Z-1.000000 F100.0(Penetrate)
G01 X61.402324 Y37.644461 Z-1.000000 F100.000000
G01 X61.662773 Y37.644461 Z-1.000000
G03 X62.787358 Y37.877557 Z-1.000000 I-0.000000 J2.829354
G03 X63.466625 Y38.425810 Z-1.000000 I-0.649659 J1.499826
G03 X63.881653 Y39.261723 Z-1.000000 I-2.372899 J1.699123
G03 X64.180449 Y40.731266 Z-1.000000 I-7.198151 J2.228720
G01 X64.547008 Y40.731266 Z-1.000000
G01 X64.547008 Y33.882416 Z-1.000000
G01 X64.180449 Y33.882416 Z-1.000000
G03 X63.978573 Y34.975303 Z-1.000000 I-6.953070 J-0.719271
G03 X63.688491 Y35.715206 Z-1.000000 I-3.452259 J-0.926657
G03 X63.248318 Y36.354033 Z-1.000000 I-2.683795 J-1.378165
G03 X62.829974 Y36.670187 Z-1.000000 I-1.025035 J-0.921495
G03 X62.318823 Y36.841100 Z-1.000000 I-0.825714 J-1.619660
G03 X61.402324 Y36.920992 Z-1.000000 I-0.916498 J-5.216948
G01 X61.402324 Y33.236116 Z-1.000000
G03 X61.437572 Y32.161886 Z-1.000000 I16.387228 J0.000000
G03 X61.489142 Y31.914579 Z-1.000000 I0.903376 J0.059347
G03 X61.619602 Y31.702047 Z-1.000000 I0.684209 J0.273687
G03 X61.836408 Y31.519081 Z-1.000000 I0.716626 J0.629232
G03 X62.101768 Y31.416177 Z-1.000000 I0.412702 J0.670646
G03 X62.646693 Y31.364742 Z-1.000000 I0.544925 J2.860878
G01 X63.428042 Y31.364742 Z-1.000000
G03 X65.176268 Y31.612685 Z-1.000000 I-0.000000 J6.287269
G03 X66.360506 Y32.213613 Z-1.000000 I-0.988867 J3.416086
G03 X67.257252 Y33.206138 Z-1.000000 I-2.234878 J2.920578
G03 X67.952141 Y34.798811 Z-1.000000 I-5.284799 J3.253704
G01 X68.309053 Y34.798811 Z-1.000000
G01 X67.720631 Y30.641271 Z-1.000000
G01 X56.415204 Y30.641271 Z-1.000000
G01 X56.415204 Y30.998184 Z-1.000000
G01 X56.849287 Y30.998184 Z-1.000000
G03 X57.402095 Y31.058554 Z-1.000000 I0.000000 J2.561182
G03 X57.765682 Y31.200754 Z-1.000000 I-0.272463 J1.232578
G03 X57.975842 Y31.372449 Z-1.000000 I-0.338768 J0.629134
G03 X58.151534 Y31.663776 Z-1.000000 I-0.862673 J0.718893
G03 X58.215178 Y31.904554 Z-1.000000 I-0.663923 J0.304294
G03 X58.257641 Y32.879206 Z-1.000000 I-11.164393 J0.974652
G01 X58.257641 Y41.483676 Z-1.000000
G03 X58.238067 Y42.368834 Z-1.000000 I-20.023940 J-0.000000
G03 X58.209409 Y42.573703 Z-1.000000 I-1.092040 J-0.048321
G03 X58.066270 Y42.878144 Z-1.000000 I-1.007627 J-0.287887
G03 X57.852499 Y43.094603 Z-1.000000 I-0.706977 J-0.484405
G03 X57.459421 Y43.284002 Z-1.000000 I-0.699747 J-0.949659
G03 X56.849287 Y43.364699 Z-1.000000 I-0.610134 J-2.266218
G01 X56.415204 Y43.364699 Z-1.000000
G01 X56.415204 Y43.721608 Z-1.000000
G01 X67.363719 Y43.721608 Z-1.000000
G01 X67.363719 Y39.853456 Z-1.000000
G01 X66.997160 Y39.853456 Z-1.000000
G03 X66.601249 Y41.216309 Z-1.000000 I-7.926537 J-1.563738
G03 X66.206167 Y41.888817 Z-1.000000 I-2.274606 J-0.883969
G03 X65.632252 Y42.399502 Z-1.000000 I-1.856111 J-1.508095
G03 X64.778518 Y42.795566 Z-1.000000 I-1.924304 J-3.029759
G03 X64.228432 Y42.906075 Z-1.000000 I-0.763034 J-2.373859
G03 X62.752803 Y42.969201 Z-1.000000 I-1.475629 J-17.215499
G01 X61.402324 Y42.969201 Z-1.000000
G01 X61.402324 Y42.969201 Z-1.000000
G00 Z3.000000

(End cutting path id: path4614)


(Start cutting path id: path4612)
(Change tool to Cylindrical cutter)

G00 Z3.000000
G00 X55.768904 Y43.721608

G01 Z-1.000000 F100.0(Penetrate)
G01 X55.768904 Y43.364699 Z-1.000000 F100.000000
G03 X55.122231 Y43.128619 Z-1.000000 I0.292855 J-1.805918
G03 X54.495599 Y42.602642 Z-1.000000 I1.326901 J-2.217093
G03 X54.146362 Y42.085264 Z-1.000000 I2.282279 J-1.917123
G03 X53.289813 Y40.335768 Z-1.000000 I25.625895 J-13.630818
G01 X48.785007 Y30.342237 Z-1.000000
G01 X48.466680 Y30.342237 Z-1.000000
G01 X43.981167 Y40.740912 Z-1.000000
G03 X43.125628 Y42.593786 Z-1.000000 I-36.295964 J-15.635216
G03 X42.891137 Y42.949908 Z-1.000000 I-1.546993 J-0.763364
G03 X42.570432 Y43.184721 Z-1.000000 I-0.620388 J-0.510906
G03 X41.858986 Y43.364699 Z-1.000000 I-1.021545 J-2.541980
G01 X41.858986 Y43.721608 Z-1.000000
G01 X48.129060 Y43.721608 Z-1.000000
G01 X48.129060 Y43.364699 Z-1.000000
G01 X47.916843 Y43.364699 Z-1.000000
G03 X47.091283 Y43.289647 Z-1.000000 I0.000000 J-4.578064
G03 X46.759292 Y43.152479 Z-1.000000 I0.155016 J-0.845536
G03 X46.598063 Y42.974939 Z-1.000000 I0.259066 J-0.397243
G03 X46.537426 Y42.728045 Z-1.000000 I0.472313 J-0.246894
G03 X46.553213 Y42.556875 Z-1.000000 I0.935820 J-0.000000
G03 X46.614597 Y42.313254 Z-1.000000 I1.965298 J0.365639
G03 X46.699661 Y42.084751 Z-1.000000 I3.341569 J1.113870
G03 X47.135494 Y41.049593 Z-1.000000 I69.101804 J28.484659
G01 X49.923266 Y34.538362 Z-1.000000
G01 X52.508466 Y40.335768 Z-1.000000
G03 X52.954876 Y41.393311 Z-1.000000 I-34.144137 J15.035888
G03 X53.077596 Y41.744125 Z-1.000000 I-3.626075 J1.465329
G03 X53.162245 Y42.104160 Z-1.000000 I-3.054856 J0.908208
G03 X53.183706 Y42.351840 Z-1.000000 I-1.418517 J0.247680
G03 X53.142867 Y42.628420 Z-1.000000 I-0.957000 J-0.000000
G03 X53.029364 Y42.863091 Z-1.000000 I-0.796481 J-0.240450
G03 X52.847928 Y43.050484 Z-1.000000 I-0.665986 J-0.463286
G03 X52.575991 Y43.200711 Z-1.000000 I-0.687406 J-0.923084
G03 X52.151660 Y43.314620 Z-1.000000 I-0.708594 J-1.792314
G03 X51.476315 Y43.364699 Z-1.000000 I-0.675346 J-4.528753
G01 X51.476315 Y43.721608 Z-1.000000
G01 X55.768904 Y43.721608 Z-1.000000
G01 X55.768904 Y43.721608 Z-1.000000
G00 Z3.000000

(End cutting path id: path4612)


(Start cutting path id: path4610)
(Change tool to Cylindrical cutter)

G00 Z3.000000
G00 X41.260917 Y30.998184

G01 Z-1.000000 F100.0(Penetrate)
G01 X41.260917 Y30.641271 Z-1.000000 F100.000000
G01 X34.421716 Y30.641271 Z-1.000000
G01 X34.421716 Y30.998184 Z-1.000000
G01 X34.855796 Y30.998184 Z-1.000000
G03 X35.408605 Y31.058554 Z-1.000000 I0.000000 J2.561182
G03 X35.772192 Y31.200754 Z-1.000000 I-0.272463 J1.232578
G03 X35.982352 Y31.372449 Z-1.000000 I-0.338768 J0.629134
G03 X36.158043 Y31.663776 Z-1.000000 I-0.862673 J0.718893
G03 X36.221689 Y31.904554 Z-1.000000 I-0.663908 J0.304295
G03 X36.264153 Y32.879206 Z-1.000000 I-11.164091 J0.974652
G01 X36.264153 Y41.483676 Z-1.000000
G03 X36.222145 Y42.478365 Z-1.000000 I-11.797317 J0.000000
G03 X36.158043 Y42.737691 Z-1.000000 I-0.846319 J-0.071612
G03 X36.012748 Y42.953374 Z-1.000000 I-0.625696 J-0.264721
G03 X35.723960 Y43.171771 Z-1.000000 I-0.931219 J-0.931226
G03 X35.389272 Y43.306137 Z-1.000000 I-0.575601 J-0.949733
G03 X34.855796 Y43.364699 Z-1.000000 I-0.533476 J-2.400617
G01 X34.421716 Y43.364699 Z-1.000000
G01 X34.421716 Y43.721608 Z-1.000000
G01 X41.260917 Y43.721608 Z-1.000000
G01 X41.260917 Y43.364699 Z-1.000000
G01 X40.826837 Y43.364699 Z-1.000000
G03 X40.274029 Y43.304327 Z-1.000000 I-0.000000 J-2.561146
G03 X39.910442 Y43.162125 Z-1.000000 I0.272465 J-1.232569
G03 X39.698521 Y42.991134 Z-1.000000 I0.350959 J-0.651787
G03 X39.514944 Y42.699106 Z-1.000000 I0.903213 J-0.771498
G03 X39.451298 Y42.458328 Z-1.000000 I0.663908 J-0.304295
G03 X39.408834 Y41.483676 Z-1.000000 I11.164091 J-0.974652
G01 X39.408834 Y32.879206 Z-1.000000
G03 X39.450842 Y31.884514 Z-1.000000 I11.797349 J-0.000000
G03 X39.514944 Y31.625191 Z-1.000000 I0.846300 J0.071611
G03 X39.666033 Y31.405953 Z-1.000000 I0.710328 J0.327844
G03 X39.949027 Y31.181462 Z-1.000000 I1.029306 J1.006929
G03 X40.291404 Y31.053484 Z-1.000000 I0.589260 J1.054473
G03 X40.826837 Y30.998184 Z-1.000000 I0.535433 J2.564459
G01 X41.260917 Y30.998184 Z-1.000000
G01 X41.260917 Y30.998184 Z-1.000000
G00 Z3.000000

(End cutting path id: path4610)


(Start cutting path id: path4608)
(Change tool to Cylindrical cutter)

G00 Z3.000000
G00 X24.669338 Y43.721608

G01 Z-1.000000 F100.0(Penetrate)
G01 X31.122691 Y35.609099 Z-1.000000 F100.000000
G01 X31.122691 Y41.232874 Z-1.000000
G03 X31.003685 Y42.367407 Z-1.000000 I-5.467508 J-0.000000
G03 X30.785071 Y42.824506 Z-1.000000 I-1.055172 J-0.223825
G03 X30.239171 Y43.203694 Z-1.000000 I-0.951762 J-0.787659
G03 X29.232022 Y43.364699 Z-1.000000 I-0.955670 J-2.747540
G01 X29.232022 Y43.721608 Z-1.000000
G01 X33.553550 Y43.721608 Z-1.000000
G01 X33.553550 Y43.364699 Z-1.000000
G03 X32.740275 Y43.211578 Z-1.000000 I0.892124 J-6.974717
G03 X32.434584 Y43.084957 Z-1.000000 I0.272619 J-1.090478
G03 X32.199052 Y42.882098 Z-1.000000 I0.437156 J-0.745729
G03 X31.990854 Y42.535118 Z-1.000000 I1.139922 J-0.919936
G03 X31.890571 Y42.148258 Z-1.000000 I1.366794 J-0.560734
G03 X31.836515 Y41.232874 Z-1.000000 I7.723614 J-0.915384
G01 X31.836515 Y30.342237 Z-1.000000
G01 X31.508542 Y30.342237 Z-1.000000
G01 X22.662915 Y41.232874 Z-1.000000
G01 X22.662915 Y32.917789 Z-1.000000
G03 X22.833497 Y31.872882 Z-1.000000 I3.285585 J0.000000
G03 X23.174167 Y31.393679 Z-1.000000 I0.960661 J0.322247
G03 X23.729540 Y31.100599 Z-1.000000 I1.164160 J1.533292
G03 X24.360658 Y30.998184 Z-1.000000 I0.631118 J1.893363
G01 X24.669338 Y30.998184 Z-1.000000
G01 X24.669338 Y30.641271 Z-1.000000
G01 X20.029484 Y30.641271 Z-1.000000
G01 X20.029484 Y30.998184 Z-1.000000
G03 X21.049270 Y31.150056 Z-1.000000 I-0.033262 J3.723089
G03 X21.534302 Y31.441910 Z-1.000000 I-0.317426 J1.076494
G03 X21.819889 Y31.932594 Z-1.000000 I-0.829933 J0.811487
G03 X21.958737 Y32.917789 Z-1.000000 I-3.425788 J0.985194
G01 X21.958737 Y42.149269 Z-1.000000
G01 X21.678996 Y42.496532 Z-1.000000
G03 X21.232914 Y42.979286 Z-1.000000 I-3.502916 J-2.789348
G03 X20.945879 Y43.181418 Z-1.000000 I-0.872010 J-0.933418
G03 X20.615031 Y43.297168 Z-1.000000 I-0.578652 J-1.123255
G03 X20.029484 Y43.364699 Z-1.000000 I-0.700749 J-3.503715
G01 X20.029484 Y43.721608 Z-1.000000
G01 X24.669338 Y43.721608 Z-1.000000
G01 X24.669338 Y43.721608 Z-1.000000
G00 Z3.000000

(End cutting path id: path4608)


(Start cutting path id: path4606)
(Change tool to Cylindrical cutter)

G00 Z3.000000
G00 X5.936287 Y43.721608

G01 Z-1.000000 F100.0(Penetrate)
G01 X12.688674 Y43.721608 Z-1.000000 F100.000000
G01 X12.688674 Y43.364699 Z-1.000000
G01 X12.351055 Y43.364699 Z-1.000000
G03 X11.604261 Y43.306812 Z-1.000000 I-0.000000 J-4.846108
G03 X11.299612 Y43.200711 Z-1.000000 I0.138522 J-0.888162
G03 X11.057329 Y43.011891 Z-1.000000 I0.471975 J-0.855463
G03 X10.894469 Y42.766630 Z-1.000000 I0.656137 J-0.612397
G03 X10.824560 Y42.477775 Z-1.000000 I0.890069 J-0.368302
G03 X10.778713 Y41.367920 Z-1.000000 I13.410739 J-1.109855
G01 X10.778713 Y34.962799 Z-1.000000
G03 X10.875572 Y33.228289 Z-1.000000 I15.578969 J-0.000000
G03 X11.039163 Y32.638047 Z-1.000000 I1.924538 J0.215612
G03 X11.381293 Y32.133357 Z-1.000000 I1.811438 J0.859666
G03 X11.916973 Y31.692713 Z-1.000000 I1.901501 J1.765679
G03 X12.555466 Y31.424703 Z-1.000000 I1.166382 J1.884168
G03 X13.450730 Y31.316511 Z-1.000000 I0.895264 J3.649943
G03 X14.473448 Y31.448278 Z-1.000000 I0.000000 J4.034806
G03 X15.254581 Y31.789176 Z-1.000000 I-0.698648 J2.666275
G03 X15.904921 Y32.358565 Z-1.000000 I-1.570268 J2.449610
G03 X16.373548 Y33.110716 Z-1.000000 I-2.334135 J1.976347
G03 X16.618017 Y33.978117 Z-1.000000 I-2.812797 J1.260910
G03 X16.749753 Y36.033533 Z-1.000000 I-15.968997 J2.055417
G01 X16.749753 Y41.367920 Z-1.000000
G03 X16.686996 Y42.231256 Z-1.000000 I-5.969795 J-0.000000
G03 X16.566474 Y42.621935 Z-1.000000 I-1.317777 J-0.192598
G03 X16.341707 Y42.957637 Z-1.000000 I-1.333032 J-0.649425
G03 X16.103453 Y43.142832 Z-1.000000 I-0.618333 J-0.549630
G03 X15.652628 Y43.295154 Z-1.000000 I-0.740953 J-1.449678
G03 X14.878377 Y43.364699 Z-1.000000 I-0.774252 J-4.275177
G01 X14.878377 Y43.721608 Z-1.000000
G01 X19.402476 Y43.721608 Z-1.000000
G01 X19.402476 Y43.364699 Z-1.000000
G01 X19.132381 Y43.364699 Z-1.000000
G03 X18.600264 Y43.301201 Z-1.000000 I-0.000000 J-2.261354
G03 X18.215985 Y43.142832 Z-1.000000 I0.320089 J-1.322095
G03 X17.908274 Y42.872375 Z-1.000000 I0.603146 J-0.996505
G03 X17.685441 Y42.477242 Z-1.000000 I1.116824 J-0.890225
G03 X17.604658 Y42.159845 Z-1.000000 I1.113650 J-0.452420
G03 X17.560039 Y41.367920 Z-1.000000 I7.005497 J-0.791925
G01 X17.560039 Y36.400092 Z-1.000000
G02 X17.454073 Y34.110282 Z-1.000000 I-24.792978 J-0.000000
G02 X17.251359 Y33.072130 Z-1.000000 I-5.256696 J0.487578
G02 X16.785800 Y32.166640 Z-1.000000 I-2.582022 J0.755120
G02 X15.775480 Y31.191108 Z-1.000000 I-4.026918 J3.159582
G02 X14.515075 Y30.588918 Z-1.000000 I-2.243174 J3.074914
G02 X12.563273 Y30.332591 Z-1.000000 I-1.951802 J7.302815
G02 X10.898602 Y30.475355 Z-1.000000 I0.000000 J9.776637
G02 X9.939488 Y30.785964 Z-1.000000 I0.606099 J3.507650
G02 X8.809380 Y31.542425 Z-1.000000 I2.210731 J4.525090
G02 X8.154929 Y32.367952 Z-1.000000 I2.004817 J2.261531
G02 X7.792072 Y33.372524 Z-1.000000 I3.175809 J1.714936
G02 X7.634030 Y34.962799 Z-1.000000 I7.921928 J1.590275
G01 X7.634030 Y41.367920 Z-1.000000
G03 X7.584032 Y42.485492 Z-1.000000 I-12.515233 J0.000000
G03 X7.508629 Y42.766630 Z-1.000000 I-0.843900 J-0.075660
G03 X7.343443 Y43.009164 Z-1.000000 I-0.762525 J-0.341822
G03 X7.074547 Y43.210357 Z-1.000000 I-0.782382 J-0.765377
G03 X6.751314 Y43.314452 Z-1.000000 I-0.452958 J-0.852619
G03 X5.936287 Y43.364699 Z-1.000000 I-0.750115 J-5.532051
G01 X5.936287 Y43.721608 Z-1.000000
G01 X5.936287 Y43.721608 Z-1.000000
G00 Z3.000000

(End cutting path id: path4606)


(Start cutting path id: path4558)
(Change tool to Cylindrical cutter)

G00 Z3.000000
G00 X73.155638 Y53.555263

G01 Z-1.000000 F100.0(Penetrate)
G02 X69.924876 Y57.899404 Z-1.000000 I10.517928 J11.195682 F100.000000
G02 X68.480187 Y62.937312 Z-1.000000 I12.884607 J6.420933
G03 X68.120404 Y65.522148 Z-1.000000 I-30.873352 J-2.979805
G03 X67.988807 Y65.631916 Z-1.000000 I-0.131597 J-0.023999
G03 X67.767513 Y65.586514 Z-1.000000 I0.000000 J-0.561996
G03 X64.853733 Y64.288931 Z-1.000000 I44.109043 J-102.969139
G02 X61.889102 Y63.164165 Z-1.000000 I-9.436592 J20.403308
G02 X59.467875 Y62.669774 Z-1.000000 I-3.931198 J13.076583
G01 X56.985772 Y62.393597 Z-1.000000
G01 X56.941867 Y63.901530 Z-1.000000
G02 X57.911851 Y71.026379 Z-1.000000 I21.954967 J0.639481
G02 X60.751960 Y76.230061 Z-1.000000 I14.264109 J-4.408295
G02 X64.522516 Y79.568527 Z-1.000000 I13.187521 J-11.095830
G02 X69.062044 Y81.651572 Z-1.000000 I9.262434 J-14.197431
G03 X71.045147 Y82.370002 Z-1.000000 I-4.508409 J15.540920
G03 X71.246999 Y82.674713 Z-1.000000 I-0.135239 J0.308801
G03 X71.054775 Y82.990584 Z-1.000000 I-0.348686 J0.004231
G03 X69.088404 Y83.825776 Z-1.000000 I-7.535754 J-15.009732
G03 X63.076115 Y85.005266 Z-1.000000 I-7.064944 J-20.099430
G03 X62.195123 Y84.166779 Z-1.000000 I-0.041479 J-0.838487
G02 X62.077039 Y83.599928 Z-1.000000 I-1.419594 J-0.000000
G02 X60.761742 Y80.875662 Z-1.000000 I-35.529953 J15.474484
G02 X56.249130 Y75.580845 Z-1.000000 I-14.266210 J7.588271
G02 X49.458666 Y72.318269 Z-1.000000 I-11.437549 J15.107343
G02 X47.465531 Y72.111964 Z-1.000000 I-1.704801 J6.739159
G02 X46.702342 Y72.432699 Z-1.000000 I0.049214 J1.185473
G02 X46.363012 Y73.166822 Z-1.000000 I0.739730 J0.787407
G02 X46.574355 Y75.024673 Z-1.000000 I5.767880 J0.284812
G02 X50.863000 Y82.073304 Z-1.000000 I14.842342 J-4.201625
G02 X59.501592 Y87.151536 Z-1.000000 I15.567110 J-16.594563
G03 X59.972464 Y87.666223 Z-1.000000 I-0.213598 J0.668151
G03 X60.037681 Y89.542568 Z-1.000000 I-4.958021 J1.111636
G03 X59.568941 Y91.615993 Z-1.000000 I-14.758485 J-2.246757
G03 X58.745177 Y93.817715 Z-1.000000 I-17.474199 J-5.282931
G01 X57.774905 Y95.976227 Z-1.000000
G01 X56.833282 Y93.595259 Z-1.000000
G02 X53.433241 Y87.948753 Z-1.000000 I-18.613223 J7.361024
G02 X48.698139 Y84.080676 Z-1.000000 I-13.090921 J11.192960
G02 X40.738649 Y81.296339 Z-1.000000 I-12.089436 J21.790730
G02 X36.665953 Y82.058616 Z-1.000000 I-0.997139 J5.933432
G02 X35.991744 Y83.629070 Z-1.000000 I0.742724 J1.248806
G02 X38.445392 Y89.897459 Z-1.000000 I21.981633 J-4.989902
G01 X39.803829 Y92.253713 Z-1.000000
G01 X36.990731 Y92.560446 Z-1.000000
G02 X30.949005 Y94.198754 Z-1.000000 I2.180946 J20.002305
G02 X26.303354 Y97.345817 Z-1.000000 I6.606947 J14.755537
G01 X24.746032 Y98.855402 Z-1.000000
G01 X26.929337 Y100.746073 Z-1.000000
G02 X31.623733 Y103.680590 Z-1.000000 I11.736586 J-13.553104
G02 X37.060519 Y105.073302 Z-1.000000 I7.237390 J-16.944633
G01 X39.788674 Y105.341190 Z-1.000000
G01 X38.198324 Y108.288236 Z-1.000000
G02 X36.895526 Y111.315630 Z-1.000000 I16.412278 J8.856819
G02 X36.496526 Y113.459837 Z-1.000000 I7.757739 J2.552806
G01 X36.385091 Y115.684392 Z-1.000000
G01 X40.235048 Y115.640190 Z-1.000000
G02 X44.009196 Y115.245258 Z-1.000000 I-0.235112 J-20.478002
G02 X47.103287 Y114.269059 Z-1.000000 I-2.930738 J-14.680564
G02 X52.582981 Y110.327906 Z-1.000000 I-6.536498 J-14.868205
G02 X57.346898 Y103.004430 Z-1.000000 I-20.131259 J-18.306575
G03 X57.848614 Y102.824350 Z-1.000000 I0.336452 J0.148432
G03 X58.673506 Y103.671800 Z-1.000000 I-0.813457 J1.616995
G03 X59.319846 Y105.502216 Z-1.000000 I-8.828401 J4.146728
G03 X59.721223 Y107.957415 Z-1.000000 I-15.562071 J3.804497
G01 X59.933033 Y110.463391 Z-1.000000
G01 X57.630622 Y111.184711 Z-1.000000
G02 X52.853698 Y113.584567 Z-1.000000 I4.955970 J15.819053
G02 X49.067207 Y117.395728 Z-1.000000 I9.829635 J13.552580
G02 X46.226442 Y122.771591 Z-1.000000 I18.386549 J13.154499
G02 X46.267782 Y125.035058 Z-1.000000 I2.942772 J1.078363
G02 X49.173328 Y126.293437 Z-1.000000 I2.096081 J-0.856181
G02 X57.865823 Y120.595273 Z-1.000000 I-8.722126 J-22.784762
G02 X61.469084 Y115.923358 Z-1.000000 I-17.749240 J-17.414761
G02 X62.190498 Y113.348608 Z-1.000000 I-4.385516 J-2.617209
G03 X62.992703 Y112.597318 Z-1.000000 I0.758789 J0.006281
G03 X68.570684 Y113.714261 Z-1.000000 I-1.163113 J20.295165
G03 X70.684570 Y114.974233 Z-1.000000 I-2.058936 J5.857571
G03 X70.496250 Y115.461933 Z-1.000000 I-0.188321 J0.207491
G02 X67.565684 Y116.150654 Z-1.000000 I0.000000 J6.579257
G02 X62.634202 Y119.373344 Z-1.000000 I11.222517 J22.557640
G02 X57.447626 Y126.436766 Z-1.000000 I11.749963 J14.063767
G02 X56.745576 Y133.620255 Z-1.000000 I11.489501 J4.748932
G01 X57.051951 Y135.154593 Z-1.000000
G01 X59.500974 Y134.882101 Z-1.000000
G02 X61.889582 Y134.393032 Z-1.000000 I-1.481014 J-13.310743
G02 X64.853733 Y133.266625 Z-1.000000 I-6.545310 J-21.687348
G03 X67.767735 Y131.970088 Z-1.000000 I45.965268 J99.385318
G03 X67.994519 Y131.923636 Z-1.000000 I0.226784 J0.530368
G03 X68.122750 Y132.034765 Z-1.000000 I0.000000 J0.129547
G03 X68.272948 Y133.862238 Z-1.000000 I-14.972775 J2.150508
G02 X69.248493 Y138.243998 Z-1.000000 I11.424927 J-0.244143
G02 X72.435972 Y143.266012 Z-1.000000 I18.346177 J-8.121785
G02 X74.600376 Y145.627902 Z-1.000000 I44.075072 J-38.217136
G02 X74.808007 Y145.715876 Z-1.000000 I0.207631 J-0.201034
G02 X75.021953 Y145.634520 Z-1.000000 I-0.000000 J-0.321992
G02 X76.934780 Y143.825007 Z-1.000000 I-28.315543 J-31.847979
G02 X80.136555 Y139.345408 Z-1.000000 I-12.131077 J-12.054666
G02 X81.483325 Y134.618243 Z-1.000000 I-12.218654 J-6.036524
G03 X81.843090 Y132.033424 Z-1.000000 I30.880398 J2.980608
G03 X81.974707 Y131.923636 Z-1.000000 I0.131617 J0.024000
G03 X82.196002 Y131.969040 Z-1.000000 I-0.000000 J0.561993
G03 X85.109759 Y133.266625 Z-1.000000 I-44.110268 J102.970871
G02 X88.074398 Y134.391387 Z-1.000000 I9.437048 J-20.404624
G02 X90.495640 Y134.885784 Z-1.000000 I3.931214 J-13.076526
G01 X92.977742 Y135.161959 Z-1.000000
G01 X92.977742 Y131.767929 Z-1.000000
G02 X89.851690 Y122.303467 Z-1.000000 I-15.890371 J-0.000000
G02 X81.375067 Y116.119883 Z-1.000000 I-14.144432 J10.487785
G03 X79.043180 Y115.249596 Z-1.000000 I13.587115 J-39.965179
G03 X78.611790 Y114.994708 Z-1.000000 I0.645146 J-1.584391
G03 X78.809223 Y113.979551 Z-1.000000 I0.368517 J-0.455107
G03 X85.047608 Y113.028703 Z-1.000000 I6.369960 J20.852433
G01 X87.329911 Y113.014931 Z-1.000000
G01 X88.410630 Y115.497321 Z-1.000000
G02 X91.133479 Y119.808700 Z-1.000000 I15.369719 J-6.691239
G02 X94.991000 Y123.061051 Z-1.000000 I12.382228 J-10.772384
G02 X100.904549 Y125.714632 Z-1.000000 I13.570380 J-22.325812
G02 X102.900421 Y125.485487 Z-1.000000 I0.735579 J-2.399729
G02 X103.877897 Y122.631462 Z-1.000000 I-1.155520 J-1.990154
G02 X98.660696 Y115.017029 Z-1.000000 I-19.968496 J8.087309
G02 X93.594864 Y111.409205 Z-1.000000 I-15.780386 J16.797177
G02 X90.188421 Y110.568273 Z-1.000000 I-3.410339 J6.494716
G03 X89.320694 Y109.581681 Z-1.000000 I0.000176 J-0.875043
G03 X91.084875 Y103.593972 Z-1.000000 I19.588305 J2.517626
G01 X92.109237 Y101.447246 Z-1.000000
G01 X93.135462 Y103.894256 Z-1.000000
G02 X95.506380 Y108.176199 Z-1.000000 I20.825716 J-8.733868
G02 X98.401954 Y111.361478 Z-1.000000 I14.274785 J-10.067729
G02 X105.422113 Y115.262568 Z-1.000000 I13.021487 J-15.165593
G02 X112.203682 Y115.705638 Z-1.000000 I4.297248 J-13.652687
G01 X113.913554 Y115.404286 Z-1.000000
G01 X113.613410 Y113.319787 Z-1.000000
G02 X113.100090 Y111.305011 Z-1.000000 I-9.684657 J1.394656
G02 X111.740668 Y108.282084 Z-1.000000 I-23.309969 J8.665449
G01 X110.168098 Y105.328882 Z-1.000000
G01 X112.917338 Y105.036672 Z-1.000000
G02 X118.948423 Y103.404703 Z-1.000000 I-2.093601 J-19.697270
G02 X123.668875 Y100.201283 Z-1.000000 I-6.773414 J-15.060738
G01 X125.234927 Y98.683246 Z-1.000000
G01 X122.817213 Y96.641103 Z-1.000000
G02 X118.216400 Y93.849078 Z-1.000000 I-11.179945 J13.236058
G02 X112.626479 Y92.458053 Z-1.000000 I-7.537617 J18.363145
G01 X110.253781 Y92.224116 Z-1.000000
G01 X111.800161 Y89.272196 Z-1.000000
G02 X113.068461 Y86.244109 Z-1.000000 I-16.945111 J-8.877033
G02 X113.462506 Y84.095721 Z-1.000000 I-8.062262 J-2.589067
G01 X113.578415 Y81.871169 Z-1.000000
G01 X109.728480 Y81.915348 Z-1.000000
G02 X105.955718 Y82.316762 Z-1.000000 I0.230694 J20.098468
G02 X102.755133 Y83.332680 Z-1.000000 I3.136106 J15.429677
G02 X97.230167 Y87.323806 Z-1.000000 I6.536514 J14.868284
G02 X92.640794 Y94.548273 Z-1.000000 I19.020226 J17.152620
G01 X92.174250 Y95.657728 Z-1.000000
G01 X91.436179 Y94.316848 Z-1.000000
G03 X89.459825 Y88.953608 Z-1.000000 I16.740280 J-9.214558
G03 X90.016666 Y87.418216 Z-1.000000 I1.528166 J-0.314450
G03 X90.404297 Y87.191543 Z-1.000000 I0.981667 J1.233956
G03 X92.651676 Y86.346548 Z-1.000000 I16.985951 J41.765364
G02 X99.376546 Y82.116271 Z-1.000000 I-5.732562 J-16.573454
G02 X103.158260 Y75.742719 Z-1.000000 I-10.839956 J-10.740536
G02 X103.575102 Y73.184209 Z-1.000000 I-9.674587 J-2.889434
G02 X103.266622 Y72.437810 Z-1.000000 I-0.979513 J-0.032121
G02 X100.346075 Y71.851378 Z-1.000000 I-1.932105 J2.056597
G02 X92.706532 Y76.387078 Z-1.000000 I8.792808 J23.511391
G02 X88.667079 Y81.073982 Z-1.000000 I13.943519 J16.101527
G02 X87.768385 Y84.166785 Z-1.000000 I4.872503 J3.092803
G03 X87.200064 Y84.747779 Z-1.000000 I-0.581136 J0.000000
G03 X83.536356 Y84.498414 Z-1.000000 I-0.450407 J-20.421120
G03 X79.788114 Y83.597160 Z-1.000000 I3.891580 J-24.429698
G03 X78.926964 Y82.758360 Z-1.000000 I0.419591 J-1.292218
G03 X79.042904 Y82.451532 Z-1.000000 I0.239531 J-0.084808
G03 X80.782160 Y81.725619 Z-1.000000 I4.080596 J7.330383
G02 X89.629984 Y75.667994 Z-1.000000 I-4.792363 J-16.490189
G02 X92.977742 Y65.780371 Z-1.000000 I-12.927697 J-9.887623
G01 X92.977742 Y62.402907 Z-1.000000
G01 X90.637400 Y62.694576 Z-1.000000
G02 X86.623970 Y63.642390 Z-1.000000 I2.367239 J18.994995
G02 X83.421023 Y65.245961 Z-1.000000 I4.813957 J13.615871
G03 X82.410349 Y65.139153 Z-1.000000 I-0.441129 J-0.660976
G03 X81.650790 Y63.426604 Z-1.000000 I1.935345 J-1.883091
G02 X80.557111 Y59.025309 Z-1.000000 I-12.616362 J0.798510
G02 X77.527520 Y54.289543 Z-1.000000 I-17.706444 J7.990331
G02 X75.368824 Y51.915194 Z-1.000000 I-51.519529 J44.671703
G02 X75.192532 Y51.839680 Z-1.000000 I-0.176292 J0.168025
G02 X75.008367 Y51.906903 Z-1.000000 I0.000000 J0.285881
G02 X73.155638 Y53.555269 Z-1.000000 I29.464204 J34.982543
G01 X73.155638 Y53.555263 Z-1.000000
G00 Z3.000000

(End cutting path id: path4558)


(Start cutting path id: path4558)
(Change tool to Cylindrical cutter)

G00 Z3.000000
G00 X52.960341 Y76.331158

G01 Z-1.000000 F100.0(Penetrate)
G03 X54.308881 Y77.236309 Z-1.000000 I-5.504468 J9.657976 F100.000000
G03 X55.878871 Y78.616210 Z-1.000000 I-11.350861 J14.497592
G03 X59.419208 Y83.042241 Z-1.000000 I-16.851246 J17.108092
G03 X59.282288 Y84.088618 Z-1.000000 I-0.706911 J0.439646
G03 X58.255191 Y84.246964 Z-1.000000 I-0.628972 J-0.669508
G03 X53.761265 Y81.433482 Z-1.000000 I10.362488 J-21.547597
G03 X50.182249 Y77.650517 Z-1.000000 I11.381894 J-14.352780
G03 X49.412937 Y75.278746 Z-1.000000 I3.429827 J-2.423157
G03 X49.802705 Y74.984139 Z-1.000000 I0.303453 J-0.003666
G03 X52.960341 Y76.331158 Z-1.000000 I-4.261487 J14.364148
G01 X52.960341 Y76.331158 Z-1.000000
G00 Z3.000000

(End cutting path id: path4558)


(Start cutting path id: path4558)
(Change tool to Cylindrical cutter)

G00 Z3.000000
G00 X100.555008 Y75.212291

G01 Z-1.000000 F100.0(Penetrate)
G03 X99.855081 Y77.493738 Z-1.000000 I-4.068211 J-0.000000 F100.000000
G03 X96.546837 Y81.129887 Z-1.000000 I-14.293293 J-9.681306
G03 X91.772005 Y84.301024 Z-1.000000 I-17.656427 J-21.405230
G03 X90.760274 Y84.162887 Z-1.000000 I-0.408805 J-0.779946
G03 X90.622264 Y83.042937 Z-1.000000 I0.604003 J-0.642909
G03 X94.384803 Y78.525143 Z-1.000000 I20.143115 J12.950054
G03 X99.704131 Y74.703372 Z-1.000000 I17.244375 J18.388827
G03 X100.555008 Y75.212291 Z-1.000000 I0.273243 J0.508920
G01 X100.555008 Y75.212291 Z-1.000000
G00 Z3.000000

(End cutting path id: path4558)


(Start cutting path id: path4558)
(Change tool to Cylindrical cutter)

G00 Z3.000000
G00 X76.964789 Y84.822441

G01 Z-1.000000 F100.0(Penetrate)
G02 X81.071578 Y86.757317 Z-1.000000 I8.485472 J-12.684692 F100.000000
G02 X85.679470 Y87.432550 Z-1.000000 I4.607891 J-15.384852
G03 X86.797594 Y87.929764 Z-1.000000 I0.000000 J1.505814
G03 X87.294811 Y89.223307 Z-1.000000 I-1.434009 J1.293542
G02 X87.983487 Y93.240172 Z-1.000000 I12.058992 J0.000000
G02 X90.105922 Y97.180540 Z-1.000000 I13.712588 J-4.844335
G01 X91.101416 Y98.493954 Z-1.000000
G01 X89.378474 Y101.438723 Z-1.000000
G02 X87.987436 Y104.488828 Z-1.000000 I14.277590 J8.353723
G02 X87.410324 Y107.253248 Z-1.000000 I11.119536 J3.763811
G03 X86.716257 Y109.634144 Z-1.000000 I-6.267708 J-0.535519
G03 X85.908719 Y110.123005 Z-1.000000 I-0.807538 J-0.422545
G02 X81.446681 Y110.765232 Z-1.000000 I0.000000 J15.821709
G02 X76.949794 Y112.756506 Z-1.000000 I5.310580 J18.066150
G01 X74.892414 Y114.011740 Z-1.000000
G01 X72.277972 Y112.532709 Z-1.000000
G02 X69.567376 Y111.329258 Z-1.000000 I-7.539600 J13.327501
G02 X66.166125 Y110.501584 Z-1.000000 I-6.727563 J20.243907
G03 X63.212925 Y109.484437 Z-1.000000 I1.397606 J-8.853587
G03 X62.668704 Y108.559810 Z-1.000000 I0.513354 J-0.924626
G02 X62.052497 Y104.843988 Z-1.000000 I-11.511606 J0.000000
G02 X59.965271 Y100.632896 Z-1.000000 I-16.964652 J5.785711
G03 X59.283995 Y98.847155 Z-1.000000 I3.521611 J-2.366354
G03 X59.559834 Y97.698003 Z-1.000000 I1.606846 J-0.221980
G02 X61.665039 Y93.763039 Z-1.000000 I-15.658947 J-10.908161
G02 X62.542923 Y90.098715 Z-1.000000 I-12.664935 J-4.971534
G01 X62.789153 Y87.547485 Z-1.000000
G01 X65.496076 Y87.281680 Z-1.000000
G02 X70.120980 Y86.276472 Z-1.000000 I-1.995705 J-20.324185
G02 X73.324224 Y84.598963 Z-1.000000 I-3.864312 J-11.276087
G03 X74.913810 Y84.130340 Z-1.000000 I1.440710 J1.956659
G03 X76.964789 Y84.822441 Z-1.000000 I-0.253993 J4.137680
G01 X76.964789 Y84.822441 Z-1.000000
G00 Z3.000000

(End cutting path id: path4558)


(Start cutting path id: path4558)
(Change tool to Cylindrical cutter)

G00 Z3.000000
G00 X71.930878 Y90.297492

G01 Z-1.000000 F100.0(Penetrate)
G02 X68.694609 Y92.029550 Z-1.000000 I3.845637 J11.074835 F100.000000
G02 X66.557568 Y94.370501 Z-1.000000 I5.280949 J6.966871
G02 X65.840050 Y96.204271 Z-1.000000 I4.550431 J2.837754
G02 X65.617850 Y99.301262 Z-1.000000 I13.097582 J2.496181
G02 X66.168989 Y102.332499 Z-1.000000 I11.452728 J-0.516610
G02 X67.200394 Y104.163968 Z-1.000000 I5.073974 J-1.651290
G02 X78.196926 Y107.342685 Z-1.000000 I7.933389 J-6.834765
G02 X84.453321 Y98.886268 Z-1.000000 I-2.586834 J-8.456417
G02 X80.538080 Y91.453265 Z-1.000000 I-9.013321 J-0.000000
G02 X71.930878 Y90.297492 Z-1.000000 I-5.447761 J7.942839
G01 X71.930878 Y90.297492 Z-1.000000
G00 Z3.000000

(End cutting path id: path4558)


(Start cutting path id: path4558)
(Change tool to Cylindrical cutter)

G00 Z3.000000
G00 X97.362795 Y117.661406

G01 Z-1.000000 F100.0(Penetrate)
G03 X100.446093 Y121.886675 Z-1.000000 I-14.244002 J13.631869 F100.000000
G03 X100.033275 Y122.580512 Z-1.000000 I-0.412818 J0.224110
G03 X98.743922 Y122.279868 Z-1.000000 I-0.000000 J-2.915113
G03 X95.262051 Y120.227526 Z-1.000000 I12.015997 J-24.365288
G03 X92.277419 Y117.371278 Z-1.000000 I7.567197 J-10.894851
G03 X90.815209 Y114.390392 Z-1.000000 I6.815795 J-5.192414
G01 X90.487619 Y113.164201 Z-1.000000
G01 X92.849195 Y114.288456 Z-1.000000
G03 X95.059227 Y115.622364 Z-1.000000 I-5.628947 J11.823850
G03 X97.362795 Y117.661406 Z-1.000000 I-11.133402 J14.898465
G01 X97.362795 Y117.661406 Z-1.000000
G00 Z3.000000

(End cutting path id: path4558)


(Start cutting path id: path4558)
(Change tool to Cylindrical cutter)

G00 Z3.000000
G00 X58.808931 Y115.017498

G01 Z-1.000000 F100.0(Penetrate)
G03 X56.583396 Y118.473725 Z-1.000000 I-8.959239 J-3.324388 F100.000000
G03 X52.067655 Y121.712179 Z-1.000000 I-12.305264 J-12.390988
G03 X50.202299 Y121.933846 Z-1.000000 I-1.241985 J-2.492013
G03 X49.821719 Y121.196254 Z-1.000000 I0.121697 J-0.529774
G03 X54.011503 Y115.389443 Z-1.000000 I14.344689 J5.935181
G03 X58.500250 Y113.690746 Z-1.000000 I4.562059 J5.275053
G03 X58.874465 Y113.984692 Z-1.000000 I0.004005 J0.380076
G03 X58.808931 Y115.017498 Z-1.000000 I-1.751014 J0.407376
G01 X58.808931 Y115.017498 Z-1.000000
G00 Z3.000000

(End cutting path id: path4558)


(Footer)
M5
G00 X0.0000 Y0.0000
M2
(Using default footer. To add your own footer create file "footer" in the output dir.)
(end)
%