%
(Header)
(Generated by gcodetools from Inkscape.)
(Using default header. To add your own header create file "header" in the output dir.)
M3
(Header end.)
G21 (All units in mm)

(Start cutting path id: path9118)
(Change tool to Cylindrical cutter)

G00 Z3.000000
G00 X94.377513 Y46.342083

G01 Z-1.000000 F100.0(Penetrate)
G01 X81.379856 Y25.605364 Z-1.000000 F100.000000
G01 X81.379856 Y9.407908 Z-1.000000
G01 X76.468529 Y9.407908 Z-1.000000
G01 X76.468529 Y25.084464 Z-1.000000
G01 X63.421263 Y46.342083 Z-1.000000
G01 X68.853491 Y46.342083 Z-1.000000
G01 X78.948997 Y29.822160 Z-1.000000
G01 X89.143725 Y46.342083 Z-1.000000
G01 X94.377513 Y46.342083 Z-1.000000
G01 X94.377513 Y46.342083 Z-1.000000
G00 Z3.000000

(End cutting path id: path9118)


(Start cutting path id: path9116)
(Change tool to Cylindrical cutter)

G00 Z3.000000
G00 X40.551340 Y9.407908

G01 Z-1.000000 F100.0(Penetrate)
G01 X34.474193 Y9.407908 Z-1.000000 F100.000000
G01 X16.962085 Y42.447746 Z-1.000000
G01 X16.962085 Y9.407908 Z-1.000000
G01 X12.373216 Y9.407908 Z-1.000000
G01 X12.373216 Y46.342083 Z-1.000000
G01 X19.988257 Y46.342083 Z-1.000000
G01 X35.962474 Y16.179582 Z-1.000000
G01 X35.962474 Y46.342083 Z-1.000000
G01 X40.551340 Y46.342083 Z-1.000000
G01 X40.551340 Y9.407908 Z-1.000000
G01 X40.551340 Y9.407908 Z-1.000000
G00 Z3.000000

(End cutting path id: path9116)


(Footer)
M5
G00 X0.0000 Y0.0000
M2
(Using default footer. To add your own footer create file "footer" in the output dir.)
(end)
%