%
(Header)
(Generated by gcodetools from Inkscape.)
(Using default header. To add your own header create file "header" in the output dir.)
M3
(Header end.)
G21 (All units in mm)

(Start cutting path id: path3343)
(Change tool to Cylindrical cutter)

G00 Z2.000000
G00 X123.843513 Y27.032650

G01 Z0.000000 F100.0(Penetrate)
G03 X121.967151 Y26.186294 Z0.000000 I72.443791 J-163.110219 F100.000000
G03 X120.422935 Y25.465956 Z0.000000 I50.928798 J-111.193307
G02 X118.891672 Y24.799832 Z0.000000 I-8.713291 J17.936753
G02 X116.455067 Y23.934078 Z0.000000 I-17.221957 J44.608281
G02 X114.350811 Y23.343582 Z0.000000 I-9.883282 J31.174915
G02 X111.905701 Y22.819984 Z0.000000 I-10.183036 J41.582109
G02 X109.463913 Y22.465195 Z0.000000 I-4.516468 J22.503945
G02 X106.535395 Y22.332570 Z0.000000 I-2.928519 J32.266281
G02 X101.064719 Y22.754732 Z0.000000 I-0.000000 J35.657522
G02 X96.444697 Y23.899261 Z0.000000 I4.116573 J26.513896
G02 X92.217200 Y25.954571 Z0.000000 I7.050120 J19.876507
G02 X88.577370 Y28.877866 Z0.000000 I11.123474 J17.577617
G02 X85.753350 Y32.476886 Z0.000000 I13.966946 J13.866820
G02 X83.446508 Y37.268382 Z0.000000 I22.689555 J13.874831
G02 X82.114708 Y42.476395 Z0.000000 I26.373325 J9.518509
G02 X81.599396 Y49.140437 Z0.000000 I42.832223 J6.664042
G02 X82.087379 Y55.463020 Z0.000000 I41.203494 J-0.000000
G02 X83.378094 Y60.594711 Z0.000000 I28.349968 J-4.402377
G02 X85.620844 Y65.356764 Z0.000000 I24.524631 J-8.641037
G02 X88.508960 Y69.124486 Z0.000000 I18.124096 J-10.902081
G02 X92.048758 Y72.065366 Z0.000000 I14.914891 J-14.351570
G02 X96.342080 Y74.277167 Z0.000000 I12.527556 J-19.044428
G02 X101.048166 Y75.577027 Z0.000000 I8.991428 J-23.384052
G02 X106.569601 Y76.052754 Z0.000000 I5.521435 J-31.803911
G02 X110.643674 Y75.802129 Z0.000000 I0.000000 J-33.238737
G02 X114.744780 Y75.043109 Z0.000000 I-4.253631 J-34.442009
G02 X118.752989 Y73.773967 Z0.000000 I-7.675738 J-31.205480
G02 X123.843513 Y71.491936 Z0.000000 I-20.570702 J-52.705774
G01 X123.843513 Y63.310313 Z0.000000
G01 X123.330424 Y63.310313 Z0.000000
G03 X118.913502 Y66.547535 Z0.000000 I-24.231188 J-28.429578
G03 X114.984218 Y68.532626 Z0.000000 I-12.804702 J-20.464242
G03 X110.764385 Y69.744086 Z0.000000 I-8.339780 J-21.094522
G03 X106.124926 Y70.168950 Z0.000000 I-4.639459 J-25.118693
G03 X102.328733 Y69.821487 Z0.000000 I-0.000000 J-20.911277
G03 X99.146952 Y68.880778 Z0.000000 I2.875829 J-15.578243
G03 X96.291895 Y67.308158 Z0.000000 I5.271899 J-12.948980
G03 X93.639822 Y64.946637 Z0.000000 I9.645939 J-13.502678
G03 X91.623372 Y62.134863 Z0.000000 I11.400214 J-10.304539
G03 X89.945602 Y58.331708 Z0.000000 I19.363710 J-10.813994
G03 X89.009142 Y54.304766 Z0.000000 I22.352918 J-7.320499
G03 X88.645783 Y49.140437 Z0.000000 I36.517968 J-5.164329
G03 X89.055556 Y43.746896 Z0.000000 I35.700554 J0.000000
G03 X90.082423 Y39.740277 Z0.000000 I20.634745 J3.153638
G03 X91.864451 Y35.998073 Z0.000000 I22.431445 J8.386393
G03 X93.845059 Y33.334241 Z0.000000 I13.244230 J7.779102
G03 X96.458570 Y31.079099 Z0.000000 I11.510333 J10.697475
G03 X99.420597 Y29.504546 Z0.000000 I8.401605 J12.231644
G03 X102.693143 Y28.598373 Z0.000000 I6.540818 J17.259149
G03 X106.193339 Y28.286006 Z0.000000 I3.500197 J19.454378
G03 X110.999571 Y28.729406 Z0.000000 I-0.000000 J26.270250
G03 X115.360483 Y29.991960 Z0.000000 I-4.252323 J22.850354
G03 X119.404158 Y32.067731 Z0.000000 I-8.913474 J22.340256
G03 X123.364631 Y35.109827 Z0.000000 I-15.641104 J24.462087
G01 X123.843513 Y35.109827 Z0.000000
G01 X123.843513 Y27.032650 Z0.000000
G01 X123.843513 Y27.032650 Z0.000000
G00 Z2.000000

(End cutting path id: path3343)


(Start cutting path id: path3341)
(Change tool to Cylindrical cutter)

G00 Z2.000000
G00 X71.542900 Y44.092203

G01 Z0.000000 F100.0(Penetrate)
G02 X71.194914 Y38.501923 Z0.000000 I-45.077004 J0.000000 F100.000000
G02 X70.311491 Y34.239442 Z0.000000 I-27.016745 J3.376581
G02 X68.663801 Y30.326101 Z0.000000 I-17.128613 J4.908361
G02 X66.343624 Y27.276358 Z0.000000 I-12.608720 J7.184996
G02 X63.483408 Y24.991183 Z0.000000 I-11.445379 J11.392923
G02 X60.186587 Y23.411847 Z0.000000 I-8.559838 J13.637750
G02 X56.605977 Y22.534966 Z0.000000 I-6.500617 J18.795401
G02 X51.977205 Y22.193308 Z0.000000 I-4.628772 J31.184346
G02 X47.252009 Y22.555809 Z0.000000 I0.000000 J30.977617
G02 X43.630999 Y23.481477 Z0.000000 I2.938894 J19.041448
G02 X40.298345 Y25.116970 Z0.000000 I5.820271 J16.073229
G02 X37.644990 Y27.276358 Z0.000000 I7.772708 J12.260595
G02 X35.294772 Y30.379379 Z0.000000 I11.456620 J11.118742
G02 X33.642916 Y34.169809 Z0.000000 I15.577983 J9.043981
G02 X32.796333 Y38.259274 Z0.000000 I23.845234 J7.068694
G02 X32.445714 Y44.092203 Z0.000000 I48.343238 J5.832929
G01 X32.445714 Y75.112739 Z0.000000
G01 X39.218453 Y75.112739 Z0.000000
G01 X39.218453 Y43.744048 Z0.000000
G03 X39.390733 Y39.550491 Z0.000000 I51.125068 J0.000000
G03 X39.765746 Y37.094306 Z0.000000 I17.856685 J1.469655
G03 X40.548156 Y34.745274 Z0.000000 I13.811548 J3.295502
G03 X41.681270 Y32.672748 Z0.000000 I11.858454 J5.137366
G03 X43.439244 Y30.708516 Z0.000000 I7.692981 J5.116362
G03 X45.751755 Y29.260837 Z0.000000 I6.357625 J7.584787
G03 X48.420111 Y28.437411 Z0.000000 I4.842435 J10.956975
G03 X51.977205 Y28.111927 Z0.000000 I3.557094 J19.274369
G03 X55.570938 Y28.430957 Z0.000000 I0.000000 J20.400465
G03 X58.202652 Y29.226021 Z0.000000 I-2.086673 J11.660127
G03 X60.514940 Y30.674976 Z0.000000 I-4.033132 J9.005686
G03 X62.307343 Y32.672748 Z0.000000 I-6.138899 J7.310786
G03 X63.423070 Y34.750030 Z0.000000 I-9.904285 J6.657955
G03 X64.188661 Y37.198752 Z0.000000 I-13.046492 J5.423018
G03 X64.598213 Y39.794255 Z0.000000 I-19.584384 J4.420342
G03 X64.770160 Y43.569972 Z0.000000 I-41.368824 J3.775718
G01 X64.770160 Y75.112739 Z0.000000
G01 X71.542900 Y75.112739 Z0.000000
G01 X71.542900 Y44.092203 Z0.000000
G01 X71.542900 Y44.092203 Z0.000000
G00 Z2.000000

(End cutting path id: path3341)


(Footer)
M5
G00 X0.0000 Y0.0000
M2
(Using default footer. To add your own footer create file "footer" in the output dir.)
(end)
%