%
(Header)
(Generated by gcodetools from Inkscape.)
(Using default header. To add your own header create file "header" in the output dir.)
M3
(Header end.)
G21 (All units in mm)

(Start cutting path id: path3371)
(Change tool to Cylindrical cutter)

G00 Z5.000000
G00 X58.484908 Y49.846728

G01 Z0.000000 F100.0(Penetrate)
G03 X56.101771 Y49.542793 Z0.000000 I-0.000000 J-9.494974 F100.000000
G03 X53.992399 Y48.682178 Z0.000000 I2.145104 J-8.273018
G03 X52.181931 Y47.305219 Z0.000000 I4.532193 J-7.837778
G03 X50.551690 Y45.304036 Z0.000000 I8.160282 J-8.312299
G03 X49.316922 Y42.920052 Z0.000000 I11.896114 J-7.673273
G03 X48.298280 Y39.710946 Z0.000000 I20.684075 J-8.331811
G03 X47.733603 Y36.375953 Z0.000000 I25.708693 J-6.068265
G03 X47.517032 Y32.201173 Z0.000000 I40.129754 J-4.174780
G03 X47.745709 Y27.799844 Z0.000000 I42.470293 J-0.000000
G03 X48.328242 Y24.416909 Z0.000000 I25.610855 J2.668501
G03 X49.376264 Y21.187764 Z0.000000 I22.002016 J5.356131
G03 X50.582099 Y18.915538 Z0.000000 I12.037200 J4.931885
G03 X52.258365 Y16.926882 Z0.000000 I9.558205 J6.355947
G03 X54.037567 Y15.651542 Z0.000000 I5.585138 J5.912982
G03 X56.101325 Y14.895152 Z0.000000 I4.078062 J7.933102
G03 X58.469705 Y14.624238 Z0.000000 I2.368379 J10.216941
G03 X59.749219 Y14.710381 Z0.000000 I0.000000 J9.545642
G03 X60.828651 Y14.943572 Z0.000000 I-0.946037 J6.994087
G03 X61.894180 Y15.284183 Z0.000000 I-3.552992 J12.951715
G03 X62.826713 Y15.674644 Z0.000000 I-3.823953 J10.441496
G03 X63.886726 Y16.236190 Z0.000000 I-7.416565 J15.281277
G03 X64.569877 Y16.678843 Z0.000000 I-3.873951 J6.727187
G02 X65.249828 Y17.152424 Z0.000000 I28.561284 J-40.282435
G02 X66.071999 Y17.706148 Z0.000000 I38.514821 J-56.299701
G01 X66.071999 Y23.001650 Z0.000000
G01 X65.861818 Y23.001650 Z0.000000
G02 X64.058385 Y20.946715 Z0.000000 I-12.496453 J9.148197
G02 X62.345982 Y19.645929 Z0.000000 I-6.614512 J6.930058
G02 X60.390240 Y18.809776 Z0.000000 I-4.099394 J6.883091
G02 X58.319447 Y18.527583 Z0.000000 I-2.070793 J7.456877
G02 X56.809410 Y18.726871 Z0.000000 I-0.000000 J5.820540
G02 X55.344713 Y19.326595 Z0.000000 I1.631228 J6.072393
G02 X54.098596 Y20.303416 Z0.000000 I3.022025 J5.138392
G02 X52.895880 Y21.837779 Z0.000000 I6.478580 J6.316816
G02 X52.048218 Y23.525886 Z0.000000 I8.883585 J5.517657
G02 X51.243052 Y26.038034 Z0.000000 I18.968304 J7.464621
G02 X50.793912 Y28.639343 Z0.000000 I18.608985 J4.552439
G02 X50.612061 Y32.201173 Z0.000000 I34.791001 J3.561829
G02 X50.772890 Y35.607904 Z0.000000 I36.161649 J0.000000
G02 X51.182681 Y38.227744 Z0.000000 I21.718570 J-2.055212
G02 X51.942087 Y40.783031 Z0.000000 I18.795548 J-4.195366
G02 X52.805547 Y42.564563 Z0.000000 I9.964970 J-3.729736
G02 X54.024478 Y44.170303 Z0.000000 I8.314243 J-5.045891
G02 X55.224418 Y45.144371 Z0.000000 I4.164607 J-3.904188
G02 X56.654477 Y45.767795 Z0.000000 I2.891307 J-4.680406
G02 X58.289485 Y45.988905 Z0.000000 I1.635008 J-5.934519
G02 X60.289045 Y45.718349 Z0.000000 I0.000000 J-7.524199
G02 X62.180965 Y44.916082 Z0.000000 I-2.073350 J-7.521327
G02 X63.847018 Y43.669658 Z0.000000 I-4.853601 J-8.224332
G02 X65.846615 Y41.491739 Z0.000000 I-13.188943 J-14.115969
G01 X66.071999 Y41.491739 Z0.000000
G01 X66.071999 Y46.855862 Z0.000000
G03 X63.797367 Y48.374232 Z0.000000 I-13.555013 J-17.843462
G03 X62.075427 Y49.184280 Z0.000000 I-5.460920 J-9.373213
G03 X60.258629 Y49.684347 Z0.000000 I-3.808307 J-10.285633
G03 X58.484908 Y49.846728 Z0.000000 I-1.773722 J-9.606198
G01 X58.484908 Y49.846728 Z0.000000
G00 Z5.000000

(End cutting path id: path3371)


(Start cutting path id: path3371)
(Change tool to Cylindrical cutter)

G00 Z5.000000
G00 X15.109339 Y49.229802

G01 Z0.000000 F100.0(Penetrate)
G01 X15.109339 Y28.890973 Z0.000000 F100.000000
G03 X15.264411 Y25.048530 Z0.000000 I47.682550 J0.000000
G03 X15.635239 Y22.385402 Z0.000000 I23.243365 J1.879151
G03 X16.388639 Y19.824751 Z0.000000 I15.464731 J3.158904
G03 X17.392711 Y17.865813 Z0.000000 I9.992364 J3.884889
G03 X18.618198 Y16.394190 Z0.000000 I6.783239 J4.402636
G03 X20.022211 Y15.377731 Z0.000000 I4.556765 J4.816267
G03 X21.643623 Y14.765638 Z0.000000 I3.071110 J5.681683
G03 X23.688305 Y14.533197 Z0.000000 I2.044682 J8.876867
G03 X25.693267 Y14.752705 Z0.000000 I0.000000 J9.266284
G03 X27.294030 Y15.332208 Z0.000000 I-1.429031 J6.448066
G03 X28.680527 Y16.311018 Z0.000000 I-2.827235 J5.476215
G03 X29.998212 Y17.865813 Z0.000000 I-6.076534 J6.485615
G03 X30.988342 Y19.784821 Z0.000000 I-8.075164 J5.381394
G03 X31.741374 Y22.430925 Z0.000000 I-14.690201 J5.610756
G03 X32.128242 Y25.207923 Z0.000000 I-25.046346 J4.904692
G03 X32.282032 Y28.890973 Z0.000000 I-44.025033 J3.683050
G01 X32.282032 Y49.229802 Z0.000000
G01 X29.307297 Y49.229802 Z0.000000
G01 X29.307297 Y28.548541 Z0.000000
G02 X29.231513 Y26.066206 Z0.000000 I-40.692371 J-0.000000
G02 X29.051951 Y24.371387 Z0.000000 I-19.114378 J1.168200
G02 X28.707590 Y22.735123 Z0.000000 I-12.907093 J1.861997
G02 X28.225535 Y21.403624 Z0.000000 I-9.009918 J2.508932
G02 X27.389229 Y20.032412 Z0.000000 I-5.837372 J2.619592
G02 X26.422450 Y19.143827 Z0.000000 I-3.345488 J2.669669
G02 X25.235668 Y18.616556 Z0.000000 I-2.258258 J3.483647
G02 X23.688305 Y18.413437 Z0.000000 I-1.547363 J5.792331
G02 X22.157751 Y18.620486 Z0.000000 I-0.000000 J5.760629
G02 X20.953716 Y19.166929 Z0.000000 I1.122544 J4.073125
G02 X19.986804 Y20.054841 Z0.000000 I2.384903 J3.567522
G02 X19.165835 Y21.403624 Z0.000000 I4.844638 J3.873049
G02 X18.676018 Y22.733624 Z0.000000 I9.203514 J4.144694
G02 X18.324216 Y24.302763 Z0.000000 I12.452206 J3.615801
G02 X18.159848 Y25.906319 Z0.000000 I16.900137 J2.542504
G02 X18.084073 Y28.662684 Z0.000000 I50.094382 J2.756364
G01 X18.084073 Y49.229802 Z0.000000
G01 X15.109339 Y49.229802 Z0.000000
G01 X15.109339 Y49.229802 Z0.000000
G00 Z5.000000

(End cutting path id: path3371)


(Start cutting path id: path3371)
(Change tool to Cylindrical cutter)

G00 Z5.000000
G00 X70.309161 Y49.229802

G01 Z0.000000 F100.0(Penetrate)
G01 X70.309161 Y15.240486 Z0.000000 F100.000000
G01 X85.048225 Y15.240486 Z0.000000
G01 X85.048225 Y19.257974 Z0.000000
G01 X73.283895 Y19.257974 Z0.000000
G01 X73.283895 Y31.881839 Z0.000000
G01 X85.048225 Y31.881839 Z0.000000
G01 X85.048225 Y35.899327 Z0.000000
G01 X73.283895 Y35.899327 Z0.000000
G01 X73.283895 Y45.212314 Z0.000000
G01 X85.048225 Y45.212314 Z0.000000
G01 X85.048225 Y49.229802 Z0.000000
G01 X70.309161 Y49.229802 Z0.000000
G01 X70.309161 Y49.229802 Z0.000000
G00 Z5.000000

(End cutting path id: path3371)


(Start cutting path id: path3371)
(Change tool to Cylindrical cutter)

G00 Z5.000000
G00 X89.780877 Y49.229802

G01 Z0.000000 F100.0(Penetrate)
G01 X89.780877 Y15.240486 Z0.000000 F100.000000
G01 X92.560186 Y15.240486 Z0.000000
G01 X92.560186 Y45.646472 Z0.000000
G01 X103.167626 Y15.240486 Z0.000000
G01 X106.848478 Y15.240486 Z0.000000
G01 X106.848478 Y49.229802 Z0.000000
G01 X104.069169 Y49.229802 Z0.000000
G01 X104.069169 Y21.472245 Z0.000000
G01 X94.393234 Y49.229802 Z0.000000
G01 X89.780877 Y49.229802 Z0.000000
G01 X89.780877 Y49.229802 Z0.000000
G00 Z5.000000

(End cutting path id: path3371)


(Start cutting path id: path3371)
(Change tool to Cylindrical cutter)

G00 Z5.000000
G00 X109.793250 Y49.229802

G01 Z0.000000 F100.0(Penetrate)
G01 X109.793250 Y45.212314 Z0.000000 F100.000000
G01 X117.786392 Y45.212314 Z0.000000
G01 X117.786392 Y15.240486 Z0.000000
G01 X120.761126 Y15.240486 Z0.000000
G01 X120.761126 Y45.212314 Z0.000000
G01 X128.754271 Y45.212314 Z0.000000
G01 X128.754271 Y49.229802 Z0.000000
G01 X109.793250 Y49.229802 Z0.000000
G01 X109.793250 Y49.229802 Z0.000000
G00 Z5.000000

(End cutting path id: path3371)


(Start cutting path id: path3371)
(Change tool to Cylindrical cutter)

G00 Z5.000000
G00 X131.788927 Y49.229802

G01 Z0.000000 F100.0(Penetrate)
G01 X131.788927 Y15.240486 Z0.000000 F100.000000
G01 X134.764107 Y15.240486 Z0.000000
G01 X134.764107 Y28.754406 Z0.000000
G01 X138.955655 Y28.754406 Z0.000000
G01 X146.438104 Y15.240486 Z0.000000
G01 X150.299175 Y15.240486 Z0.000000
G01 X141.885671 Y30.101045 Z0.000000
G03 X143.740256 Y31.615535 Z0.000000 I-3.986817 J6.774869
G03 X145.236047 Y33.821619 Z0.000000 I-7.236456 J6.516672
G03 X146.101564 Y36.391319 Z0.000000 I-9.393728 J4.594575
G03 X146.452863 Y39.985436 Z0.000000 I-18.209975 J3.594117
G03 X146.247407 Y42.662867 Z0.000000 I-17.548399 J-0.000000
G03 X145.761948 Y44.459503 Z0.000000 I-8.322233 J-1.284800
G03 X144.919349 Y46.129782 Z0.000000 I-8.398763 J-3.189217
G03 X143.868529 Y47.404164 Z0.000000 I-5.899133 J-3.793831
G03 X142.700236 Y48.279773 Z0.000000 I-4.329138 J-4.559005
G03 X141.434899 Y48.819423 Z0.000000 I-2.803527 J-4.820257
G03 X140.064500 Y49.108391 Z0.000000 I-2.338265 J-7.695019
G03 X138.054112 Y49.229802 Z0.000000 I-2.010387 J-16.583812
G01 X131.788927 Y49.229802 Z0.000000
G01 X131.788927 Y49.229802 Z0.000000
G00 Z5.000000

(End cutting path id: path3371)


(Start cutting path id: path3371)
(Change tool to Cylindrical cutter)

G00 Z5.000000
G00 X158.712682 Y49.229802

G01 Z0.000000 F100.0(Penetrate)
G01 X150.569727 Y15.240486 Z0.000000 F100.000000
G01 X153.589629 Y15.240486 Z0.000000
G01 X155.783116 Y24.713820 Z0.000000
G01 X165.459048 Y24.713820 Z0.000000
G01 X167.652534 Y15.240486 Z0.000000
G01 X170.822691 Y15.240486 Z0.000000
G01 X162.679292 Y49.229802 Z0.000000
G01 X158.712682 Y49.229802 Z0.000000
G01 X158.712682 Y49.229802 Z0.000000
G00 Z5.000000

(End cutting path id: path3371)


(Start cutting path id: path3371)
(Change tool to Cylindrical cutter)

G00 Z5.000000
G00 X174.218234 Y49.229802

G01 Z0.000000 F100.0(Penetrate)
G01 X174.218234 Y15.240486 Z0.000000 F100.000000
G01 X188.371026 Y15.240486 Z0.000000
G01 X188.371026 Y19.257974 Z0.000000
G01 X177.192969 Y19.257974 Z0.000000
G01 X177.192969 Y49.229802 Z0.000000
G01 X174.218234 Y49.229802 Z0.000000
G01 X174.218234 Y49.229802 Z0.000000
G00 Z5.000000

(End cutting path id: path3371)


(Start cutting path id: path3371)
(Change tool to Cylindrical cutter)

G00 Z5.000000
G00 X134.764107 Y45.349559

G01 Z0.000000 F100.0(Penetrate)
G01 X138.264743 Y45.349559 Z0.000000 F100.000000
G02 X139.454961 Y45.271898 Z0.000000 I0.000000 J-9.159354
G02 X140.353137 Y45.075747 Z0.000000 I-0.706086 J-5.387636
G02 X141.177696 Y44.720590 Z0.000000 I-0.938906 J-3.314590
G02 X141.885671 Y44.162589 Z0.000000 I-1.778431 J-2.984550
G02 X142.541652 Y43.312242 Z0.000000 I-2.883296 J-2.902448
G02 X142.997395 Y42.245232 Z0.000000 I-4.131569 J-2.395516
G02 X143.246570 Y41.111991 Z0.000000 I-6.669479 J-2.060490
G02 X143.343075 Y39.665423 Z0.000000 I-10.793544 J-1.446568
G02 X143.243906 Y37.760760 Z0.000000 I-18.340391 J-0.000000
G02 X143.012152 Y36.492472 Z0.000000 I-8.367739 J0.873720
G02 X142.595684 Y35.306563 Z0.000000 I-6.995201 J1.790490
G02 X142.020722 Y34.301300 Z0.000000 I-5.580925 J2.524964
G02 X141.176533 Y33.415808 Z0.000000 I-3.571091 J2.559367
G02 X140.232842 Y32.886041 Z0.000000 I-2.133780 J2.695576
G02 X139.163773 Y32.623495 Z0.000000 I-1.935528 J5.573489
G02 X137.768804 Y32.520506 Z0.000000 I-1.394969 J9.395815
G01 X134.764107 Y32.520506 Z0.000000
G01 X134.764107 Y45.349559 Z0.000000
G01 X134.764107 Y45.349559 Z0.000000
G00 Z5.000000

(End cutting path id: path3371)


(Start cutting path id: path3371)
(Change tool to Cylindrical cutter)

G00 Z5.000000
G00 X160.620857 Y45.280938

G01 Z0.000000 F100.0(Penetrate)
G01 X164.542300 Y28.594741 Z0.000000 F100.000000
G01 X156.684658 Y28.594741 Z0.000000
G01 X160.620857 Y45.280938 Z0.000000
G01 X160.620857 Y45.280938 Z0.000000
G00 Z5.000000

(End cutting path id: path3371)


(Footer)
M5
G00 X0.0000 Y0.0000
M2
(Using default footer. To add your own footer create file "footer" in the output dir.)
(end)
%