%
(Header)
(Generated by gcodetools from Inkscape.)
(Using default header. To add your own header create file "header" in the output dir.)
M3
(Header end.)
G21 (All units in mm)

(Start cutting path id: path9773)
(Change tool to Cylindrical cutter)

G00 Z3.000000
G00 X145.679900 Y18.000511

G01 Z-1.000000 F100.0(Penetrate)
G02 X145.453294 Y16.099537 Z-1.000000 I-8.086825 J0.000000 F300.000000
G02 X144.821383 Y14.450683 Z-1.000000 I-6.687042 J1.617245
G02 X143.805131 Y13.016005 Z-1.000000 I-6.155428 J3.282920
G02 X142.554512 Y11.981239 Z-1.000000 I-4.380565 J4.021219
G02 X141.532739 Y11.466682 Z-1.000000 I-3.468405 J5.615569
G02 X140.355163 Y11.103443 Z-1.000000 I-2.838903 J7.112976
G02 X139.140157 Y10.916687 Z-1.000000 I-1.981372 J8.844774
G02 X137.171894 Y10.833328 Z-1.000000 I-1.968263 J23.195731
G01 X133.544898 Y10.833328 Z-1.000000
G01 X133.544898 Y25.196628 Z-1.000000
G01 X137.133308 Y25.196628 Z-1.000000
G02 X139.224316 Y25.100139 Z-1.000000 I0.000000 J-22.705504
G02 X140.470916 Y24.887947 Z-1.000000 I-0.763097 J-8.250981
G02 X141.680751 Y24.506004 Z-1.000000 I-2.120505 J-8.823955
G02 X142.573805 Y24.058366 Z-1.000000 I-2.064780 J-5.233970
G02 X143.875444 Y22.987749 Z-1.000000 I-3.452649 J-5.524236
G02 X144.859969 Y21.617861 Z-1.000000 I-4.763320 J-4.462080
G02 X145.452061 Y20.036354 Z-1.000000 I-5.511313 J-2.964944
G02 X145.679900 Y18.000511 Z-1.000000 I-8.981669 J-2.035843
G01 X145.679900 Y18.000511 Z-1.000000
G00 Z3.000000

(End cutting path id: path9773)


(Start cutting path id: path9773)
(Change tool to Cylindrical cutter)

G00 Z3.000000
G00 X143.683124 Y18.029450

G01 Z-1.000000 F100.0(Penetrate)
G03 X143.514551 Y19.677159 Z-1.000000 I-8.137007 J0.000000 F300.000000
G03 X143.094702 Y20.875100 Z-1.000000 I-4.680321 J-0.967795
G03 X142.366133 Y21.899070 Z-1.000000 I-3.795522 J-1.929390
G03 X141.339083 Y22.698244 Z-1.000000 I-3.288691 J-3.166887
G03 X140.462592 Y23.105632 Z-1.000000 I-2.928821 J-5.154752
G03 X139.535228 Y23.363834 Z-1.000000 I-2.035786 J-5.517303
G03 X138.574664 Y23.500927 Z-1.000000 I-1.669535 J-8.264123
G03 X137.249064 Y23.556761 Z-1.000000 I-1.325600 J-15.708199
G01 X135.454859 Y23.556761 Z-1.000000
G01 X135.454859 Y12.473209 Z-1.000000
G01 X137.249064 Y12.473209 Z-1.000000
G03 X138.622807 Y12.531029 Z-1.000000 I-0.000000 J16.348149
G03 X139.650984 Y12.675760 Z-1.000000 I-0.783399 J9.289818
G03 X140.646787 Y12.968891 Z-1.000000 I-1.082489 J5.515341
G03 X141.541653 Y13.428192 Z-1.000000 I-1.951371 J4.903291
G03 X142.479981 Y14.229718 Z-1.000000 I-2.418920 J3.781776
G03 X143.142934 Y15.232033 Z-1.000000 I-3.183620 J2.826121
G03 X143.525989 Y16.386943 Z-1.000000 I-4.242559 J2.048131
G03 X143.683124 Y18.029450 Z-1.000000 I-8.505853 J1.642507
G01 X143.683124 Y18.029450 Z-1.000000
G00 Z3.000000

(End cutting path id: path9773)


(Start cutting path id: path9771)
(Change tool to Cylindrical cutter)

G00 Z3.000000
G00 X131.364841 Y10.833328

G01 Z-1.000000 F100.0(Penetrate)
G01 X129.329477 Y10.833328 Z-1.000000 F300.000000
G01 X127.921123 Y14.836535 Z-1.000000
G01 X121.708927 Y14.836535 Z-1.000000
G01 X120.300573 Y10.833328 Z-1.000000
G01 X118.361672 Y10.833328 Z-1.000000
G01 X123.589949 Y25.196628 Z-1.000000
G01 X126.136564 Y25.196628 Z-1.000000
G01 X131.364841 Y10.833328 Z-1.000000
G01 X131.364841 Y10.833328 Z-1.000000
G00 Z3.000000

(End cutting path id: path9771)


(Start cutting path id: path9771)
(Change tool to Cylindrical cutter)

G00 Z3.000000
G00 X127.332701 Y16.476401

G01 Z-1.000000 F100.0(Penetrate)
G01 X124.815025 Y23.527822 Z-1.000000 F300.000000
G01 X122.287702 Y16.476401 Z-1.000000
G01 X127.332701 Y16.476401 Z-1.000000
G01 X127.332701 Y16.476401 Z-1.000000
G00 Z3.000000

(End cutting path id: path9771)


(Start cutting path id: path9769)
(Change tool to Cylindrical cutter)

G00 Z3.000000
G00 X116.934026 Y18.000511

G01 Z-1.000000 F100.0(Penetrate)
G02 X116.707419 Y16.099537 Z-1.000000 I-8.086799 J-0.000000 F300.000000
G02 X116.075506 Y14.450683 Z-1.000000 I-6.687029 J1.617247
G02 X115.059253 Y13.016005 Z-1.000000 I-6.155428 J3.282920
G02 X113.808635 Y11.981239 Z-1.000000 I-4.380565 J4.021219
G02 X112.786862 Y11.466682 Z-1.000000 I-3.468405 J5.615569
G02 X111.609286 Y11.103443 Z-1.000000 I-2.838903 J7.112976
G02 X110.394280 Y10.916687 Z-1.000000 I-1.981372 J8.844774
G02 X108.426016 Y10.833328 Z-1.000000 I-1.968263 J23.195731
G01 X104.799021 Y10.833328 Z-1.000000
G01 X104.799021 Y25.196628 Z-1.000000
G01 X108.387431 Y25.196628 Z-1.000000
G02 X110.478439 Y25.100139 Z-1.000000 I0.000000 J-22.705504
G02 X111.725039 Y24.887947 Z-1.000000 I-0.763097 J-8.250981
G02 X112.934874 Y24.506004 Z-1.000000 I-2.120505 J-8.823955
G02 X113.827928 Y24.058366 Z-1.000000 I-2.064780 J-5.233970
G02 X115.129566 Y22.987749 Z-1.000000 I-3.452649 J-5.524236
G02 X116.114091 Y21.617861 Z-1.000000 I-4.763320 J-4.462080
G02 X116.706186 Y20.036354 Z-1.000000 I-5.511299 J-2.964946
G02 X116.934026 Y18.000511 Z-1.000000 I-8.981637 J-2.035843
G01 X116.934026 Y18.000511 Z-1.000000
G00 Z3.000000

(End cutting path id: path9769)


(Start cutting path id: path9769)
(Change tool to Cylindrical cutter)

G00 Z3.000000
G00 X114.937247 Y18.029450

G01 Z-1.000000 F100.0(Penetrate)
G03 X114.768674 Y19.677159 Z-1.000000 I-8.137007 J0.000000 F300.000000
G03 X114.348825 Y20.875100 Z-1.000000 I-4.680321 J-0.967795
G03 X113.620256 Y21.899070 Z-1.000000 I-3.795522 J-1.929390
G03 X112.593205 Y22.698244 Z-1.000000 I-3.288691 J-3.166887
G03 X111.716714 Y23.105632 Z-1.000000 I-2.928821 J-5.154752
G03 X110.789351 Y23.363834 Z-1.000000 I-2.035786 J-5.517303
G03 X109.828790 Y23.500927 Z-1.000000 I-1.669526 J-8.264057
G03 X108.503187 Y23.556761 Z-1.000000 I-1.325602 J-15.708232
G01 X106.708982 Y23.556761 Z-1.000000
G01 X106.708982 Y12.473209 Z-1.000000
G01 X108.503187 Y12.473209 Z-1.000000
G03 X109.876930 Y12.531029 Z-1.000000 I0.000000 J16.348149
G03 X110.905107 Y12.675760 Z-1.000000 I-0.783399 J9.289818
G03 X111.900910 Y12.968891 Z-1.000000 I-1.082489 J5.515341
G03 X112.795776 Y13.428192 Z-1.000000 I-1.951371 J4.903291
G03 X113.734106 Y14.229719 Z-1.000000 I-2.418909 J3.781769
G03 X114.397057 Y15.232033 Z-1.000000 I-3.183593 J2.826096
G03 X114.780112 Y16.386943 Z-1.000000 I-4.242559 J2.048131
G03 X114.937247 Y18.029450 Z-1.000000 I-8.505853 J1.642507
G01 X114.937247 Y18.029450 Z-1.000000
G00 Z3.000000

(End cutting path id: path9769)


(Start cutting path id: path9767)
(Change tool to Cylindrical cutter)

G00 Z3.000000
G00 X101.528934 Y10.833328

G01 Z-1.000000 F100.0(Penetrate)
G01 X95.856931 Y10.833328 Z-1.000000 F300.000000
G01 X95.856931 Y12.299557 Z-1.000000
G01 X97.737953 Y12.299557 Z-1.000000
G01 X97.737953 Y23.730393 Z-1.000000
G01 X95.856931 Y23.730393 Z-1.000000
G01 X95.856931 Y25.196628 Z-1.000000
G01 X101.528934 Y25.196628 Z-1.000000
G01 X101.528934 Y23.730393 Z-1.000000
G01 X99.647915 Y23.730393 Z-1.000000
G01 X99.647915 Y12.299557 Z-1.000000
G01 X101.528934 Y12.299557 Z-1.000000
G01 X101.528934 Y10.833328 Z-1.000000
G01 X101.528934 Y10.833328 Z-1.000000
G00 Z3.000000

(End cutting path id: path9767)


(Start cutting path id: path9765)
(Change tool to Cylindrical cutter)

G00 Z3.000000
G00 X93.397133 Y14.932998

G01 Z-1.000000 F100.0(Penetrate)
G02 X93.301072 Y14.115742 Z-1.000000 I-3.524534 J-0.000000 F300.000000
G02 X93.001635 Y13.273845 Z-1.000000 I-4.042732 J0.963679
G02 X92.535062 Y12.517261 Z-1.000000 I-3.574007 J1.681873
G02 X91.911608 Y11.884775 Z-1.000000 I-3.102022 J2.434210
G02 X91.096332 Y11.347241 Z-1.000000 I-3.326040 J4.157558
G02 X90.107754 Y10.920140 Z-1.000000 I-3.053360 J5.709739
G02 X89.068721 Y10.672972 Z-1.000000 I-1.832596 J5.396269
G02 X87.638309 Y10.572894 Z-1.000000 I-1.430412 J10.172388
G02 X86.094402 Y10.652539 Z-1.000000 I-0.000000 J15.003930
G02 X84.840894 Y10.862284 Z-1.000000 I1.043449 J10.086568
G02 X83.626042 Y11.210866 Z-1.000000 I2.931845 J12.509092
G02 X82.323218 Y11.720804 Z-1.000000 I5.081271 J14.901219
G01 X82.323218 Y14.113061 Z-1.000000
G01 X82.458264 Y14.113061 Z-1.000000
G03 X83.613419 Y13.321961 Z-1.000000 I4.800851 J5.771226
G03 X84.975940 Y12.714368 Z-1.000000 I4.139322 J7.450864
G03 X86.422405 Y12.334763 Z-1.000000 I3.242131 J9.408337
G03 X87.657602 Y12.222398 Z-1.000000 I1.235197 J6.732895
G03 X89.370103 Y12.426054 Z-1.000000 I-0.000000 J7.301844
G03 X90.416434 Y12.887991 Z-1.000000 I-0.753255 J3.122187
G03 X91.155999 Y13.689156 Z-1.000000 I-1.302457 J1.944247
G03 X91.410000 Y14.662915 Z-1.000000 I-1.739540 J0.973759
G03 X91.264180 Y15.555696 Z-1.000000 I-2.805929 J0.000000
G03 X90.937335 Y16.071257 Z-1.000000 I-1.211306 J-0.406537
G03 X90.424079 Y16.436048 Z-1.000000 I-1.409010 J-1.438989
G03 X89.519332 Y16.775435 Z-1.000000 I-2.109471 J-4.247838
G03 X88.791256 Y16.946046 Z-1.000000 I-3.167075 J-11.876568
G03 X87.946990 Y17.093762 Z-1.000000 I-3.204030 J-15.825964
G02 X87.109846 Y17.230943 Z-1.000000 I4.446383 J29.756934
G02 X86.162431 Y17.412089 Z-1.000000 I6.831089 J38.295478
G02 X84.370175 Y18.027710 Z-1.000000 I1.617689 J7.626286
G02 X83.326428 Y18.791504 Z-1.000000 I1.588373 J3.265610
G02 X82.665850 Y19.876103 Z-1.000000 I2.306602 J2.148304
G02 X82.410032 Y21.347766 Z-1.000000 I4.105167 J1.471663
G02 X82.800892 Y22.956681 Z-1.000000 I3.506859 J-0.000000
G02 X83.934142 Y24.299522 Z-1.000000 I3.509394 J-1.812041
G02 X85.568384 Y25.129990 Z-1.000000 I3.106946 J-4.090812
G02 X87.802297 Y25.457076 Z-1.000000 I2.233913 J-7.464982
G02 X89.307920 Y25.378870 Z-1.000000 I-0.000000 J-14.532198
G02 X90.580422 Y25.167689 Z-1.000000 I-1.102123 J-10.580383
G02 X91.827116 Y24.826753 Z-1.000000 I-3.450552 J-15.067423
G02 X92.818357 Y24.453864 Z-1.000000 I-3.153850 J-9.887738
G01 X92.818357 Y22.196636 Z-1.000000
G01 X92.683308 Y22.196636 Z-1.000000
G03 X91.806606 Y22.790723 Z-1.000000 I-3.198000 J-3.775408
G03 X90.522544 Y23.344544 Z-1.000000 I-4.047434 J-7.618687
G03 X89.171739 Y23.691439 Z-1.000000 I-2.751234 J-7.909828
G03 X87.792651 Y23.807564 Z-1.000000 I-1.379088 J-8.130898
G03 X86.316547 Y23.620346 Z-1.000000 I0.000000 J-5.912709
G03 X85.323206 Y23.170910 Z-1.000000 I0.792559 J-3.074166
G03 X84.628824 Y22.412396 Z-1.000000 I1.293082 J-1.880846
G03 X84.397165 Y21.531044 Z-1.000000 I1.560729 J-0.881352
G03 X84.532494 Y20.686114 Z-1.000000 I2.705329 J-0.000000
G03 X84.860184 Y20.122690 Z-1.000000 I1.491091 J0.490221
G03 X85.390953 Y19.726764 Z-1.000000 I1.273198 J1.153091
G03 X86.490404 Y19.341341 Z-1.000000 I2.298275 J4.795160
G03 X87.109611 Y19.215809 Z-1.000000 I4.401926 J20.123329
G03 X88.246027 Y19.013370 Z-1.000000 I12.626473 J67.589388
G02 X89.380170 Y18.801070 Z-1.000000 I-5.621535 J-33.166727
G02 X90.175278 Y18.617872 Z-1.000000 I-3.378252 J-16.479225
G02 X91.678145 Y18.028020 Z-1.000000 I-1.803883 J-6.805545
G02 X92.586844 Y17.334918 Z-1.000000 I-1.656999 J-3.114658
G02 X93.159323 Y16.381898 Z-1.000000 I-1.889855 J-1.783689
G02 X93.397133 Y14.932998 Z-1.000000 I-4.294943 J-1.448900
G01 X93.397133 Y14.932998 Z-1.000000
G00 Z3.000000

(End cutting path id: path9765)


(Start cutting path id: path9763)
(Change tool to Cylindrical cutter)

G00 Z3.000000
G00 X81.107788 Y10.833328

G01 Z-1.000000 F100.0(Penetrate)
G01 X78.628698 Y10.833328 Z-1.000000 F300.000000
G01 X73.824855 Y16.543926 Z-1.000000
G01 X71.133547 Y16.543926 Z-1.000000
G01 X71.133547 Y10.833328 Z-1.000000
G01 X69.223586 Y10.833328 Z-1.000000
G01 X69.223586 Y25.196628 Z-1.000000
G01 X73.246079 Y25.196628 Z-1.000000
G02 X74.543196 Y25.144825 Z-1.000000 I0.000000 J-16.265620
G02 X75.416489 Y25.022993 Z-1.000000 I-0.598439 J-7.480421
G02 X76.255795 Y24.785185 Z-1.000000 I-0.906604 J-4.799701
G02 X76.979185 Y24.424925 Z-1.000000 I-1.498343 J-3.915027
G02 X77.681833 Y23.857252 Z-1.000000 I-2.050688 J-3.256978
G02 X78.194614 Y23.180556 Z-1.000000 I-2.432422 J-2.375853
G02 X78.509560 Y22.402254 Z-1.000000 I-2.349593 J-1.403655
G02 X78.638344 Y21.289887 Z-1.000000 I-4.739636 J-1.112367
G02 X78.420961 Y19.808766 Z-1.000000 I-5.154441 J-0.000000
G02 X77.856995 Y18.685397 Z-1.000000 I-3.480911 J1.044276
G02 X76.958637 Y17.798028 Z-1.000000 I-3.424059 J2.568037
G02 X75.705877 Y17.113055 Z-1.000000 I-3.229210 J4.417876
G01 X81.107788 Y10.833328 Z-1.000000
G01 X81.107788 Y10.833328 Z-1.000000
G00 Z3.000000

(End cutting path id: path9763)


(Start cutting path id: path9763)
(Change tool to Cylindrical cutter)

G00 Z3.000000
G00 X76.641565 Y21.154841

G01 Z-1.000000 F100.0(Penetrate)
G03 X76.580741 Y21.758637 Z-1.000000 I-3.027308 J0.000000 F300.000000
G03 X76.419702 Y22.244868 Z-1.000000 I-2.113314 J-0.430143
G03 X76.145325 Y22.674495 Z-1.000000 I-1.522458 J-0.669877
G03 X75.705877 Y23.055154 Z-1.000000 I-1.623445 J-1.430181
G03 X75.270207 Y23.283933 Z-1.000000 I-1.255320 J-1.861324
G03 X74.721958 Y23.441005 Z-1.000000 I-1.100934 J-2.807378
G03 X74.149496 Y23.523656 Z-1.000000 I-1.007051 J-4.951284
G03 X73.381128 Y23.556761 Z-1.000000 I-0.768367 J-8.900162
G01 X71.133547 Y23.556761 Z-1.000000
G01 X71.133547 Y18.135557 Z-1.000000
G01 X73.062801 Y18.135557 Z-1.000000
G03 X73.964598 Y18.179444 Z-1.000000 I-0.000000 J9.287225
G03 X74.644789 Y18.289899 Z-1.000000 I-0.525327 J5.384552
G03 X75.280157 Y18.528530 Z-1.000000 I-0.663294 J2.731222
G03 X75.792695 Y18.887967 Z-1.000000 I-1.104844 J2.120587
G03 X76.173040 Y19.329510 Z-1.000000 I-1.831181 J1.961967
G03 X76.429348 Y19.814009 Z-1.000000 I-1.956335 J1.344981
G03 X76.578790 Y20.356643 Z-1.000000 I-2.342673 J0.937067
G03 X76.641565 Y21.154841 Z-1.000000 I-5.043189 J0.798199
G01 X76.641565 Y21.154841 Z-1.000000
G00 Z3.000000

(End cutting path id: path9763)


(Start cutting path id: path9761)
(Change tool to Cylindrical cutter)

G00 Z3.000000
G00 X66.185012 Y10.833328

G01 Z-1.000000 F100.0(Penetrate)
G01 X56.722024 Y10.833328 Z-1.000000 F300.000000
G01 X56.722024 Y25.196628 Z-1.000000
G01 X66.185012 Y25.196628 Z-1.000000
G01 X66.185012 Y23.498883 Z-1.000000
G01 X58.631983 Y23.498883 Z-1.000000
G01 X58.631983 Y19.563207 Z-1.000000
G01 X66.185012 Y19.563207 Z-1.000000
G01 X66.185012 Y17.865462 Z-1.000000
G01 X58.631983 Y17.865462 Z-1.000000
G01 X58.631983 Y12.531064 Z-1.000000
G01 X66.185012 Y12.531064 Z-1.000000
G01 X66.185012 Y10.833328 Z-1.000000
G01 X66.185012 Y10.833328 Z-1.000000
G00 Z3.000000

(End cutting path id: path9761)


(Start cutting path id: path9759)
(Change tool to Cylindrical cutter)

G00 Z3.000000
G00 X54.541968 Y25.196628

G01 Z-1.000000 F100.0(Penetrate)
G01 X49.313691 Y10.833328 Z-1.000000 F300.000000
G01 X46.767076 Y10.833328 Z-1.000000
G01 X41.538799 Y25.196628 Z-1.000000
G01 X43.583807 Y25.196628 Z-1.000000
G01 X48.088615 Y12.560020 Z-1.000000
G01 X52.593421 Y25.196628 Z-1.000000
G01 X54.541968 Y25.196628 Z-1.000000
G01 X54.541968 Y25.196628 Z-1.000000
G00 Z3.000000

(End cutting path id: path9759)


(Start cutting path id: path9757)
(Change tool to Cylindrical cutter)

G00 Z3.000000
G00 X39.947164 Y10.833328

G01 Z-1.000000 F100.0(Penetrate)
G01 X34.275158 Y10.833328 Z-1.000000 F300.000000
G01 X34.275158 Y12.299557 Z-1.000000
G01 X36.156181 Y12.299557 Z-1.000000
G01 X36.156181 Y23.730393 Z-1.000000
G01 X34.275158 Y23.730393 Z-1.000000
G01 X34.275158 Y25.196628 Z-1.000000
G01 X39.947164 Y25.196628 Z-1.000000
G01 X39.947164 Y23.730393 Z-1.000000
G01 X38.066142 Y23.730393 Z-1.000000
G01 X38.066142 Y12.299557 Z-1.000000
G01 X39.947164 Y12.299557 Z-1.000000
G01 X39.947164 Y10.833328 Z-1.000000
G01 X39.947164 Y10.833328 Z-1.000000
G00 Z3.000000

(End cutting path id: path9757)


(Start cutting path id: path9755)
(Change tool to Cylindrical cutter)

G00 Z3.000000
G00 X31.062953 Y10.833328

G01 Z-1.000000 F100.0(Penetrate)
G01 X28.699615 Y10.833328 Z-1.000000 F300.000000
G01 X21.889352 Y23.682161 Z-1.000000
G01 X21.889352 Y10.833328 Z-1.000000
G01 X20.104792 Y10.833328 Z-1.000000
G01 X20.104792 Y25.196628 Z-1.000000
G01 X23.066196 Y25.196628 Z-1.000000
G01 X29.278394 Y13.466772 Z-1.000000
G01 X29.278394 Y25.196628 Z-1.000000
G01 X31.062953 Y25.196628 Z-1.000000
G01 X31.062953 Y10.833328 Z-1.000000
G01 X31.062953 Y10.833328 Z-1.000000
G00 Z3.000000

(End cutting path id: path9755)


(Start cutting path id: path9753)
(Change tool to Cylindrical cutter)

G00 Z3.000000
G00 X16.448857 Y16.601801

G01 Z-1.000000 F100.0(Penetrate)
G02 X16.350767 Y15.053388 Z-1.000000 I-12.270357 J-0.000000 F300.000000
G02 X16.101591 Y13.871902 Z-1.000000 I-7.372508 J0.937844
G02 X15.637964 Y12.789508 Z-1.000000 I-4.686609 J1.366948
G02 X14.982624 Y11.942659 Z-1.000000 I-3.492293 J2.025541
G02 X14.177559 Y11.310418 Z-1.000000 I-3.184663 J3.226511
G02 X13.246296 Y10.871908 Z-1.000000 I-2.406132 J3.901779
G02 X12.237079 Y10.629027 Z-1.000000 I-1.830017 J5.385879
G02 X10.931192 Y10.534314 Z-1.000000 I-1.305887 J8.955322
G02 X9.598059 Y10.634813 Z-1.000000 I0.000000 J8.892311
G02 X8.577503 Y10.891212 Z-1.000000 I0.825887 J5.446598
G02 X7.636166 Y11.345263 Z-1.000000 I1.630440 J4.583036
G02 X6.889406 Y11.942659 Z-1.000000 I2.153274 J3.457078
G02 X6.225641 Y12.804141 Z-1.000000 I3.158665 J3.120183
G02 X5.760793 Y13.852626 Z-1.000000 I4.251205 J2.512068
G02 X5.522008 Y14.986170 Z-1.000000 I6.499404 J1.961044
G02 X5.423173 Y16.601801 Z-1.000000 I13.155801 J1.615631
G01 X5.423173 Y25.196628 Z-1.000000
G01 X7.333134 Y25.196628 Z-1.000000
G01 X7.333134 Y16.505340 Z-1.000000
G03 X7.381708 Y15.343620 Z-1.000000 I13.916519 J0.000000
G03 X7.487474 Y14.662915 Z-1.000000 I4.867769 J0.407774
G03 X7.707816 Y14.012778 Z-1.000000 I3.772648 J0.916207
G03 X8.027666 Y13.437816 Z-1.000000 I3.263263 J1.438893
G03 X8.522056 Y12.894712 Z-1.000000 I2.127951 J1.440511
G03 X9.175571 Y12.492485 Z-1.000000 I1.783429 J2.165598
G03 X9.927438 Y12.264428 Z-1.000000 I1.361937 J3.136665
G03 X10.931192 Y12.174166 Z-1.000000 I1.003754 J5.536002
G03 X11.945259 Y12.262632 Z-1.000000 I0.000000 J5.856236
G03 X12.686813 Y12.482833 Z-1.000000 I-0.585632 J3.330934
G03 X13.340267 Y12.885419 Z-1.000000 I-1.126530 J2.560136
G03 X13.844365 Y13.437816 Z-1.000000 I-1.689876 J2.048328
G03 X14.159314 Y14.014140 Z-1.000000 I-2.717442 J1.859247
G03 X14.374909 Y14.691842 Z-1.000000 I-3.555563 J1.504263
G03 X14.490418 Y15.411161 Z-1.000000 I-5.335281 J1.225677
G03 X14.538896 Y16.457108 Z-1.000000 I-11.259306 J1.045947
G01 X14.538896 Y25.196628 Z-1.000000
G01 X16.448857 Y25.196628 Z-1.000000
G01 X16.448857 Y16.601801 Z-1.000000
G01 X16.448857 Y16.601801 Z-1.000000
G00 Z3.000000

(End cutting path id: path9753)


(Footer)
M5
G00 X0.0000 Y0.0000
M2
(Using default footer. To add your own footer create file "footer" in the output dir.)
(end)
%